( Made using CamBam - http://www.cambam.co.uk )
( scout_mk1_b.cmp 5/14/2015 11:05:17 PM )
( T1 : 1.0 )
( T2 : 0.2 )
G21 G90 G64 G40
G0 Z3.0
( T2 : 0.2 )
T2 M6
( isolation )
M0
G17
M3 S1000
G0 X31.5067 Y36.3036
G0 Z1.25
G1 F50.0 Z-0.15
G3 F150.0 X31.4024 Y36.4824 I-0.3917 J-0.1086
G1 X23.1474 Y44.7374
G3 X22.86 Y44.8565 I-0.2874 J-0.2874
G1 X22.2125
G1 Y45.7075
G1 X19.6975
G1 Y43.1925
G1 X22.2125
G1 Y44.0435
G1 X22.6916
G1 X30.7085 Y36.0266
G1 Y32.0508
G3 X30.277 Y31.318 I0.4065 J-0.7328
G1 Y29.642
G3 X31.953 I0.838 J0.0
G1 Y31.318
G3 X31.5215 Y32.0508 I-0.838 J0.0
G1 Y36.195
G3 X31.5067 Y36.3036 I-0.4065 J0.0
G0 Z3.0
G0 X33.2485
G0 Z1.25
G1 F50.0 Z-0.15
G1 F150.0 Y32.0508
G3 X32.817 Y31.318 I0.4065 J-0.7328
G1 Y29.642
G3 X34.493 I0.838 J0.0
G1 Y31.318
G3 X34.0615 Y32.0508 I-0.838 J0.0
G1 Y44.2816
G1 X36.3634 Y46.5835
G1 X37.4775
G1 Y45.7325
G1 X39.9925
G1 Y46.5835
G1 X41.2957
G3 X41.91 Y45.2551 I1.2493 J-0.2285
G3 X43.7482 Y45.9485 I0.635 J1.0999
G1 X45.7868
G3 X46.355 Y45.2551 I1.2032 J0.4065
G3 X48.26 Y46.355 I0.635 J1.0999
G3 X46.355 Y47.4549 I-1.27 J0.0
G3 X45.7868 Y46.7615 I0.635 J-1.0999
G1 X43.7482
G3 X41.91 Y47.4549 I-1.2032 J-0.4065
G3 X41.8182 Y47.3965 I0.635 J-1.0999
G1 X39.9925
G1 Y48.2475
G1 X37.4775
G1 Y47.3965
G1 X36.195
G3 X35.9076 Y47.2774 I0.0 J-0.4065
G1 X33.3676 Y44.7374
G3 X33.2485 Y44.45 I0.2874 J-0.2874
G1 Y36.3036
G0 Z3.0
G0 X36.4237 Y36.2073
G0 Z1.25
G1 F50.0 Z-0.15
G3 F150.0 X36.4235 Y36.195 I0.4063 J-0.0123
G1 Y33.02
G3 X36.5426 Y32.7326 I0.4065 J0.0
G1 X37.0585 Y32.2166
G1 Y28.575
G3 X37.1776 Y28.2876 I0.4065 J0.0
G1 X40.8685 Y24.5966
G1 Y24.4308
G3 X40.437 Y23.698 I0.4065 J-0.7328
G1 Y22.022
G3 X42.113 I0.838 J0.0
G1 Y23.698
G3 X41.6815 Y24.4308 I-0.838 J0.0
G1 Y24.765
G3 X41.5624 Y25.0524 I-0.4065 J0.0
G1 X37.8715 Y28.7434
G1 Y32.385
G3 X37.7524 Y32.6724 I-0.4065 J0.0
G1 X37.2365 Y33.1884
G1 Y35.9774
G1 X38.9605 Y37.1268
G3 X39.1415 Y37.465 I-0.2255 J0.3382
G1 Y38.1125
G1 X39.9925
G1 Y40.6275
G1 X37.4775
G1 Y38.1125
G1 X38.3285
G1 Y37.6826
G1 X36.6045 Y36.5332
G3 X36.4237 Y36.2073 I0.2255 J-0.3382
G0 Z3.0
G0 X40.8685
G0 Z1.25
G1 F50.0 Z-0.15
G1 F150.0 Y32.0508
G3 X40.437 Y31.318 I0.4065 J-0.7328
G1 Y29.642
G3 X42.113 I0.838 J0.0
G1 Y31.318
G3 X41.6815 Y32.0508 I-0.838 J0.0
G1 Y41.275
G3 X41.5624 Y41.5624 I-0.4065 J0.0
G1 X40.9274 Y42.1974
G3 X40.64 Y42.3165 I-0.2874 J-0.2874
G1 X39.9925
G1 Y43.1675
G1 X37.4775
G1 Y40.6525
G1 X39.9925
G1 Y41.5035
G1 X40.4716
G1 X40.8685 Y41.1066
G1 Y36.2073
G0 Z3.0
G0 X42.1385
G0 Z1.25
G1 F50.0 Z-0.15
G1 F150.0 Y26.67
G3 X42.2576 Y26.3826 I0.4065 J0.0
G1 X43.4085 Y25.2316
G1 Y24.4308
G3 X42.977 Y23.698 I0.4065 J-0.7328
G1 Y22.022
G3 X44.653 I0.838 J0.0
G1 Y23.698
G3 X44.2215 Y24.4308 I-0.838 J0.0
G1 Y25.4
G3 X44.1024 Y25.6874 I-0.4065 J0.0
G1 X42.9515 Y26.8384
G1 Y42.545
G3 X42.8324 Y42.8324 I-0.4065 J0.0
G1 X40.9274 Y44.7374
G3 X40.64 Y44.8565 I-0.2874 J-0.2874
G1 X39.9925
G1 Y45.7075
G1 X37.4775
G1 Y43.1925
G1 X39.9925
G1 Y44.0435
G1 X40.4716
G1 X42.1385 Y42.3766
G1 Y36.2073
G0 Z3.0
G0 X43.612
G0 Z1.25
G1 F50.0 Z-0.15
G1 F150.0 Y34.6871
G1 X44.8471 Y33.452
G1 X46.5929
G1 X47.2965 Y34.1555
G1 X47.7015 Y34.5605
G1 X47.7985 Y34.6575
G2 X48.0855 Y34.6576 I0.1435 J-0.1435
G1 X48.1715 Y34.5716
G2 X48.1945 Y34.5486 I-0.1315 J-0.1546
G1 X48.5789 Y34.1646
G2 X48.5975 Y34.146 I-0.1339 J-0.1526
G1 X49.292 Y33.452
G1 X51.0379
G1 X52.273 Y34.6871
G1 Y36.4329
G1 X51.0379 Y37.668
G1 X49.292
G1 X48.0855 Y36.4624
G2 X47.7985 Y36.4625 I-0.1435 J0.1436
G1 X46.5929 Y37.668
G1 X44.8471
G1 X43.612 Y36.4329
G1 Y36.2073
G0 Z3.0
G0 X43.815
G0 Z1.25
G1 F50.0 Z-0.15
G1 F150.0 Y34.7709
G1 X44.9309 Y33.655
G1 X46.5091
G1 X47.625 Y34.7709
G1 Y36.3491
G1 X46.5091 Y37.465
G1 X44.9309
G1 X43.815 Y36.3491
G1 Y36.2073
G0 Z3.0
G0 X48.26
G0 Z1.25
G1 F50.0 Z-0.15
G1 F150.0 Y34.7709
G1 X49.3759 Y33.655
G1 X50.9541
G1 X52.07 Y34.7709
G1 Y36.3491
G1 X50.9541 Y37.465
G1 X49.3759
G1 X48.26 Y36.3491
G1 Y36.2073
G0 Z3.0
G0 X49.2921 Y32.588
G0 Z1.25
G1 F50.0 Z-0.15
G1 F150.0 X48.057 Y31.3529
G1 Y29.6071
G1 X49.2921 Y28.372
G1 X51.0379
G1 X52.273 Y29.6071
G1 Y31.3529
G1 X51.0379 Y32.588
G1 X49.2921
G0 Z3.0
G0 X49.3759 Y32.385
G0 Z1.25
G1 F50.0 Z-0.15
G1 F150.0 X48.26 Y31.2691
G1 Y29.6909
G1 X49.3759 Y28.575
G1 X50.9541
G1 X52.07 Y29.6909
G1 Y31.2691
G1 X50.9541 Y32.385
G1 X49.3759
G0 Z3.0
G0 X47.384 Y31.5568
G0 Z1.25
G1 F50.0 Z-0.15
G1 F150.0 X47.238 Y31.9079
G1 X46.9449 Y32.201
G1 X46.5625 Y32.36
G1 X46.1475
G1 X45.7651 Y32.201
G1 X45.472 Y31.9079
G1 X45.313 Y31.5255
G1 Y29.4345
G1 X45.472 Y29.0521
G1 X45.7651 Y28.759
G1 X46.1475 Y28.6
G1 X46.5625
G1 X46.9449 Y28.759
G1 X47.238 Y29.0521
G1 X47.397 Y29.4345
G1 Y31.5255
G1 X47.384 Y31.5568
G0 Z3.0
G0 X47.1713 Y31.5075
G0 Z1.25
G1 F50.0 Z-0.15
G3 F150.0 X45.517 Y31.318 I-0.8163 J-0.1895
G1 Y29.642
G3 X47.193 I0.838 J0.0
G1 Y31.318
G3 X47.1713 Y31.5075 I-0.838 J0.0
G0 Z3.0
G0 X35.992 Y28.829
G0 Z1.25
G1 F50.0 Z-0.15
G2 F150.0 X35.357 Y29.642 I0.203 J0.813
G1 Y30.277
G1 X35.103
G1 Y29.963
G1 Y29.558
G1 Y29.5555
G1 X35.1291 Y29.3857
G1 X35.183 Y29.2232
G1 X35.2608 Y29.0692
G1 X35.3618 Y28.9303
G1 X35.4005 Y28.8915
G1 X35.4833 Y28.8088
G1 X35.6225 Y28.7075
G1 X35.776 Y28.6291
G1 X35.9396 Y28.576
G1 X35.992 Y28.5676
G1 Y28.748
G1 Y28.829
G0 Z3.0
G0 X19.457 Y29.4345
G0 Z1.25
G1 F50.0 Z-0.15
G1 F150.0 Y31.5255
G1 X19.298 Y31.9079
G1 X19.0049 Y32.201
G1 X18.6225 Y32.36
G1 X18.2075
G1 X17.8251 Y32.201
G1 X17.532 Y31.9079
G1 X17.373 Y31.5255
G1 Y29.4345
G1 X17.532 Y29.0521
G1 X17.8251 Y28.759
G1 X18.2075 Y28.6
G1 X18.6225
G1 X19.0049 Y28.759
G1 X19.298 Y29.0521
G1 X19.457 Y29.4345
G0 Z3.0
G0 X19.2369 Y29.4784
G0 Z1.25
G1 F50.0 Z-0.15
G3 F150.0 X19.253 Y29.642 I-0.8219 J0.1636
G1 Y31.318
G3 X17.577 I-0.838 J0.0
G1 Y29.642
G3 X19.2369 Y29.4784 I0.838 J0.0
G0 Z3.0
G0 X16.917
G0 Z1.25
G1 F50.0 Z-0.15
G1 F150.0 Y31.5255
G1 X16.758 Y31.9079
G1 X16.4649 Y32.201
G1 X16.0825 Y32.36
G1 X15.6675
G1 X15.2851 Y32.201
G1 X14.992 Y31.9079
G1 X14.833 Y31.5255
G1 Y29.4345
G1 X14.992 Y29.0521
G1 X15.2851 Y28.759
G1 X15.6675 Y28.6
G1 X16.0825
G1 X16.4649 Y28.759
G1 X16.758 Y29.0521
G1 X16.917 Y29.4345
G1 Y29.4784
G0 Z3.0
G0 X16.7029 Y29.512
G0 Z1.25
G1 F50.0 Z-0.15
G3 F150.0 X16.713 Y29.642 I-0.8279 J0.13
G1 Y31.318
G3 X15.037 I-0.838 J0.0
G1 Y29.642
G3 X16.7029 Y29.512 I0.838 J0.0
G0 Z3.0
G0 X14.377
G0 Z1.25
G1 F50.0 Z-0.15
G1 F150.0 Y31.5255
G1 X14.218 Y31.9079
G1 X13.9249 Y32.201
G1 X13.5425 Y32.36
G1 X13.1275
G1 X12.7451 Y32.201
G1 X12.452 Y31.9079
G1 X12.293 Y31.5255
G1 Y29.4345
G1 X12.452 Y29.0521
G1 X12.7451 Y28.759
G1 X13.1275 Y28.6
G1 X13.5425
G1 X13.9249 Y28.759
G1 X14.218 Y29.0521
G1 X14.377 Y29.4345
G1 Y29.512
G0 Z3.0
G0 X14.1666 Y29.5382
G0 Z1.25
G1 F50.0 Z-0.15
G3 F150.0 X14.173 Y29.642 I-0.8316 J0.1038
G1 Y31.318
G3 X12.497 I-0.838 J0.0
G1 Y29.642
G3 X14.1666 Y29.5382 I0.838 J0.0
G0 Z3.0
G0 X9.192 Y35.0971
G0 Z1.25
G1 F50.0 Z-0.15
G1 F150.0 X9.5569 Y35.4611
G1 X9.754 Y35.9373
G1 Y36.4527
G1 X9.5569 Y36.929
G1 X9.1645 Y37.3215
G2 Y37.6085 I0.1435 J0.1435
G1 X9.343 Y37.7871
G2 X9.3669 Y37.811 I0.155 J-0.1311
G1 X9.5569 Y38.001
G1 X9.609 Y38.127
G2 X9.6185 Y38.15 I0.192 J-0.066
G1 X9.754 Y38.4773
G1 Y38.9927
G1 X9.676 Y39.1811
G2 X9.6623 Y39.2143 I0.18 J0.0939
G1 X9.5569 Y39.469
G1 X9.5009 Y39.525
G2 X9.477 Y39.5489 I0.1311 J0.155
G1 X9.1805 Y39.8455
G2 X9.2051 Y40.1536 I0.1435 J0.1435
G1 X9.3255 Y40.2405
G2 X9.3381 Y40.2502 I0.1305 J-0.1555
G1 X9.485 Y40.398
G1 X9.6095 Y40.5695
G1 X9.7059 Y40.7579
G1 X9.7711 Y40.9597
G1 X9.781 Y41.021
G1 X9.52
G2 X8.458 Y40.183 I-1.062 J0.254
G1 X6.274
G2 X5.212 Y41.021 I0.0 J1.092
G1 X4.951
G1 X4.9609 Y40.9597
G1 X5.0261 Y40.7579
G1 X5.1225 Y40.5695
G1 X5.247 Y40.398
G1 X5.3939 Y40.2502
G2 X5.4065 Y40.2405 I-0.1179 J-0.1652
G1 X5.5269 Y40.1536
G2 X5.5515 Y39.8455 I-0.1189 J-0.1646
G1 X5.255 Y39.5489
G2 X5.2311 Y39.525 I-0.155 J0.1311
G1 X5.1751 Y39.469
G1 X5.0697 Y39.2143
G2 X5.056 Y39.1811 I-0.1937 J0.0607
G1 X4.978 Y38.9927
G1 Y38.4773
G1 X5.1135 Y38.15
G2 X5.123 Y38.127 I-0.1825 J-0.089
G1 X5.1751 Y38.001
G1 X5.3651 Y37.811
G2 X5.389 Y37.7871 I-0.1311 J-0.155
G1 X5.5675 Y37.6085
G2 Y37.3215 I-0.1435 J-0.1435
G1 X5.1751 Y36.929
G1 X4.978 Y36.4527
G1 Y35.9373
G1 X5.1751 Y35.4611
G1 X5.54 Y35.0971
G1 X6.0165 Y34.899
G1 X8.7155
G1 X9.192 Y35.0971
G0 Z3.0
G0 X9.0649 Y35.2872
G0 Z1.25
G1 F50.0 Z-0.15
G3 F150.0 X8.458 Y37.287 I-0.6069 J0.9078
G1 X6.274
G3 Y35.103 I0.0 J-1.092
G1 X8.458
G3 X9.0649 Y35.2872 I0.0 J1.092
G0 Z3.0
G0 X8.6473 Y37.6595
G0 Z1.25
G1 F50.0 Z-0.15
G3 F150.0 X8.458 Y39.827 I-0.1893 J1.0755
G1 X6.274
G3 Y37.643 I0.0 J-1.092
G1 X8.458
G3 X8.6473 Y37.6595 I0.0 J1.092
G0 Z3.0
G0 X9.52 Y41.529
G0 Z1.25
G1 F50.0 Z-0.15
G1 F150.0 X9.781
G1 X9.7711 Y41.5903
G1 X9.7059 Y41.7921
G1 X9.6095 Y41.9805
G1 X9.485 Y42.152
G1 X9.3357 Y42.3021
G1 X9.2051 Y42.3964
G2 X9.1805 Y42.7045 I0.1189 J0.1646
G1 X9.5569 Y43.081
G1 X9.6868 Y43.3949
G2 X9.6923 Y43.4082 I0.1902 J-0.0709
G1 X9.754 Y43.5573
G1 Y44.0727
G1 X9.5993 Y44.4464
G2 X9.5867 Y44.4769 I0.1807 J0.0926
G1 X9.5569 Y44.549
G1 X9.1645 Y44.9415
G2 Y45.2285 I0.1435 J0.1435
G1 X9.416 Y45.4801
G2 X9.4399 Y45.504 I0.155 J-0.1311
G1 X9.5569 Y45.621
G1 X9.6381 Y45.8173
G2 X9.6498 Y45.8455 I0.1929 J-0.0633
G1 X9.754 Y46.0973
G1 Y46.6127
G1 X9.645 Y46.8761
G2 X9.633 Y46.9051 I0.181 J0.0919
G1 X9.5569 Y47.0889
G1 X9.4252 Y47.2203
G2 X9.4067 Y47.2388 I0.1338 J0.1527
G1 X9.192 Y47.4529
G1 X8.8709 Y47.5864
G2 X8.8495 Y47.5953 I0.0671 J0.1916
G1 X8.7155 Y47.651
G1 X6.0165
G1 X5.8825 Y47.5953
G2 X5.8611 Y47.5864 I-0.0885 J0.1827
G1 X5.54 Y47.4529
G1 X5.3253 Y47.2388
G2 X5.3068 Y47.2203 I-0.1523 J0.1342
G1 X5.1751 Y47.0889
G1 X5.099 Y46.9051
G2 X5.087 Y46.8761 I-0.193 J0.0629
G1 X4.978 Y46.6127
G1 Y46.0973
G1 X5.0822 Y45.8455
G2 X5.0939 Y45.8173 I-0.1812 J-0.0915
G1 X5.1751 Y45.621
G1 X5.2921 Y45.504
G2 X5.316 Y45.4801 I-0.1311 J-0.155
G1 X5.5675 Y45.2285
G2 Y44.9415 I-0.1435 J-0.1435
G1 X5.1751 Y44.549
G1 X5.1453 Y44.4769
G2 X5.1327 Y44.4464 I-0.1933 J0.0621
G1 X4.978 Y44.0727
G1 Y43.5573
G1 X5.0397 Y43.4082
G2 X5.0452 Y43.3949 I-0.1847 J-0.0842
G1 X5.1751 Y43.081
G1 X5.5515 Y42.7045
G2 X5.5269 Y42.3964 I-0.1435 J-0.1435
G1 X5.3963 Y42.3021
G1 X5.247 Y42.152
G1 X5.1225 Y41.9805
G1 X5.0261 Y41.7921
G1 X4.9609 Y41.5903
G1 X4.951 Y41.529
G1 X5.212
G2 X6.274 Y42.367 I1.062 J-0.254
G1 X8.458
G2 X9.52 Y41.529 I0.0 J-1.092
G0 Z3.0
G0 X8.9181 Y42.8247
G0 Z1.25
G1 F50.0 Z-0.15
G3 F150.0 X8.458 Y44.907 I-0.4601 J0.9903
G1 X6.274
G3 Y42.723 I0.0 J-1.092
G1 X8.458
G3 X8.9181 Y42.8247 I0.0 J1.092
G0 Z3.0
G0 X8.5991 Y45.2722
G0 Z1.25
G1 F50.0 Z-0.15
G3 F150.0 X8.458 Y47.447 I-0.1411 J1.0828
G1 X6.274
G3 Y45.263 I0.0 J-1.092
G1 X8.458
G3 X8.5991 Y45.2722 I0.0 J1.092
G0 Z3.0
G0 X37.224 Y49.936
G0 Z1.25
G1 F50.0 Z-0.15
G1 F150.0 X37.4775
G1 Y50.7875
G1 X38.329
G1 Y50.8125
G1 X37.4775
G1 Y51.664
G1 X37.224
G1 Y51.422
G1 Y51.017
G1 Y50.612
G1 Y49.936
G0 Z3.0
G0 X39.141 Y50.7875
G0 Z1.25
G1 F50.0 Z-0.15
G1 F150.0 X39.9925
G1 Y49.936
G1 X40.246
G1 Y51.3532
G1 X39.9925 Y51.4039
G1 Y50.8125
G1 X39.141
G1 Y50.7875
G0 Z3.0
G0 X41.0466 Y51.1367
G0 Z1.25
G1 F50.0 Z-0.15
G1 F150.0 X41.0616 Y51.0812
G2 X41.0677 Y51.0587 I-0.1926 J-0.0642
G1 X41.0985 Y50.9446
G1 X41.1755 Y50.7589
G1 X41.2751 Y50.5862
G1 X41.3968 Y50.4283
G1 X41.4735 Y50.3515
G1 X41.5383 Y50.2868
G1 X41.6962 Y50.1651
G1 X41.8689 Y50.0655
G1 X42.0546 Y49.9885
G1 X42.2467 Y49.9366
G1 X42.342 Y49.9243
G1 Y50.1813
G2 X41.91 Y50.3351 I0.203 J1.2537
G2 X41.3096 Y51.1405 I0.635 J1.0999
G1 X41.0391 Y51.1946
G1 X41.0466 Y51.1367
G0 Z3.0
G0 X41.2169 Y51.9882
G0 Z1.25
G1 F50.0 Z-0.15
G1 F150.0 X41.386 Y51.9543
G2 X41.91 Y52.5349 I1.159 J-0.5193
G2 X42.342 Y52.6887 I0.635 J-1.0999
G1 Y52.9457
G1 X42.2467 Y52.9334
G1 X42.0546 Y52.8815
G1 X41.8689 Y52.8045
G1 X41.6962 Y52.7049
G1 X41.5383 Y52.5832
G1 X41.3968 Y52.4417
G1 X41.2751 Y52.2838
G1 X41.1901 Y52.1365
G2 X41.1834 Y52.1249 I-0.1791 J0.0955
G1 X41.1755 Y52.1111
G1 X41.1316 Y52.0052
G1 X41.2169 Y51.9882
G0 Z3.0
G0 X42.748 Y52.6887
G0 Z1.25
G1 F50.0 Z-0.15
G2 F150.0 X43.7482 Y51.8415 I-0.203 J-1.2537
G1 X44.0142
G1 X43.9915 Y51.9254
G1 X43.9145 Y52.1111
G1 X43.9066 Y52.1249
G2 X43.8999 Y52.1365 I0.1724 J0.1071
G1 X43.8149 Y52.2838
G1 X43.6932 Y52.4417
G1 X43.5517 Y52.5832
G1 X43.3938 Y52.7049
G1 X43.2211 Y52.8045
G1 X43.0354 Y52.8815
G1 X42.8433 Y52.9334
G1 X42.748 Y52.9457
G1 Y52.6887
G0 Z3.0
G0 X43.7482 Y51.0285
G0 Z1.25
G1 F50.0 Z-0.15
G2 F150.0 X42.748 Y50.1813 I-1.2032 J0.4065
G1 Y49.9243
G1 X42.8433 Y49.9366
G1 X43.0354 Y49.9885
G1 X43.2211 Y50.0655
G1 X43.3938 Y50.1651
G1 X43.5517 Y50.2868
G1 X43.6932 Y50.4283
G1 X43.8149 Y50.5862
G1 X43.9145 Y50.7589
G1 X43.9915 Y50.9446
G1 X44.0142 Y51.0285
G1 X43.7482
G0 Z3.0
G0 X45.5208
G0 Z1.25
G1 F50.0 Z-0.15
G1 F150.0 X45.5435 Y50.9446
G1 X45.6205 Y50.7589
G1 X45.7201 Y50.5862
G1 X45.8418 Y50.4283
G1 X45.9185 Y50.3515
G1 X45.9833 Y50.2868
G1 X46.1412 Y50.1651
G1 X46.3139 Y50.0655
G1 X46.4996 Y49.9885
G1 X46.6917 Y49.9366
G1 X46.787 Y49.9243
G1 Y50.1813
G2 X46.355 Y50.3351 I0.203 J1.2537
G2 X45.7868 Y51.0285 I0.635 J1.0999
G1 X45.5208
G0 Z3.0
G0 Y51.8415
G0 Z1.25
G1 F50.0 Z-0.15
G1 F150.0 X45.7868
G2 X46.355 Y52.5349 I1.2032 J-0.4065
G2 X46.787 Y52.6887 I0.635 J-1.0999
G1 Y52.9457
G1 X46.6917 Y52.9334
G1 X46.4996 Y52.8815
G1 X46.3139 Y52.8045
G1 X46.1412 Y52.7049
G1 X45.9833 Y52.5832
G1 X45.8418 Y52.4417
G1 X45.7201 Y52.2838
G1 X45.6351 Y52.1365
G2 X45.6284 Y52.1249 I-0.1791 J0.0955
G1 X45.6205 Y52.1111
G1 X45.5435 Y51.9254
G1 X45.5208 Y51.8415
G0 Z3.0
G0 X47.193 Y52.6887
G0 Z1.25
G1 F50.0 Z-0.15
G2 F150.0 X48.2437 Y51.638 I-0.203 J-1.2537
G1 X48.5007
G1 X48.4884 Y51.7333
G1 X48.4806 Y51.7622
G2 X48.4742 Y51.7859 I0.1924 J0.0648
G1 X48.4365 Y51.9254
G1 X48.3595 Y52.1111
G1 X48.3516 Y52.1249
G2 X48.3449 Y52.1365 I0.1724 J0.1071
G1 X48.2599 Y52.2838
G1 X48.1382 Y52.4417
G1 X47.9967 Y52.5832
G1 X47.8388 Y52.7049
G1 X47.6661 Y52.8045
G1 X47.4804 Y52.8815
G1 X47.2883 Y52.9334
G1 X47.193 Y52.9457
G1 Y52.6887
G0 Z3.0
G0 X48.2437 Y51.232
G0 Z1.25
G1 F50.0 Z-0.15
G2 F150.0 X47.193 Y50.1813 I-1.2537 J0.203
G1 Y49.9243
G1 X47.2883 Y49.9366
G1 X47.4804 Y49.9885
G1 X47.6661 Y50.0655
G1 X47.8388 Y50.1651
G1 X47.9967 Y50.2868
G1 X48.0615 Y50.3515
G1 X48.1382 Y50.4283
G1 X48.2599 Y50.5862
G1 X48.3595 Y50.7589
G1 X48.4365 Y50.9446
G1 X48.4673 Y51.0587
G2 X48.4734 Y51.0812 I0.1987 J-0.0417
G1 X48.4884 Y51.1367
G1 X48.5007 Y51.232
G1 X48.2437
G0 Z3.0
G0 Y53.924
G0 Z1.25
G1 F50.0 Z-0.15
G1 F150.0 X40.225
G3 X40.1227 Y53.5457 I0.0 J-0.203
G1 X40.148 Y53.5309
G1 X40.1955 Y53.4834
G1 X40.2287 Y53.4259
G1 X40.246 Y53.3606
G1 Y52.476
G1 X39.9925
G1 Y53.3275
G1 X37.4775
G1 Y52.476
G1 X37.224
G1 Y52.637
G1 Y53.042
G1 Y53.3606
G1 X37.2413 Y53.4259
G1 X37.2745 Y53.4834
G1 X37.322 Y53.5309
G1 X37.3473 Y53.5457
G3 X37.245 Y53.924 I-0.1023 J0.1753
G1 X31.661
G3 X31.458 Y53.721 I0.0 J-0.203
G1 Y53.042
G1 Y52.637
G1 Y52.232
G1 Y51.422
G1 Y51.017
G1 Y50.612
G1 Y50.2551
G1 X31.4059 Y50.203
G1 X25.9981
G1 X25.946 Y50.2551
G1 Y51.017
G1 Y51.422
G1 Y52.232
G1 Y52.637
G1 Y53.042
G1 Y53.721
G3 X25.743 Y53.924 I-0.203 J0.0
G1 X22.445
G3 X22.3427 Y53.5457 I0.0 J-0.203
G1 X22.368 Y53.5309
G1 X22.4155 Y53.4834
G1 X22.4487 Y53.4259
G1 X22.466 Y53.3606
G1 Y53.042
G1 Y52.637
G1 Y52.476
G1 X22.2125
G1 Y53.3275
G1 X19.6975
G1 Y52.476
G1 X19.444
G1 Y52.637
G1 Y53.042
G1 Y53.3606
G1 X19.4613 Y53.4259
G1 X19.4945 Y53.4834
G1 X19.542 Y53.5309
G1 X19.5673 Y53.5457
G3 X19.465 Y53.924 I-0.1023 J0.1753
G1 X2.921
G3 X2.718 Y53.721 I0.0 J-0.203
G1 Y53.042
G1 Y52.637
G1 Y52.232
G1 Y51.422
G1 Y51.017
G1 Y48.183
G1 Y34.417
G1 Y34.012
G1 Y33.607
G1 Y33.202
G1 Y32.797
G1 Y27.94
G3 X2.921 Y27.737 I0.203 J0.0
G1 X4.097
G3 X4.1946 Y27.762 I0.0 J0.203
G1 X5.9654
G3 X6.063 Y27.737 I0.0976 J0.178
G1 X7.8485
G1 Y24.9334
G1 X6.1067 Y23.1916
G3 X4.826 Y23.1979 I-0.6457 J-1.0936
G3 Y20.9981 I0.635 J-1.0999
G3 X6.0243 Y20.9598 I0.635 J1.0999
G1 X6.5785 Y20.4056
G1 Y19.939
G1 X6.1959
G1 X5.08 Y18.8231
G1 Y17.2449
G1 X6.0705 Y16.2544
G1 Y14.859
G1 X5.6879
G1 X4.572 Y13.7431
G1 Y12.1649
G1 X5.6879 Y11.049
G1 X7.2661
G1 X7.5366 Y11.3195
G1 X9.6186 Y9.2376
G3 X9.7728 Y9.141 I0.2874 J0.2874
G3 X10.249 Y8.5793 I1.0222 J0.384
G3 X11.887 Y9.525 I0.546 J0.9457
G3 X10.249 Y10.4707 I-1.092 J0.0
G3 X9.8819 Y10.124 I0.546 J-0.9457
G1 X8.1115 Y11.8944
G1 X8.382 Y12.1649
G1 Y13.7431
G1 X7.2661 Y14.859
G1 X6.8835
G1 Y16.129
G1 X7.7741
G1 X8.89 Y17.2449
G1 Y18.8231
G1 X7.7741 Y19.939
G1 X7.3915
G1 Y20.574
G3 X7.2724 Y20.8614 I-0.4065 J0.0
G1 X6.5992 Y21.5347
G3 X6.731 Y22.098 I-1.1382 J0.5633
G3 X6.6386 Y22.5737 I-1.27 J0.0
G1 X8.5424 Y24.4776
G3 X8.6615 Y24.765 I-0.2874 J0.2874
G1 Y27.737
G1 X19.2785
G1 Y21.1234
G1 X19.0996 Y20.9445
G1 X16.728
G3 X16.4406 Y20.8254 I0.0 J-0.4065
G1 X13.0476 Y17.4324
G3 X12.9285 Y17.145 I0.2874 J-0.2874
G1 Y16.8637
G3 X12.37 Y16.6959 I0.0765 J-1.2677
G3 Y14.4961 I0.635 J-1.0999
G3 X14.275 Y15.596 I0.635 J1.0999
G3 X13.7415 Y16.6306 I-1.27 J0.0
G1 Y16.9766
G1 X16.8964 Y20.1315
G1 X19.268
G3 X19.5554 Y20.2506 I0.0 J0.4065
G1 X19.9724 Y20.6676
G3 X20.0915 Y20.955 I-0.2874 J0.2874
G1 Y27.737
G1 X21.711
G3 X21.8545 Y28.0835 I0.0 J0.203
G1 X21.708 Y28.2301
G1 X21.615 Y28.4535
G1 Y28.484
G3 X21.334 Y28.6714 I-0.203 J0.0
G1 X21.1624 Y28.6
G1 X20.7475
G1 X20.3651 Y28.759
G1 X20.072 Y29.0521
G1 X19.913 Y29.4345
G1 Y31.5255
G1 X20.072 Y31.9079
G1 X20.3651 Y32.201
G1 X20.7475 Y32.36
G1 X20.898
G3 X21.0415 Y32.7065 I0.0 J0.203
G1 X20.8075 Y32.9405
G1 X20.4025 Y33.3455
G1 X19.9975 Y33.7505
G1 X19.5925 Y34.1555
G1 X19.1875 Y34.5605
G1 X17.263 Y36.4851
G1 X17.17 Y36.7085
G1 Y48.183
G1 Y48.3815
G1 X17.263 Y48.6049
G1 X17.4635 Y48.8055
G1 X18.7051 Y50.047
G1 X18.9285 Y50.14
G1 X19.291
G3 X19.494 Y50.343 I0.0 J0.203
G1 Y50.602
G3 X19.4682 Y50.701 I-0.203 J0.0
G1 X19.4617 Y50.7127
G1 X19.444 Y50.7794
G1 Y51.017
G1 Y51.422
G1 Y51.664
G1 X19.6975
G1 Y50.8125
G1 X22.2125
G1 Y51.664
G1 X22.466
G1 Y51.422
G1 Y51.017
G1 Y50.7794
G1 X22.4483 Y50.7127
G1 X22.4418 Y50.701
G3 X22.416 Y50.602 I0.1772 J-0.099
G1 Y49.398
G1 Y48.993
G1 Y48.588
G1 Y47.778
G1 Y47.373
G1 Y46.968
G1 Y46.563
G1 Y45.263
G3 X22.619 Y45.06 I0.203 J0.0
G1 X22.9815
G1 X23.2049 Y44.967
G1 X23.7765 Y44.3955
G1 X24.1815 Y43.9905
G1 X24.5865 Y43.5855
G1 X24.9915 Y43.1805
G1 X25.3965 Y42.7755
G1 X27.8255 Y40.3465
G1 X28.2305 Y39.9415
G1 X28.6355 Y39.5365
G1 X29.0405 Y39.1315
G1 X29.4455 Y38.7265
G1 X31.4315 Y36.7405
G1 X31.632 Y36.5399
G1 X31.704 Y36.3669
G3 X31.7072 Y36.3592 I0.189 J0.0741
G1 X31.725 Y36.3165
G1 Y36.036
G1 Y35.631
G1 Y35.226
G1 Y34.821
G1 Y34.417
G1 Y34.012
G1 Y33.607
G1 Y33.202
G1 Y32.797
G1 Y32.392
G1 Y32.266
G3 X31.7842 Y32.1228 I0.203 J0.0
G1 X31.9979 Y31.9081
G1 X32.157 Y31.5255
G1 Y31.177
G1 Y30.772
G1 Y30.367
G1 Y29.963
G1 Y29.558
G1 Y29.4345
G1 X31.998 Y29.0521
G1 X31.8375 Y28.8915
G1 X31.7049 Y28.759
G1 X31.3225 Y28.6
G1 X30.9075
G1 X30.5251 Y28.759
G1 X30.3925 Y28.8915
G1 X30.232 Y29.0521
G1 X30.073 Y29.4345
G1 Y29.558
G1 Y29.963
G1 Y30.367
G1 Y30.772
G1 Y31.177
G1 Y31.5255
G1 X30.2321 Y31.9081
G1 X30.4458 Y32.1228
G3 X30.505 Y32.266 I-0.1438 J0.1432
G1 Y32.392
G1 Y32.797
G1 Y33.202
G1 Y33.607
G1 Y34.012
G1 Y34.417
G1 Y34.821
G1 Y35.226
G1 Y35.631
G1 Y35.858
G3 X30.4456 Y36.0015 I-0.203 J0.0
G1 X29.8746 Y36.5726
G3 X29.8516 Y36.5956 I-0.1546 J-0.1316
G1 X29.4693 Y36.9779
G3 X29.4469 Y37.0003 I-0.1543 J-0.1319
G1 X29.064 Y37.3833
G3 X29.0423 Y37.405 I-0.154 J-0.1323
G1 X28.6586 Y37.7887
G3 X28.6377 Y37.8096 I-0.1536 J-0.1327
G1 X28.2533 Y38.1941
G3 X28.2331 Y38.2143 I-0.1533 J-0.1331
G1 X27.848 Y38.5995
G3 X27.8285 Y38.6189 I-0.153 J-0.1335
G1 X25.8219 Y40.6258
G3 X25.8068 Y40.6409 I-0.1509 J-0.1358
G1 X25.4164 Y41.0313
G3 X25.4024 Y41.0454 I-0.1504 J-0.1363
G1 X25.0109 Y41.4369
G3 X24.9979 Y41.4499 I-0.1499 J-0.1369
G1 X24.6053 Y41.8426
G3 X24.5936 Y41.8543 I-0.1493 J-0.1376
G1 X24.1996 Y42.2483
G3 X24.1893 Y42.2586 I-0.1486 J-0.1383
G1 X23.7939 Y42.6541
G3 X23.7851 Y42.6628 I-0.1479 J-0.1391
G1 X22.7626 Y43.6855
G3 X22.416 Y43.542 I-0.1436 J-0.1435
G1 Y42.723
G3 X22.619 Y42.52 I0.203 J0.0
G1 X22.9815
G1 X23.2049 Y42.427
G1 X25.2855 Y40.3465
G1 X28.8915 Y36.7405
G1 X29.092 Y36.5399
G1 X29.164 Y36.3669
G3 X29.1672 Y36.3592 I0.189 J0.0741
G1 X29.185 Y36.3165
G1 Y35.631
G1 Y35.226
G1 Y34.821
G1 Y34.417
G1 Y34.012
G1 Y33.607
G1 Y33.202
G1 Y32.797
G1 Y32.392
G1 Y32.266
G3 X29.2442 Y32.1228 I0.203 J0.0
G1 X29.4579 Y31.9081
G1 X29.617 Y31.5255
G1 Y31.177
G1 Y30.772
G1 Y30.367
G1 Y29.963
G1 Y29.558
G1 Y29.4345
G1 X29.458 Y29.0521
G1 X29.2975 Y28.8915
G1 X29.1649 Y28.759
G1 X28.7825 Y28.6
G1 X28.3675
G1 X27.9851 Y28.759
G1 X27.8525 Y28.8915
G1 X27.692 Y29.0521
G1 X27.533 Y29.4345
G1 Y29.558
G1 Y29.963
G1 Y30.367
G1 Y30.772
G1 Y31.177
G1 Y31.5255
G1 X27.6921 Y31.9081
G1 X27.9058 Y32.1228
G3 X27.965 Y32.266 I-0.1438 J0.1432
G1 Y32.392
G1 Y32.797
G1 Y33.202
G1 Y33.607
G1 Y34.012
G1 Y34.417
G1 Y34.821
G1 Y35.226
G1 Y35.631
G1 Y35.858
G3 X27.9056 Y36.0015 I-0.203 J0.0
G1 X27.3344 Y36.5728
G3 X27.3118 Y36.5954 I-0.1544 J-0.1318
G1 X26.9289 Y36.9784
G3 X26.9074 Y36.9999 I-0.1539 J-0.1324
G1 X26.5234 Y37.3839
G3 X26.503 Y37.4044 I-0.1534 J-0.1329
G1 X26.1179 Y37.7895
G3 X26.0986 Y37.8089 I-0.1529 J-0.1335
G1 X25.7123 Y38.1952
G3 X25.6942 Y38.2133 I-0.1523 J-0.1342
G1 X25.3067 Y38.6009
G3 X25.2899 Y38.6177 I-0.1517 J-0.1349
G1 X23.2783 Y40.6297
G3 X23.2707 Y40.6373 I-0.1473 J-0.1397
G1 X22.8713 Y41.0368
G3 X22.8678 Y41.0402 I-0.1453 J-0.1418
G1 X22.7626 Y41.1455
G3 X22.416 Y41.002 I-0.1436 J-0.1435
G1 Y40.895
G1 Y40.49
G1 Y40.183
G3 X22.619 Y39.98 I0.203 J0.0
G1 X22.9815
G1 X23.2049 Y39.887
G1 X23.4055 Y39.6865
G1 X26.552 Y36.5399
G1 X26.624 Y36.3669
G3 X26.6272 Y36.3592 I0.189 J0.0741
G1 X26.645 Y36.3165
G1 Y35.631
G1 Y35.226
G1 Y34.821
G1 Y34.417
G1 Y34.012
G1 Y33.607
G1 Y33.202
G1 Y32.797
G1 Y32.392
G1 Y32.266
G3 X26.7042 Y32.1228 I0.203 J0.0
G1 X26.9179 Y31.9081
G1 X27.077 Y31.5255
G1 Y31.177
G1 Y30.772
G1 Y30.367
G1 Y29.963
G1 Y29.558
G1 Y29.4345
G1 X26.918 Y29.0521
G1 X26.7575 Y28.8915
G1 X26.7405 Y28.8745
G3 X26.8062 Y28.5435 I0.1435 J-0.1435
G1 X27.015 Y28.4569
G1 X27.6755 Y27.7965
G3 X27.819 Y27.737 I0.1435 J0.1435
G1 X30.7085
G1 Y24.4308
G3 X30.277 Y23.698 I0.4065 J-0.7328
G1 Y22.022
G3 X30.7085 Y21.2892 I0.838 J0.0
G1 Y19.924
G3 Y19.919 I0.4065 J0.0
G1 X30.338
G1 Y17.8469
G1 X30.1926 Y17.7014
G3 X30.0735 Y17.414 I0.2874 J-0.2874
G1 Y12.065
G3 X30.1926 Y11.7776 I0.4065 J0.0
G1 X30.7085 Y11.2616
G1 Y9.423
G1 X29.972
G1 Y8.9405
G1 X27.1041
G3 X25.4 Y9.3549 I-1.0691 J-0.6855
G3 Y7.1551 I0.635 J-1.0999
G3 X27.2986 Y8.1275 I0.635 J1.0999
G1 X29.972
G1 Y7.645
G1 X32.258
G1 Y9.423
G1 X31.5215
G1 Y11.43
G3 X31.4024 Y11.7174 I-0.4065 J0.0
G1 X30.8865 Y12.2334
G1 Y17.2456
G1 X31.0599 Y17.419
G1 X33.132
G1 Y18.2625
G1 X33.2326
G1 X35.2726 Y16.2226
G3 X35.56 Y16.1035 I0.2874 J0.2874
G1 X39.37
G3 X39.6574 Y16.2226 I0.0 J0.4065
G1 X40.7117 Y17.2768
G3 X42.545 Y18.415 I0.5633 J1.1382
G3 X40.64 Y19.5149 I-1.27 J0.0
G3 X40.1368 Y17.8517 I0.635 J-1.0999
G1 X39.2016 Y16.9165
G1 X35.7284
G1 X33.6884 Y18.9564
G3 X33.401 Y19.0755 I-0.2874 J-0.2874
G1 X33.132
G1 Y19.919
G1 X31.5709
G1 X31.5215 Y20.0189
G1 Y21.2892
G3 X31.953 Y22.022 I-0.4065 J0.7328
G1 Y23.698
G3 X31.5215 Y24.4308 I-0.838 J0.0
G1 Y27.737
G1 X36.951
G3 X37.0945 Y28.0835 I0.0 J0.203
G1 X36.948 Y28.2301
G1 X36.8526 Y28.4594
G3 X36.5893 Y28.6211 I-0.2006 J-0.0314
G1 X36.4504 Y28.576
G1 X36.398 Y28.5676
G1 Y28.748
G1 Y28.829
G3 X37.033 Y29.642 I-0.203 J0.813
G1 Y31.318
G3 X35.357 I-0.838 J0.0
G1 Y30.683
G1 X35.103
G1 Y30.772
G1 Y31.177
G1 Y31.4045
G1 X35.1244 Y31.5439
G3 X35.1266 Y31.5586 I-0.1994 J0.0381
G1 X35.1291 Y31.5743
G1 X35.183 Y31.7368
G1 X35.2608 Y31.8908
G1 X35.3618 Y32.0297
G1 X35.4833 Y32.1512
G1 X35.6225 Y32.2525
G1 X35.776 Y32.3309
G1 X35.9396 Y32.384
G1 X36.1091 Y32.411
G1 X36.119
G3 X36.3063 Y32.6923 I0.0 J0.203
G1 X36.2351 Y32.8625
G3 X36.2246 Y32.8877 I-0.1921 J-0.0655
G1 X36.22 Y32.8987
G1 Y33.202
G1 Y33.607
G1 Y34.012
G1 Y34.417
G1 Y34.821
G1 Y35.226
G1 Y35.631
G1 Y36.036
G1 Y36.115
G3 X36.2162 Y36.1543 I-0.203 J0.0
G1 X36.208 Y36.1955
G1 X36.216 Y36.2347
G3 X36.22 Y36.275 I-0.199 J0.0403
G1 Y36.3155
G1 X36.2357 Y36.3523
G3 X36.2482 Y36.3927 I-0.1867 J0.0797
G1 X36.2563 Y36.4337
G1 X36.2785 Y36.4668
G3 X36.2976 Y36.5025 I-0.1685 J0.1132
G1 X36.3132 Y36.5401
G1 X36.3425 Y36.5695
G3 X36.3679 Y36.6004 I-0.1435 J0.1435
G1 X36.3916 Y36.6359
G1 X36.4252 Y36.6585
G3 X36.4543 Y36.6822 I-0.1132 J0.1685
G1 X36.4841 Y36.7115
G1 X36.5225 Y36.7274
G3 X36.5576 Y36.7461 I-0.0775 J0.1876
G1 X37.7446 Y37.5371
G3 X37.632 Y37.909 I-0.1126 J0.1689
G1 X37.3931
G1 X37.274 Y38.0281
G1 Y38.061
G1 Y38.466
G1 Y38.87
G1 Y39.275
G1 Y39.68
G1 Y40.085
G1 Y40.49
G1 Y40.895
G1 Y41.3
G1 Y41.705
G1 Y42.11
G1 Y42.515
G1 Y42.919
G1 Y43.324
G1 Y43.729
G1 Y44.134
G1 Y44.539
G1 Y44.944
G1 Y45.349
G1 Y45.754
G1 Y46.159
G1 Y46.177
G3 X37.071 Y46.38 I-0.203 J0.0
G1 X36.532
G3 X36.3885 Y46.3205 I0.0 J-0.203
G1 X36.3819 Y46.314
G3 X36.358 Y46.2901 I0.1311 J-0.155
G1 X35.9769 Y45.909
G3 X35.953 Y45.8851 I0.1311 J-0.155
G1 X35.5719 Y45.504
G3 X35.548 Y45.4801 I0.1311 J-0.155
G1 X35.1669 Y45.099
G3 X35.143 Y45.0751 I0.1311 J-0.155
G1 X34.7619 Y44.694
G3 X34.738 Y44.6701 I0.1311 J-0.155
G1 X34.3455 Y44.2775
G1 X34.3245 Y44.2565
G3 X34.265 Y44.113 I0.1435 J-0.1435
G1 Y43.729
G1 Y43.324
G1 Y42.919
G1 Y42.515
G1 Y42.11
G1 Y41.705
G1 Y41.3
G1 Y40.895
G1 Y40.49
G1 Y40.085
G1 Y39.68
G1 Y39.275
G1 Y38.87
G1 Y38.466
G1 Y38.061
G1 Y36.036
G1 Y35.631
G1 Y35.226
G1 Y34.821
G1 Y34.417
G1 Y34.012
G1 Y33.607
G1 Y33.202
G1 Y32.797
G1 Y32.266
G3 X34.3242 Y32.1228 I0.203 J0.0
G1 X34.5379 Y31.9081
G1 X34.697 Y31.5255
G1 Y31.42
G1 Y31.177
G1 Y30.772
G1 Y30.48
G1 Y30.367
G1 Y29.963
G1 Y29.558
G1 Y29.54
G1 Y29.4345
G1 X34.538 Y29.0521
G1 X34.3775 Y28.8915
G1 X34.2449 Y28.759
G1 X33.8625 Y28.6
G1 X33.4475
G1 X33.0651 Y28.759
G1 X32.9325 Y28.8915
G1 X32.772 Y29.0521
G1 X32.613 Y29.4345
G1 Y29.558
G1 Y29.963
G1 Y30.367
G1 Y30.772
G1 Y31.177
G1 Y31.5255
G1 X32.7721 Y31.9081
G1 X32.9858 Y32.1228
G3 X33.045 Y32.266 I-0.1438 J0.1432
G1 Y32.392
G1 Y32.797
G1 Y33.202
G1 Y33.607
G1 Y34.012
G1 Y34.417
G1 Y34.821
G1 Y35.226
G1 Y35.631
G1 Y36.036
G1 Y36.441
G1 Y38.87
G1 Y39.275
G1 Y39.68
G1 Y40.085
G1 Y40.49
G1 Y42.919
G1 Y43.324
G1 Y43.729
G1 Y44.134
G1 Y44.539
G1 Y44.5715
G1 X33.138 Y44.7949
G1 X33.3385 Y44.9955
G1 X34.7625 Y46.4195
G1 X35.1675 Y46.8245
G1 X35.5725 Y47.2295
G1 X35.8501 Y47.507
G1 X36.0398 Y47.586
G3 X36.0638 Y47.5959 I-0.0658 J0.192
G1 X36.0735 Y47.6
G1 X37.071
G3 X37.274 Y47.803 I0.0 J0.203
G1 Y48.062
G3 X37.2482 Y48.161 I-0.203 J0.0
G1 X37.2417 Y48.1727
G1 X37.224 Y48.2394
G1 Y48.588
G1 Y48.993
G1 Y49.124
G1 X37.4775
G1 Y48.2725
G1 X39.9925
G1 Y49.124
G1 X40.246
G1 Y48.993
G1 Y48.588
G1 Y48.2394
G1 X40.2283 Y48.1727
G1 X40.2218 Y48.161
G3 X40.196 Y48.062 I0.1772 J-0.099
G1 Y47.803
G3 X40.399 Y47.6 I0.203 J0.0
G1 X41.66
G3 X41.7375 Y47.6154 I0.0 J0.203
G1 X42.2523 Y47.828
G1 X42.8377
G1 X43.3801 Y47.6038
G1 X43.742 Y47.2419
G3 X43.7659 Y47.218 I0.155 J0.1311
G1 X43.794 Y47.1899
G1 X43.8356 Y47.09
G3 X44.023 Y46.965 I0.1874 J0.078
G1 X45.512
G3 X45.6994 Y47.09 I0.0 J0.203
G1 X45.741 Y47.1899
G1 X45.7691 Y47.218
G3 X45.793 Y47.2419 I-0.1311 J0.155
G1 X46.1549 Y47.6038
G1 X46.6973 Y47.828
G1 X47.2827
G1 X47.8251 Y47.6038
G1 X48.187 Y47.2419
G3 X48.2109 Y47.218 I0.155 J0.1311
G1 X48.2388 Y47.1901
G1 X48.3587 Y46.9
G3 X48.3665 Y46.8811 I0.1913 J0.068
G1 X48.463 Y46.6477
G1 Y46.563
G1 Y46.159
G1 Y46.0623
G1 X48.3712 Y45.8402
G3 X48.364 Y45.8227 I0.1838 J-0.0862
G1 X48.2388 Y45.5199
G1 X48.2115 Y45.4925
G1 X47.8251 Y45.1062
G1 X47.2827 Y44.882
G1 X46.6973
G1 X46.1549 Y45.1062
G1 X45.7685 Y45.4925
G1 X45.741 Y45.5201
G1 X45.6994 Y45.62
G3 X45.512 Y45.745 I-0.1874 J-0.078
G1 X44.023
G3 X43.8356 Y45.62 I0.0 J-0.203
G1 X43.794 Y45.5201
G1 X43.7665 Y45.4925
G1 X43.3801 Y45.1062
G1 X42.8377 Y44.882
G1 X42.2523
G1 X41.7099 Y45.1062
G1 X41.3235 Y45.4925
G1 X41.2962 Y45.5199
G1 X41.171 Y45.8227
G3 X41.1638 Y45.8402 I-0.191 J-0.0687
G1 X41.072 Y46.0623
G1 Y46.159
G1 Y46.177
G3 X40.869 Y46.38 I-0.203 J0.0
G1 X40.399
G3 X40.196 Y46.177 I0.0 J-0.203
G1 Y46.159
G1 Y45.754
G1 Y45.349
G1 Y45.263
G3 X40.399 Y45.06 I0.203 J0.0
G1 X40.7615
G1 X40.9849 Y44.967
G1 X41.5565 Y44.3955
G1 X41.9615 Y43.9905
G1 X42.3665 Y43.5855
G1 X42.7715 Y43.1805
G1 X42.8615 Y43.0905
G1 X43.062 Y42.8899
G1 X43.155 Y42.6665
G1 Y42.515
G1 Y42.11
G1 Y41.705
G1 Y41.3
G1 Y40.895
G1 Y40.49
G1 Y40.085
G1 Y39.68
G1 Y39.275
G1 Y38.87
G1 Y38.466
G1 Y38.061
G1 Y33.202
G1 Y32.797
G1 Y32.476
G3 X43.436 Y32.2886 I0.203 J0.0
G1 X43.6076 Y32.36
G1 X44.0225
G1 X44.4049 Y32.201
G1 X44.698 Y31.9079
G1 X44.857 Y31.5255
G1 Y29.4345
G1 X44.698 Y29.0521
G1 X44.4049 Y28.759
G1 X44.0225 Y28.6
G1 X43.6076
G1 X43.436 Y28.6714
G3 X43.155 Y28.484 I-0.078 J-0.1874
G1 Y27.94
G3 X43.358 Y27.737 I0.203 J0.0
G1 X58.42
G3 X58.623 Y27.94 I0.0 J0.203
G1 Y32.797
G1 Y33.202
G1 Y38.061
G1 Y38.466
G1 Y38.87
G1 Y39.275
G1 Y39.68
G1 Y40.085
G1 Y40.49
G1 Y40.895
G1 Y41.3
G1 Y41.705
G1 Y42.11
G1 Y42.515
G1 Y43.324
G1 Y43.729
G1 Y44.134
G1 Y44.539
G1 Y45.349
G1 Y45.754
G1 Y46.159
G1 Y46.563
G1 Y46.968
G1 Y47.373
G1 Y48.588
G1 Y48.993
G1 Y49.398
G1 Y53.721
G3 X58.42 Y53.924 I-0.203 J0.0
G1 X48.2437
G0 Z3.0
G0 X43.9761 Y32.1404
G0 Z1.25
G1 F50.0 Z-0.15
G3 F150.0 X42.977 Y31.318 I-0.1611 J-0.8224
G1 Y29.642
G3 X44.653 I0.838 J0.0
G1 Y31.318
G3 X43.9761 Y32.1404 I-0.838 J0.0
G0 Z3.0
G0 X39.5629 Y31.4479
G0 Z1.25
G1 F50.0 Z-0.15
G3 F150.0 X37.897 Y31.318 I-0.8279 J-0.1299
G1 Y29.642
G3 X39.573 I0.838 J0.0
G1 Y31.318
G3 X39.5629 Y31.4479 I-0.838 J0.0
G0 Z3.0
G0 X38.824 Y24.5313
G0 Z1.25
G1 F50.0 Z-0.15
G3 F150.0 X37.897 Y23.698 I-0.089 J-0.8333
G1 Y22.022
G3 X38.5441 Y21.206 I0.838 J0.0
G1 X39.7176 Y20.0326
G3 X40.005 Y19.9135 I0.2874 J0.2874
G1 X41.7416
G1 X42.7735 Y18.8816
G1 Y17.9484
G1 X39.0491 Y14.224
G1 X37.362
G1 Y12.446
G1 X39.14
G1 Y13.1651
G1 X43.4674 Y17.4926
G3 X43.5865 Y17.78 I-0.2874 J0.2874
G1 Y19.05
G3 X43.4674 Y19.3374 I-0.4065 J0.0
G1 X42.1974 Y20.6074
G3 X41.91 Y20.7265 I-0.2874 J-0.2874
G1 X40.1734
G1 X39.3947 Y21.5052
G3 X39.573 Y22.022 I-0.6597 J0.5168
G1 Y23.698
G3 X38.824 Y24.5313 I-0.838 J0.0
G0 Z3.0
G0 X36.9938 Y23.9512
G0 Z1.25
G1 F50.0 Z-0.15
G3 F150.0 X35.357 Y23.698 I-0.7988 J-0.2532
G1 Y22.022
G3 X37.033 I0.838 J0.0
G1 Y23.698
G3 X36.9938 Y23.9512 I-0.838 J0.0
G0 Z3.0
G0 X34.4906 Y23.7614
G0 Z1.25
G1 F50.0 Z-0.15
G3 F150.0 X32.817 Y23.698 I-0.8356 J-0.0634
G1 Y22.022
G3 X34.493 I0.838 J0.0
G1 Y23.698
G3 X34.4906 Y23.7614 I-0.838 J0.0
G0 Z3.0
G0 X35.8093 Y19.625
G0 Z1.25
G1 F50.0 Z-0.15
G3 F150.0 X35.56 Y19.5149 I0.3857 J-1.21
G3 Y17.3151 I0.635 J-1.0999
G3 X37.465 Y18.415 I0.635 J1.0999
G3 X35.8093 Y19.625 I-1.27 J0.0
G0 Z3.0
G0 X33.8091 Y15.24
G0 Z1.25
G1 F50.0 Z-0.15
G1 F150.0 X32.2309
G1 X31.115 Y14.1241
G1 Y12.5459
G1 X32.2309 Y11.43
G1 X33.8091
G1 X34.925 Y12.5459
G1 Y14.1241
G1 X33.8091 Y15.24
G0 Z3.0
G0 X35.4059 Y10.795
G0 Z1.25
G1 F50.0 Z-0.15
G1 F150.0 X34.29 Y9.6791
G1 Y8.1009
G1 X35.4059 Y6.985
G1 X36.9841
G1 X38.1 Y8.1009
G1 Y9.6791
G1 X36.9841 Y10.795
G1 X35.4059
G0 Z3.0
G0 X39.4058 Y9.8245
G0 Z1.25
G1 F50.0 Z-0.15
G3 F150.0 X40.005 Y8.4251 I1.2342 J-0.2995
G3 X41.8432 Y9.1185 I0.635 J1.0999
G1 X43.815
G3 X44.1024 Y9.2376 I0.0 J0.4065
G1 X44.6184 Y9.7535
G1 X45.395
G1 Y9.652
G1 X45.7385
G1 Y9.398
G1 X45.395
G1 Y8.382
G1 X46.895
G1 Y9.398
G1 X46.5515
G1 Y9.652
G1 X46.895
G1 Y10.668
G1 X46.5515
G1 Y10.922
G1 X46.895
G1 Y11.0235
G1 X50.895
G1 Y10.922
G1 X52.395
G1 Y11.938
G1 X50.895
G1 Y11.8365
G1 X46.895
G1 Y11.938
G1 X46.5515
G1 Y13.5916
G1 X47.2774 Y14.3176
G3 X47.3965 Y14.605 I-0.2874 J0.2874
G1 Y16.51
G3 X47.2774 Y16.7974 I-0.4065 J0.0
G1 X46.0891 Y17.9858
G3 X46.177 Y18.415 I-1.0041 J0.4292
G3 X44.539 Y19.3607 I-1.092 J0.0
G3 Y17.4693 I0.546 J-0.9457
G3 X45.5142 Y17.4109 I0.546 J0.9457
G1 X46.5835 Y16.3416
G1 Y14.7734
G1 X45.8576 Y14.0474
G3 X45.7385 Y13.76 I0.2874 J-0.2874
G1 Y11.938
G1 X45.395
G1 Y10.922
G1 X45.7385
G1 Y10.668
G1 X45.395
G1 Y10.5665
G1 X44.45
G3 X44.1626 Y10.4474 I0.0 J-0.4065
G1 X43.6466 Y9.9315
G1 X41.8432
G3 X40.005 Y10.6249 I-1.2032 J-0.4065
G3 X39.4058 Y9.8245 I0.635 J-1.0999
G0 Z3.0
G0 X40.362 Y12.446
G0 Z1.25
G1 F50.0 Z-0.15
G1 F150.0 X42.14
G1 Y12.9285
G1 X42.545
G3 X42.8324 Y13.0476 I0.0 J0.4065
G1 X44.6558 Y14.8709
G3 X46.177 Y15.875 I0.4292 J1.0041
G3 X44.539 Y16.8207 I-1.092 J0.0
G3 X44.0809 Y15.4458 I0.546 J-0.9457
G1 X42.3766 Y13.7415
G1 X42.14
G1 Y14.224
G1 X40.362
G1 Y12.446
G0 Z3.0
G0 X44.1873 Y7.9302
G0 Z1.25
G1 F50.0 Z-0.15
G3 F150.0 X44.1626 Y7.9074 I0.2627 J-0.3102
G1 X41.5676 Y5.3125
G3 X40.005 Y5.5449 I-0.9276 J-0.8675
G3 Y3.3451 I0.635 J-1.0999
G3 X41.91 Y4.445 I0.635 J1.0999
G3 X41.9086 Y4.5038 I-1.27 J0.0
G1 X44.6184 Y7.2135
G1 X45.395
G1 Y7.112
G1 X46.0781
G1 X47.1276 Y6.0626
G3 X47.415 Y5.9435 I0.2874 J0.2874
G1 X52.705
G3 X52.9924 Y6.0626 I0.0 J0.4065
G1 X57.4374 Y10.5076
G3 X57.5565 Y10.795 I-0.2874 J0.2874
G1 Y14.0368
G3 X58.42 Y15.24 I-0.4065 J1.2032
G3 X56.515 Y16.3399 I-1.27 J0.0
G3 Y14.1401 I0.635 J-1.0999
G3 X56.7435 Y14.0368 I0.635 J1.0999
G1 Y10.9634
G1 X52.5366 Y6.7565
G1 X47.5834
G1 X46.895 Y7.4449
G1 Y8.128
G1 X45.395
G1 Y8.0265
G1 X44.45
G3 X44.1873 Y7.9302 I0.0 J-0.4065
G0 Z3.0
G0 X50.895
G0 Z1.25
G1 F50.0 Z-0.15
G1 F150.0 Y7.112
G1 X52.395
G1 Y7.2135
G1 X52.705
G3 X52.9924 Y7.3326 I0.0 J0.4065
G1 X55.5324 Y9.8726
G3 X55.6515 Y10.16 I-0.2874 J0.2874
G1 Y23.3266
G1 X56.5867 Y24.2618
G3 X58.42 Y25.4 I0.5633 J1.1382
G3 X56.515 Y26.4999 I-1.27 J0.0
G3 X56.0118 Y24.8367 I0.635 J-1.0999
G1 X54.9576 Y23.7824
G3 X54.8385 Y23.495 I0.2874 J-0.2874
G1 Y10.3284
G1 X52.5366 Y8.0265
G1 X52.395
G1 Y8.128
G1 X50.895
G1 Y7.9302
G0 Z3.0
G0 Y8.382
G0 Z1.25
G1 F50.0 Z-0.15
G1 F150.0 X52.395
G1 Y8.4835
G1 X52.705
G3 X52.9924 Y8.6026 I0.0 J0.4065
G1 X53.6274 Y9.2376
G3 X53.7465 Y9.525 I-0.2874 J0.2874
G1 Y12.065
G3 X53.6274 Y12.3524 I-0.4065 J0.0
G1 X51.8415 Y14.1384
G1 Y16.3416
G1 X53.6274 Y18.1276
G3 X53.7465 Y18.415 I-0.2874 J0.2874
G1 Y24.1968
G3 X54.61 Y25.4 I-0.4065 J1.2032
G3 X52.705 Y26.4999 I-1.27 J0.0
G3 Y24.3001 I0.635 J-1.0999
G3 X52.9335 Y24.1968 I0.635 J1.0999
G1 Y18.5834
G1 X51.1476 Y16.7974
G3 X51.0285 Y16.51 I0.2874 J-0.2874
G1 Y13.97
G3 X51.1476 Y13.6826 I0.4065 J0.0
G1 X52.9335 Y11.8966
G1 Y9.6934
G1 X52.5366 Y9.2965
G1 X52.395
G1 Y9.398
G1 X50.895
G1 Y8.382
G0 Z3.0
G0 Y9.652
G0 Z1.25
G1 F50.0 Z-0.15
G1 F150.0 X52.395
G1 Y10.668
G1 X50.895
G1 Y9.652
G0 Z3.0
G0 X52.8309 Y14.0765
G0 Z1.25
G1 F50.0 Z-0.15
G3 F150.0 X54.61 Y15.24 I0.5091 J1.1635
G3 X52.705 Y16.3399 I-1.27 J0.0
G3 Y14.1401 I0.635 J-1.0999
G3 X52.8309 Y14.0765 I0.635 J1.0999
G0 Z3.0
G0 X50.907 Y16.7493
G0 Z1.25
G1 F50.0 Z-0.15
G3 F150.0 X51.435 Y17.78 I-0.742 J1.0307
G3 X49.53 Y18.8799 I-1.27 J0.0
G3 Y16.6801 I0.635 J-1.0999
G3 X50.907 Y16.7493 I0.635 J1.0999
G0 Z3.0
G0 X50.3181 Y21.5993
G0 Z1.25
G1 F50.0 Z-0.15
G3 F150.0 X51.435 Y22.86 I-0.1531 J1.2607
G3 X49.53 Y23.9599 I-1.27 J0.0
G3 Y21.7601 I0.635 J-1.0999
G3 X50.3181 Y21.5993 I0.635 J1.0999
G0 Z3.0
G0 X47.1883 Y21.9331
G0 Z1.25
G1 F50.0 Z-0.15
G3 F150.0 X47.193 Y22.022 I-0.8333 J0.0889
G1 Y23.698
G3 X45.517 I-0.838 J0.0
G1 Y22.022
G3 X47.1883 Y21.9331 I0.838 J0.0
G0 Z3.0
G0 X29.413 Y22.018
G0 Z1.25
G1 F50.0 Z-0.15
G3 F150.0 Y22.022 I-0.838 J0.004
G1 Y23.698
G3 X28.9815 Y24.4308 I-0.838 J0.0
G1 Y26.035
G3 X28.8624 Y26.3224 I-0.4065 J0.0
G1 X26.9574 Y28.2274
G3 X26.67 Y28.3465 I-0.2874 J-0.2874
G1 X23.0284
G1 X22.6315 Y28.7434
G1 Y32.385
G3 X22.5124 Y32.6724 I-0.4065 J0.0
G1 X18.1865 Y36.9984
G1 Y48.0916
G1 X19.2184 Y49.1235
G1 X19.6975
G1 Y48.2725
G1 X22.2125
G1 Y50.7875
G1 X19.6975
G1 Y49.9365
G1 X19.05
G3 X18.7626 Y49.8174 I0.0 J-0.4065
G1 X17.4926 Y48.5474
G3 X17.3735 Y48.26 I0.2874 J-0.2874
G1 Y36.83
G3 X17.4926 Y36.5426 I0.4065 J0.0
G1 X21.8185 Y32.2166
G1 Y28.575
G3 X21.9376 Y28.2876 I0.4065 J0.0
G1 X22.5726 Y27.6526
G3 X22.86 Y27.5335 I0.2874 J0.2874
G1 X26.5016
G1 X28.1685 Y25.8666
G1 Y24.4308
G3 X27.737 Y23.698 I0.4065 J-0.7328
G1 Y22.022
G3 X29.413 Y22.018 I0.838 J0.0
G0 Z3.0
G0 X26.873 Y22.021
G0 Z1.25
G1 F50.0 Z-0.15
G3 F150.0 Y22.022 I-0.838 J0.001
G1 Y23.698
G3 X25.197 I-0.838 J0.0
G1 Y22.022
G3 X25.6285 Y21.2892 I0.838 J0.0
G1 Y20.0189
G1 X25.5791 Y19.919
G1 X24.018
G1 Y17.419
G1 X26.812
G1 Y19.919
G1 X26.4415
G3 Y19.924 I-0.4065 J0.005
G1 Y21.2892
G3 X26.873 Y22.021 I-0.4065 J0.7328
G0 Z3.0
G0 X24.333 Y22.0218
G0 Z1.25
G1 F50.0 Z-0.15
G3 F150.0 Y22.022 I-0.838 J0.0002
G1 Y23.698
G3 X22.657 I-0.838 J0.0
G1 Y22.022
G3 X24.333 Y22.0218 I0.838 J0.0
G0 Z3.0
G0 X21.793 Y22.0219
G0 Z1.25
G1 F50.0 Z-0.15
G1 F150.0 Y22.022
G1 Y23.698
G3 X20.117 I-0.838 J0.0
G1 Y22.022
G3 X21.793 Y22.0219 I0.838 J0.0
G0 Z3.0
G0 X22.0685 Y19.8023
G0 Z1.25
G1 F50.0 Z-0.15
G3 F150.0 X21.59 Y19.6419 I0.1565 J-1.2603
G3 Y17.4421 I0.635 J-1.0999
G3 X23.495 Y18.542 I0.635 J1.0999
G3 X22.0685 Y19.8023 I-1.27 J0.0
G0 Z3.0
G0 X19.1312 Y21.5869
G0 Z1.25
G1 F50.0 Z-0.15
G3 F150.0 X19.253 Y22.022 I-0.7162 J0.4351
G1 Y23.698
G3 X17.577 I-0.838 J0.0
G1 Y22.022
G3 X19.1312 Y21.5869 I0.838 J0.0
G0 Z3.0
G0 X16.7056 Y21.911
G0 Z1.25
G1 F50.0 Z-0.15
G3 F150.0 X16.713 Y22.022 I-0.8306 J0.111
G1 Y23.698
G3 X15.037 I-0.838 J0.0
G1 Y22.022
G3 X16.7056 Y21.911 I0.838 J0.0
G0 Z3.0
G0 X14.1725 Y21.9944
G0 Z1.25
G1 F50.0 Z-0.15
G3 F150.0 X14.173 Y22.022 I-0.8375 J0.0276
G1 Y23.698
G3 X12.497 I-0.838 J0.0
G1 Y22.022
G3 X14.1725 Y21.9944 I0.838 J0.0
G0 Z3.0
G0 X12.7267 Y19.626
G0 Z1.25
G1 F50.0 Z-0.15
G3 F150.0 X11.43 Y19.6419 I-0.6617 J-1.084
G3 Y17.4421 I0.635 J-1.0999
G3 X13.335 Y18.542 I0.635 J1.0999
G3 X12.7267 Y19.626 I-1.27 J0.0
G0 Z3.0
G0 X10.9495 Y21.8652
G0 Z1.25
G1 F50.0 Z-0.15
G3 F150.0 X11.43 Y22.86 I-0.7895 J0.9948
G3 X9.525 Y23.9599 I-1.27 J0.0
G3 Y21.7601 I0.635 J-1.0999
G3 X10.9495 Y21.8652 I0.635 J1.0999
G0 Z3.0
G0 X6.985 Y24.8649
G0 Z1.25
G1 F50.0 Z-0.15
G1 F150.0 Y26.4431
G1 X5.8691 Y27.559
G1 X4.2909
G1 X3.175 Y26.4431
G1 Y24.8649
G1 X4.2909 Y23.749
G1 X5.8691
G1 X6.985 Y24.8649
G0 Z3.0
G0 X9.8393 Y13.9288
G0 Z1.25
G1 F50.0 Z-0.15
G3 F150.0 X9.525 Y13.7999 I0.3207 J-1.2288
G3 Y11.6001 I0.635 J-1.0999
G3 X11.43 Y12.7 I0.635 J1.0999
G3 X9.8393 Y13.9288 I-1.27 J0.0
G0 Z3.0
G0 X12.0619 Y11.9245
G0 Z1.25
G1 F50.0 Z-0.15
G3 F150.0 X12.37 Y9.9741 I0.9431 J-0.8505
G3 X14.275 Y11.074 I0.635 J1.0999
G3 X12.37 Y12.1739 I-1.27 J0.0
G3 X12.0619 Y11.9245 I0.635 J-1.0999
G0 Z3.0
G0 X11.0663 Y8.0428
G0 Z1.25
G1 F50.0 Z-0.15
G3 F150.0 X10.249 Y7.9307 I-0.2713 J-1.0578
G3 Y6.0393 I0.546 J-0.9457
G3 X11.887 Y6.985 I0.546 J0.9457
G3 X11.0663 Y8.0428 I-1.092 J0.0
G0 Z3.0
G0 X10.8771 Y5.5339
G0 Z1.25
G1 F50.0 Z-0.15
G3 F150.0 X10.249 Y5.3907 I-0.0821 J-1.0889
G3 Y3.4993 I0.546 J-0.9457
G3 X11.887 Y4.445 I0.546 J0.9457
G3 X10.8771 Y5.5339 I-1.092 J0.0
G0 Z3.0
G0 X8.255
G0 Z1.25
G1 F50.0 Z-0.15
G1 F150.0 Y6.2501
G1 X7.1391 Y7.366
G1 X5.5609
G1 X4.445 Y6.2501
G1 Y4.6719
G1 X5.5609 Y3.556
G1 X7.1391
G1 X8.255 Y4.6719
G1 Y5.5339
G0 Z3.0
G0 X6.2051 Y8.3689
G0 Z1.25
G1 F50.0 Z-0.15
G3 F150.0 X6.731 Y9.398 I-0.7441 J1.0291
G3 X4.826 Y10.4979 I-1.27 J0.0
G3 Y8.2981 I0.635 J-1.0999
G3 X6.2051 Y8.3689 I0.635 J1.0999
G0 Z3.0
G0 X14.6051 Y8.27
G0 Z1.25
G1 F50.0 Z-0.15
G3 F150.0 X15.24 Y7.1551 I1.2699 J-0.015
G3 X16.4383 Y7.1168 I0.635 J1.0999
G1 X17.4926 Y6.0626
G3 X17.78 Y5.9435 I0.2874 J0.2874
G1 X26.67
G3 X26.9574 Y6.0626 I0.0 J0.4065
G1 X27.4734 Y6.5785
G1 X30.9466
G1 X31.217 Y6.3081
G1 Y4.547
G1 X32.233
G1 Y6.325
G1 X32.1315
G1 Y6.375
G3 X32.0124 Y6.6624 I-0.4065 J0.0
G1 X31.4024 Y7.2724
G3 X31.115 Y7.3915 I-0.2874 J-0.2874
G1 X27.305
G3 X27.0176 Y7.2724 I0.0 J-0.4065
G1 X26.5016 Y6.7565
G1 X17.9484
G1 X17.0132 Y7.6917
G3 X17.145 Y8.255 I-1.1382 J0.5633
G3 X15.24 Y9.3549 I-1.27 J0.0
G3 X14.6051 Y8.27 I0.635 J-1.0999
G0 Z3.0
G0 X15.4748 Y5.6503
G0 Z1.25
G1 F50.0 Z-0.15
G3 F150.0 X15.24 Y5.5449 I0.4002 J-1.2053
G3 Y3.3451 I0.635 J-1.0999
G3 X17.145 Y4.445 I0.635 J1.0999
G3 X15.4748 Y5.6503 I-1.27 J0.0
G0 Z3.0
G0 X18.7493 Y10.0548
G0 Z1.25
G1 F50.0 Z-0.15
G3 F150.0 X18.872 Y9.9741 I0.7577 J1.0192
G3 X20.777 Y11.074 I0.635 J1.0999
G3 X18.872 Y12.1739 I-1.27 J0.0
G3 X18.7493 Y10.0548 I0.635 J-1.0999
G0 Z3.0
G0 X20.955 Y11.9109
G0 Z1.25
G1 F50.0 Z-0.15
G1 F150.0 X22.0709 Y10.795
G1 X23.6491
G1 X24.765 Y11.9109
G1 Y13.4891
G1 X23.6491 Y14.605
G1 X22.0709
G1 X20.955 Y13.4891
G1 Y11.9109
G0 Z3.0
G0 X19.9715 Y14.414
G0 Z1.25
G1 F50.0 Z-0.15
G3 F150.0 X20.777 Y15.596 I-0.4645 J1.182
G3 X18.872 Y16.6959 I-1.27 J0.0
G3 Y14.4961 I0.635 J-1.0999
G3 X19.9715 Y14.414 I0.635 J1.0999
G0 Z3.0
G0 X25.4 Y13.4891
G0 Z1.25
G1 F50.0 Z-0.15
G1 F150.0 Y11.9109
G1 X26.5159 Y10.795
G1 X28.0941
G1 X29.21 Y11.9109
G1 Y13.4891
G1 X28.0941 Y14.605
G1 X26.5159
G1 X25.4 Y13.4891
G0 Z3.0
G0 X25.9461 Y5.7119
G0 Z1.25
G1 F50.0 Z-0.15
G3 F150.0 X25.4 Y5.5449 I0.0889 J-1.2669
G3 Y3.3451 I0.635 J-1.0999
G3 X27.305 Y4.445 I0.635 J1.0999
G3 X27.2843 Y4.6735 I-1.27 J0.0
G1 X29.21
G3 X29.4974 Y4.7926 I0.0 J0.4065
G1 X29.7344 Y5.0295
G1 X29.972
G1 Y4.547
G1 X30.988
G1 Y6.325
G1 X29.972
G1 Y5.8425
G1 X29.566
G3 X29.2786 Y5.7234 I0.0 J-0.4065
G1 X29.0416 Y5.4865
G1 X26.7618
G3 X25.9461 Y5.7119 I-0.7268 J-1.0415
G0 Z3.0
G0 X26.0319 Y28.804
G0 Z1.25
G1 F50.0 Z-0.15
G3 F150.0 X26.873 Y29.642 I0.0031 J0.838
G1 Y31.318
G3 X26.4415 Y32.0508 I-0.838 J0.0
G1 Y36.195
G3 X26.3224 Y36.4824 I-0.4065 J0.0
G1 X23.1474 Y39.6574
G3 X22.86 Y39.7765 I-0.2874 J-0.2874
G1 X22.2125
G1 Y40.6275
G1 X19.6975
G1 Y38.1125
G1 X22.2125
G1 Y38.9635
G1 X22.6916
G1 X25.6285 Y36.0266
G1 Y32.0508
G3 X25.197 Y31.318 I0.4065 J-0.7328
G1 Y29.642
G3 X26.0319 Y28.804 I0.838 J0.0
G0 Z3.0
G0 X24.2907 Y29.3792
G0 Z1.25
G1 F50.0 Z-0.15
G3 F150.0 X24.333 Y29.642 I-0.7957 J0.2628
G1 Y31.318
G3 X23.9015 Y32.0508 I-0.838 J0.0
G1 Y33.02
G3 X23.7824 Y33.3074 I-0.4065 J0.0
G1 X19.4565 Y37.6334
G1 Y46.1866
G1 X19.6975 Y46.4276
G1 Y45.7325
G1 X22.2125
G1 Y48.2475
G1 X19.6975
G1 Y47.3965
G1 X19.685
G3 X19.3976 Y47.2774 I0.0 J-0.4065
G1 X18.7626 Y46.6424
G3 X18.6435 Y46.355 I0.2874 J-0.2874
G1 Y37.465
G3 X18.7626 Y37.1776 I0.4065 J0.0
G1 X23.0885 Y32.8516
G1 Y32.0508
G3 X22.657 Y31.318 I0.4065 J-0.7328
G1 Y29.642
G3 X24.2907 Y29.3792 I0.838 J0.0
G0 Z3.0
G0 X21.7904 Y29.5762
G0 Z1.25
G1 F50.0 Z-0.15
G3 F150.0 X21.793 Y29.642 I-0.8354 J0.0658
G1 Y31.318
G3 X20.117 I-0.838 J0.0
G1 Y29.642
G3 X21.7904 Y29.5762 I0.838 J0.0
G0 Z3.0
G0 X27.737 Y29.6339
G0 Z1.25
G1 F50.0 Z-0.15
G3 F150.0 X29.413 Y29.642 I0.838 J0.0081
G1 Y31.318
G3 X28.9815 Y32.0508 I-0.838 J0.0
G1 Y36.195
G3 X28.8624 Y36.4824 I-0.4065 J0.0
G1 X23.1474 Y42.1974
G3 X22.86 Y42.3165 I-0.2874 J-0.2874
G1 X22.2125
G1 Y43.1675
G1 X19.6975
G1 Y40.6525
G1 X22.2125
G1 Y41.5035
G1 X22.6916
G1 X28.1685 Y36.0266
G1 Y32.0508
G3 X27.737 Y31.318 I0.4065 J-0.7328
G1 Y29.642
G3 Y29.6339 I0.838 J0.0
( texte )
M0
S1000
G0 Z3.0
G0 X4.3136 Y36.6697
G0 Z1.25
G1 F50.0 Z-0.15
G1 F150.0 X4.1566
G1 X4.3136
G1 Y35.5721
G1 Y36.6697
G0 Z3.0
G0 X12.8829 Y26.7076
G0 Z1.25
G1 F50.0 Z-0.15
G1 F150.0 X13.5906
G2 X13.7662 Y26.689 I0.0101 J-0.7425
G2 X13.8897 Y26.628 I-0.0606 J-0.2783
G2 X13.9634 Y26.5126 I-0.185 J-0.1994
G2 X13.9828 Y26.4247 I-0.4157 J-0.138
G2 X13.988 Y26.3348 I-0.7301 J-0.0867
G2 X13.983 Y26.246 I-0.73 J-0.0035
G2 X13.9634 Y26.1592 I-0.4046 J0.0456
G2 X13.8882 Y26.052 I-0.2226 J0.0762
G2 X13.7632 Y25.9984 I-0.1777 J0.2421
G2 X13.5906 Y25.9843 I-0.1634 J0.9341
G1 X12.8829
G1 X13.5906
G3 X13.7632 Y25.9984 I0.0093 J0.9481
G3 X13.8882 Y26.052 I-0.0527 J0.2957
G3 X13.9634 Y26.1592 I-0.1474 J0.1833
G3 X13.983 Y26.246 I-0.3852 J0.1324
G3 X13.988 Y26.3348 I-0.7253 J0.0854
G3 X13.9828 Y26.4247 I-0.735 J0.0032
G3 X13.9634 Y26.5126 I-0.4352 J-0.0501
G3 X13.8897 Y26.628 I-0.2587 J-0.084
G3 X13.7662 Y26.689 I-0.1841 J-0.2172
G3 X13.5906 Y26.7076 I-0.1655 J-0.7239
G1 X12.8829
G0 Z3.0
G0 X27.1051 Y17.8807
G0 Z1.25
G1 F50.0 Z-0.15
G1 F150.0 X27.501
G1 Y17.4833
G1 Y17.8807
G1 X27.8954
G1 X27.501
G1 Y18.2788
G1 Y17.8807
G1 X27.1051
G0 Z3.0
G0 X45.327 Y39.1659
G0 Z1.25
G1 F50.0 Z-0.15
G3 F150.0 X45.336 Y39.0658 I0.5247 J-0.0031
G3 X45.3679 Y38.9706 I0.3586 J0.0671
G3 X45.4767 Y38.8385 I0.335 J0.1652
G3 X45.6367 Y38.7631 I0.2747 J0.3759
G3 X45.8311 Y38.7399 I0.1905 J0.7687
G3 X46.0181 Y38.7687 I0.0073 J0.5732
G3 X46.1604 Y38.8468 I-0.1509 J0.4435
G3 X46.2525 Y38.9575 I-0.2199 J0.2766
G3 X46.2869 Y39.0822 I-0.2519 J0.1366
G3 X46.2754 Y39.1956 I-0.4112 J0.0153
G3 X46.2293 Y39.2998 I-0.3245 J-0.0812
G3 X46.1458 Y39.3796 I-0.2107 J-0.1369
G3 X46.0376 Y39.4198 I-0.1736 J-0.3012
G1 X45.5707 Y39.5203
G2 X45.4862 Y39.5506 I0.0752 J0.3424
G2 X45.4154 Y39.6059 I0.1095 J0.2134
G2 X45.3716 Y39.7004 I0.1705 J0.1364
G2 X45.3614 Y39.804 I0.4667 J0.0981
G2 X45.3884 Y39.9314 I0.3093 J0.0011
G2 X45.4702 Y40.0384 I0.2758 J-0.1262
G2 X45.6042 Y40.111 I0.2639 J-0.3273
G2 X45.7856 Y40.1379 I0.1725 J-0.5368
G2 X45.9753 Y40.1137 I0.0066 J-0.705
G2 X46.1241 Y40.044 I-0.1178 J-0.4449
G2 X46.2209 Y39.9324 I-0.1779 J-0.2519
G2 X46.2525 Y39.7817 I-0.279 J-0.1372
G3 X46.2209 Y39.9324 I-0.3106 J0.0135
G3 X46.1241 Y40.044 I-0.2747 J-0.1403
G3 X45.9753 Y40.1137 I-0.2666 J-0.3751
G3 X45.7856 Y40.1379 I-0.1832 J-0.6807
G3 X45.6042 Y40.111 I-0.0089 J-0.5637
G3 X45.4702 Y40.0384 I0.1299 J-0.3998
G3 X45.3884 Y39.9314 I0.1939 J-0.2332
G3 X45.3614 Y39.804 I0.2823 J-0.1263
G3 X45.3754 Y39.6887 I0.4237 J-0.0073
G3 X45.4163 Y39.6059 I0.2328 J0.0636
G3 X45.4823 Y39.551 I0.1592 J0.1244
G3 X45.5707 Y39.5203 I0.1713 J0.3507
G1 X46.0376 Y39.4198
G2 X46.1446 Y39.379 I-0.0664 J-0.3341
G2 X46.2274 Y39.2998 I-0.1357 J-0.2249
G2 X46.2869 Y39.0822 I-0.2962 J-0.198
G2 X46.2525 Y38.9575 I-0.2863 J0.012
G2 X46.1604 Y38.8468 I-0.312 J0.1659
G2 X46.0181 Y38.7687 I-0.2932 J0.3654
G2 X45.8311 Y38.7399 I-0.1797 J0.5445
G2 X45.6367 Y38.7631 I-0.0039 J0.7919
G2 X45.4767 Y38.8385 I0.1147 J0.4512
G2 X45.3679 Y38.9706 I0.2262 J0.2973
G2 X45.336 Y39.0658 I0.3267 J0.1624
G2 X45.327 Y39.1659 I0.5157 J0.097
G0 Z3.0
G0 X45.3186 Y40.9571
G0 Z1.25
G1 F50.0 Z-0.15
G1 F150.0 X45.5548 Y43.716
G1 X46.7882 Y40.9385
G1 X48.0235 Y43.716
G1 X48.2635 Y40.9571
G1 X48.0235 Y43.716
G1 X46.7882 Y40.9385
G1 X45.5548 Y43.716
G1 X45.3186 Y40.9571
G0 Z3.0
G0 X47.8172 Y39.8407
G0 Z1.25
G1 F50.0 Z-0.15
G2 F150.0 X47.8229 Y39.8531 I0.625 J-0.2792
G2 X47.9017 Y39.9714 I0.4361 J-0.2052
G2 X48.1028 Y40.1042 I0.3632 J-0.3314
G2 X48.3408 Y40.1417 I0.2274 J-0.6697
G2 X48.5171 Y40.1226 I0.006 J-0.7708
G2 X48.6812 Y40.0551 I-0.1179 J-0.52
G2 X48.8051 Y39.938 I-0.2283 J-0.3654
G2 X48.8812 Y39.7854 I-0.4783 J-0.3339
G3 X48.8051 Y39.938 I-0.5544 J-0.1813
G3 X48.6812 Y40.0551 I-0.3522 J-0.2483
G3 X48.5171 Y40.1226 I-0.282 J-0.4526
G3 X48.3408 Y40.1417 I-0.1704 J-0.7518
G3 X48.1028 Y40.1042 I-0.0106 J-0.7072
G3 X47.9017 Y39.9714 I0.1621 J-0.4642
G3 X47.8229 Y39.8531 I0.3572 J-0.3235
G3 X47.7621 Y39.65 I0.6823 J-0.3149
G3 X47.7464 Y39.4384 I1.3047 J-0.2031
G3 X47.7758 Y39.1575 I1.2107 J-0.0151
G3 X47.8226 Y39.023 I0.6659 J0.1564
G3 X47.9017 Y38.9045 I0.432 J0.2028
G3 X48.1031 Y38.7731 I0.3615 J0.334
G3 X48.3408 Y38.7362 I0.2271 J0.6777
G3 X48.5406 Y38.7607 I0.0079 J0.7612
G3 X48.7212 Y38.8496 I-0.1271 J0.486
G3 X48.8495 Y39.0132 I-0.2907 J0.3601
G3 X48.9119 Y39.2115 I-0.6996 J0.3291
G2 X48.8495 Y39.0132 I-0.7619 J0.1308
G2 X48.7212 Y38.8496 I-0.4189 J0.1965
G2 X48.5406 Y38.7607 I-0.3077 J0.397
G2 X48.3408 Y38.7362 I-0.1919 J0.7367
G2 X48.1031 Y38.7731 I-0.0106 J0.7147
G2 X47.9017 Y38.9045 I0.1601 J0.4655
G2 X47.8226 Y39.023 I0.3529 J0.3212
G2 X47.762 Y39.2266 I0.6833 J0.3145
G2 X47.7464 Y39.4384 I1.3154 J0.2034
G2 X47.776 Y39.7189 I1.2018 J0.015
G2 X47.8172 Y39.8407 I0.6662 J-0.1574
G0 Z3.0
G0 X51.2159 Y41.9356
G0 Z1.25
G1 F50.0 Z-0.15
G2 F150.0 X51.1694 Y41.4966 I-1.8562 J-0.0254
G2 X51.0168 Y41.1878 I-0.6956 J0.1515
G2 X50.7285 Y41.0036 I-0.4984 J0.4625
G2 X50.5086 Y40.955 I-0.3449 J1.0391
G2 X50.2838 Y40.9422 I-0.2168 J1.8252
G2 X50.0618 Y40.9547 I-0.0087 J1.825
G2 X49.8448 Y41.0036 I0.1139 J1.0116
G2 X49.5769 Y41.1915 I0.1905 J0.5565
G2 X49.443 Y41.504 I0.6053 J0.4444
G2 X49.4076 Y41.9356 I2.3352 J0.4085
G1 Y43.7048
G1 Y41.9356
G3 X49.443 Y41.504 I2.3702 J-0.0231
G3 X49.5769 Y41.1915 I0.7392 J0.1318
G3 X49.8448 Y41.0036 I0.4584 J0.3686
G3 X50.0618 Y40.9547 I0.331 J0.9631
G3 X50.2838 Y40.9422 I0.2135 J1.8134
G3 X50.5086 Y40.955 I0.0081 J1.8375
G3 X50.7285 Y41.0036 I-0.1252 J1.0881
G3 X51.0168 Y41.1878 I-0.2101 J0.6467
G3 X51.1694 Y41.4966 I-0.5431 J0.4604
G3 X51.2159 Y41.9356 I-1.8098 J0.4137
G1 Y43.7048
G1 Y41.9356
G0 Z3.0
G0 X52.9497 Y43.6788
G0 Z1.25
G1 F50.0 Z-0.15
G1 F150.0 Y40.9385
G1 Y43.6788
G1 X53.7571
G1 X52.1386
G1 X52.9497
G0 Z3.0
G0 X55.5784
G0 Z1.25
G1 F50.0 Z-0.15
G1 F150.0 X56.6648 Y40.9385
G1 X55.5784 Y43.6788
G1 X54.4975 Y40.9385
G1 X55.5784 Y43.6788
G0 Z3.0
G0 X56.276 Y41.917
G0 Z1.25
G1 F50.0 Z-0.15
G1 F150.0 X54.877
G1 X56.276
G0 Z3.0
G0 X56.2961 Y40.1249
G0 Z1.25
G1 F50.0 Z-0.15
G1 F150.0 X56.7937
G1 X55.8031
G1 X56.2961
G1 Y38.751
G1 Y40.1249
G0 Z3.0
G0 X54.3492 Y39.1873
G0 Z1.25
G1 F50.0 Z-0.15
G2 F150.0 X54.3213 Y39.0217 I-0.4939 J-0.0019
G2 X54.2367 Y38.8822 I-0.3557 J0.1203
G2 X54.0888 Y38.7873 I-0.2858 J0.2829
G2 X53.9824 Y38.7604 I-0.1764 J0.473
G2 X53.873 Y38.7529 I-0.1061 J0.7474
G2 X53.6544 Y38.7882 I-0.0022 J0.6802
G2 X53.5018 Y38.8803 I0.1481 J0.4177
G2 X53.4125 Y39.0171 I0.2652 J0.2707
G2 X53.3837 Y39.1873 I0.4598 J0.1654
G1 Y40.1268
G1 Y39.1873
G3 X53.4125 Y39.0171 I0.4886 J-0.0048
G3 X53.5018 Y38.8803 I0.3545 J0.134
G3 X53.6544 Y38.7882 I0.3007 J0.3257
G3 X53.873 Y38.7529 I0.2164 J0.6449
G3 X53.9824 Y38.7604 I0.0034 J0.7542
G3 X54.0888 Y38.7873 I-0.07 J0.5
G3 X54.2367 Y38.8822 I-0.1379 J0.3777
G3 X54.3213 Y39.0217 I-0.271 J0.2599
G3 X54.3492 Y39.1873 I-0.4659 J0.1637
G1 Y40.1268
G1 Y39.1873
G0 Z3.0
G0 X54.1453 Y37.8274
G0 Z1.25
G1 F50.0 Z-0.15
G1 F150.0 Y36.4572
G1 Y37.8274
G1 X54.549
G1 X53.7398
G1 X54.1453
G0 Z3.0
G0 X55.0594 Y37.4767
G0 Z1.25
G1 F50.0 Z-0.15
G2 F150.0 X55.1462 Y37.6404 I0.717 J-0.2751
G2 X55.3034 Y37.7902 I0.447 J-0.3118
G2 X55.4959 Y37.846 I0.1925 J-0.3041
G2 X55.6885 Y37.7902 I0.001 J-0.3567
G2 X55.8457 Y37.6404 I-0.2898 J-0.4616
G2 X55.9527 Y37.42 I-0.6154 J-0.4348
G2 X55.9917 Y37.1502 I-0.871 J-0.2638
G2 X55.9527 Y36.8805 I-0.9101 J-0.0059
G2 X55.8457 Y36.6591 I-0.7349 J0.2186
G2 X55.6885 Y36.5112 I-0.4396 J0.3098
G2 X55.4959 Y36.4572 I-0.1912 J0.3118
G2 X55.3034 Y36.5112 I-0.0004 J0.369
G2 X55.1462 Y36.6591 I0.2824 J0.4577
G2 X55.0402 Y36.8805 I0.6431 J0.4441
G2 X55.0011 Y37.1502 I0.871 J0.2638
G2 X55.0402 Y37.42 I0.9101 J0.0059
G2 X55.0594 Y37.4767 I0.7363 J-0.2184
G0 Z3.0
G0 X56.5387 Y37.8293
G0 Z1.25
G1 F50.0 Z-0.15
G1 F150.0 X56.7349
G1 Y36.4572
G1 Y37.8293
G1 X56.5387
G0 Z3.0
G0 X51.7025 Y39.1608
G0 Z1.25
G1 F50.0 Z-0.15
G2 F150.0 X51.6884 Y39.1147 I-0.7808 J0.215
G2 X51.6354 Y38.9982 I-0.6461 J0.2236
G2 X51.5581 Y38.8961 I-0.438 J0.2511
G2 X51.3656 Y38.7762 I-0.3498 J0.3469
G2 X51.1303 Y38.7399 I-0.2299 J0.7097
G2 X50.8949 Y38.7762 I-0.0055 J0.746
G2 X50.7024 Y38.8961 I0.1573 J0.4669
G2 X50.6252 Y38.9982 I0.3608 J0.3532
G2 X50.5722 Y39.1147 I0.5928 J0.3399
G2 X50.5347 Y39.2793 I0.7665 J0.261
G2 X50.5247 Y39.4477 I1.3169 J0.1626
G2 X50.5348 Y39.6157 I1.3124 J0.0057
G2 X50.5722 Y39.7798 I0.8132 J-0.0989
G2 X50.625 Y39.8977 I0.6587 J-0.2248
G2 X50.7024 Y40.0012 I0.4431 J-0.2505
G2 X50.8949 Y40.124 I0.3462 J-0.3305
G2 X51.1303 Y40.1612 I0.23 J-0.6917
G2 X51.3656 Y40.124 I0.0054 J-0.7289
G2 X51.5581 Y40.0012 I-0.1536 J-0.4532
G2 X51.6355 Y39.8977 I-0.3658 J-0.3539
G2 X51.6884 Y39.7798 I-0.6059 J-0.3427
G2 X51.7257 Y39.6157 I-0.7758 J-0.263
G2 X51.7358 Y39.4477 I-1.3022 J-0.1623
G2 X51.7258 Y39.2793 I-1.3282 J-0.0058
G2 X51.7025 Y39.1608 I-0.8041 J0.0965
G2 X51.6884 Y39.1147 I-0.7808 J0.215
G2 X51.6354 Y38.9982 I-0.6461 J0.2236
G2 X51.5581 Y38.8961 I-0.438 J0.2511
G2 X51.3656 Y38.7762 I-0.3498 J0.3469
G2 X51.1303 Y38.7399 I-0.2299 J0.7097
G2 X50.8949 Y38.7762 I-0.0055 J0.746
G2 X50.7024 Y38.8961 I0.1573 J0.4669
G2 X50.6252 Y38.9982 I0.3608 J0.3532
G2 X50.5722 Y39.1147 I0.5928 J0.3399
G2 X50.5347 Y39.2793 I0.7665 J0.261
G2 X50.5247 Y39.4477 I1.3169 J0.1626
G2 X50.5348 Y39.6157 I1.3124 J0.0057
G2 X50.5722 Y39.7798 I0.8132 J-0.0989
G2 X50.625 Y39.8977 I0.6587 J-0.2248
G2 X50.7024 Y40.0012 I0.4431 J-0.2505
G2 X50.8949 Y40.124 I0.3462 J-0.3305
G2 X51.1303 Y40.1612 I0.23 J-0.6917
G2 X51.3656 Y40.124 I0.0054 J-0.7289
G2 X51.5581 Y40.0012 I-0.1536 J-0.4532
G2 X51.6355 Y39.8977 I-0.3658 J-0.3539
G2 X51.6884 Y39.7798 I-0.6059 J-0.3427
G2 X51.7257 Y39.6157 I-0.7758 J-0.263
G2 X51.7358 Y39.4477 I-1.3022 J-0.1623
G2 X51.7258 Y39.2793 I-1.3282 J-0.0058
G2 X51.7025 Y39.1608 I-0.8041 J0.0965
G0 Z3.0
G0 X56.189 Y30.0068
G0 Z1.25
G1 F50.0 Z-0.15
G1 F150.0 Y29.0273
G1 X56.5832 Y29.3723
G1 X56.189 Y29.0273
G1 X56.6807 Y28.6242
G1 X56.189 Y29.0273
G2 X56.1906 Y28.8226 I-15.0625 J-0.221
G1 Y28.7484
G1 Y28.6839
G2 X56.1898 Y28.6387 I-1.0275 J-0.0042
G2 X56.189 Y28.6242 I-0.6693 J0.0299
G1 Y30.0068
G0 Z3.0
G0 X55.6408 Y28.6186
G0 Z1.25
G1 F50.0 Z-0.15
G1 F150.0 Y29.145
G3 X55.6319 Y29.2326 I-0.3971 J0.0039
G3 X55.5973 Y29.3135 I-0.2199 J-0.0463
G3 X55.529 Y29.3628 I-0.1076 J-0.0771
G3 X55.4457 Y29.3748 I-0.0784 J-0.2495
G3 X55.3433 Y29.349 I-0.0026 J-0.2056
G3 X55.2643 Y29.2853 I0.1437 J-0.2591
G3 X55.2119 Y29.1998 I0.2279 J-0.1985
G3 X55.1918 Y29.112 I0.2487 J-0.1033
G2 X55.2119 Y29.1998 I0.2688 J-0.0154
G2 X55.2643 Y29.2853 I0.2803 J-0.1131
G2 X55.3433 Y29.349 I0.2227 J-0.1954
G2 X55.4457 Y29.3748 I0.0998 J-0.1798
G2 X55.529 Y29.3628 I0.0049 J-0.2614
G2 X55.5973 Y29.3135 I-0.0394 J-0.1264
G2 X55.6319 Y29.2326 I-0.1853 J-0.1272
G2 X55.6408 Y29.145 I-0.3884 J-0.0837
G1 Y28.6186
G0 Z3.0
G0 X55.1918
G0 Z1.25
G1 F50.0 Z-0.15
G1 F150.0 Y29.145
G3 X55.1829 Y29.2326 I-0.3971 J0.0039
G3 X55.1482 Y29.3135 I-0.2199 J-0.0463
G3 X55.0792 Y29.3629 I-0.1076 J-0.0774
G3 X54.9951 Y29.3748 I-0.0791 J-0.2565
G3 X54.8943 Y29.349 I-0.0019 J-0.2024
G3 X54.8153 Y29.2853 I0.1437 J-0.2591
G3 X54.7629 Y29.1998 I0.2279 J-0.1985
G3 X54.7427 Y29.112 I0.2487 J-0.1033
G2 X54.7629 Y29.1998 I0.2688 J-0.0154
G2 X54.8153 Y29.2853 I0.2803 J-0.1131
G2 X54.8943 Y29.349 I0.2227 J-0.1954
G2 X54.9951 Y29.3748 I0.0989 J-0.1766
G2 X55.0792 Y29.3629 I0.005 J-0.2684
G2 X55.1482 Y29.3135 I-0.0385 J-0.1268
G2 X55.1829 Y29.2326 I-0.1853 J-0.1272
G2 X55.1918 Y29.145 I-0.3884 J-0.0837
G1 Y28.6186
G0 Z3.0
G0 X54.7427
G0 Z1.25
G1 F50.0 Z-0.15
G1 F150.0 Y29.3651
G1 Y28.6186
G0 Z3.0
G0 X57.6945 Y29.8061
G0 Z1.25
G1 F50.0 Z-0.15
G1 F150.0 X57.5244
G1 X57.6945
G1 Y28.617
G1 Y29.8061
G0 Z3.0
G0 X46.0408 Y47.7258
G0 Z1.25
G1 F50.0 Z-0.15
G1 F150.0 Y48.1232
G1 X46.4352
G1 X46.0408
G1 Y48.5213
G1 Y48.1232
G1 X45.6449
G1 X46.0408
G1 Y47.7258
( Perage1 )
M0
G0 Z3.0
( T1 : 1.0 )
T1 M6
M3 S1000
G0 X0.0 Y0.0
G98
G81 X0.0 Y0.0 Z-4.0 R3.0 F300.0
G81 X61.595 Z-4.0
G80
G0 Z3.0
M5
M30
