( Made using CamBam - http://www.cambam.co.uk )
( scout_mk1_b.sol 5/14/2015 11:06:49 PM )
( T2 : 0.2 )
( T4 : 1.0 )
( T5 : 0.7 )
( T6 : 3.0 )
G21 G90 G64 G40
G0 Z3.0
( T2 : 0.2 )
T2 M6
( isolation )
M0
G17
M3 S1000
G0 X47.8254 Y5.9755
G0 Z1.25
G1 F50.0 Z-0.15
G1 F150.0 X49.8859 Y6.3876
G3 X50.254 Y6.0393 I0.9141 J0.5974
G3 X51.892 Y6.985 I0.546 J0.9457
G3 X50.254 Y7.9307 I-1.092 J0.0
G3 X49.7264 Y7.1848 I0.546 J-0.9457
G1 X48.0315 Y6.8459
G1 Y8.89
G3 X47.9124 Y9.1774 I-0.4065 J0.0
G1 X47.1425 Y9.9474
G1 Y15.494
G3 X47.0234 Y15.7814 I-0.4065 J0.0
G1 X46.1265 Y16.6784
G1 Y21.2892
G3 X46.558 Y22.022 I-0.4065 J0.7328
G1 Y23.698
G3 X44.882 I-0.838 J0.0
G1 Y22.022
G3 X45.3135 Y21.2892 I0.838 J0.0
G1 Y16.51
G3 X45.4326 Y16.2226 I0.4065 J0.0
G1 X46.3295 Y15.3256
G1 Y9.779
G3 X46.4486 Y9.4916 I0.4065 J0.0
G1 X47.2185 Y8.7216
G1 Y6.5184
G1 X46.2833 Y5.5832
G3 X45.085 Y5.5449 I-0.5633 J-1.1382
G3 Y3.3451 I0.635 J-1.0999
G3 X46.99 Y4.445 I0.635 J1.0999
G3 X46.8582 Y5.0083 I-1.27 J0.0
G1 X47.8254 Y5.9755
G0 Z3.0
G0 X46.5817 Y7.3221
G0 Z1.25
G1 F50.0 Z-0.15
G3 F150.0 X46.99 Y8.255 I-0.8617 J0.9329
G3 X46.1265 Y9.4582 I-1.27 J0.0
G1 Y14.605
G3 X46.0074 Y14.8924 I-0.4065 J0.0
G1 X43.5865 Y17.3134
G1 Y21.2892
G3 X44.018 Y22.022 I-0.4065 J0.7328
G1 Y23.698
G3 X42.342 I-0.838 J0.0
G1 Y22.022
G3 X42.7735 Y21.2892 I0.838 J0.0
G1 Y17.145
G3 X42.8926 Y16.8576 I0.4065 J0.0
G1 X45.3135 Y14.4366
G1 Y9.4582
G3 X45.085 Y9.3549 I0.4065 J-1.2032
G3 Y7.1551 I0.635 J-1.0999
G3 X46.5817 Y7.3221 I0.635 J1.0999
G0 Z3.0
G0 X47.9907 Y9.9543
G0 Z1.25
G1 F50.0 Z-0.15
G3 F150.0 X49.7932 Y10.6675 I0.5993 J1.1197
G1 X49.809
G3 X50.0964 Y10.7866 I0.0 J0.4065
G1 X50.8717 Y11.5618
G3 X52.705 Y12.7 I0.5633 J1.1382
G3 X51.8415 Y13.9032 I-1.27 J0.0
G1 Y17.145
G3 X51.6754 Y17.4728 I-0.4065 J0.0
G1 X50.7406 Y18.1583
G3 X50.8 Y18.542 I-1.2106 J0.3837
G3 X48.895 Y19.6419 I-1.27 J0.0
G3 Y17.4421 I0.635 J-1.0999
G3 X50.2599 Y17.5027 I0.635 J1.0999
G1 X51.0285 Y16.939
G1 Y13.9032
G3 X50.8 Y13.7999 I0.4065 J-1.2032
G3 X50.2968 Y12.1367 I0.635 J-1.0999
G1 X49.7504 Y11.5902
G3 X47.955 Y12.1739 I-1.1603 J-0.5162
G3 Y9.9741 I0.635 J-1.0999
G3 X47.9907 Y9.9543 I0.635 J1.0999
G0 Z3.0
G0 X49.7205 Y9.69
G0 Z1.25
G1 F50.0 Z-0.15
G3 F150.0 X50.254 Y8.5793 I1.0795 J-0.165
G3 X51.892 Y9.525 I0.546 J0.9457
G3 X50.254 Y10.4707 I-1.092 J0.0
G3 X49.7205 Y9.69 I0.546 J-0.9457
G0 Z3.0
G0 X50.5799 Y5.5146
G0 Z1.25
G1 F50.0 Z-0.15
G3 F150.0 X50.254 Y5.3907 I0.2201 J-1.0696
G3 Y3.4993 I0.546 J-0.9457
G3 X51.892 Y4.445 I0.546 J0.9457
G3 X50.5799 Y5.5146 I-1.092 J0.0
G0 Z3.0
G0 X53.34
G0 Z1.25
G1 F50.0 Z-0.15
G1 F150.0 Y4.6719
G1 X54.4559 Y3.556
G1 X56.0341
G1 X57.15 Y4.6719
G1 Y6.2501
G1 X56.5405 Y6.8596
G1 Y8.1948
G3 X57.404 Y9.398 I-0.4065 J1.2032
G3 X57.1936 Y10.0982 I-1.27 J0.0
G1 X58.2329 Y11.4344
G3 X58.3185 Y11.684 I-0.3209 J0.2496
G1 Y22.86
G3 X58.2398 Y23.1004 I-0.4065 J0.0
G1 X57.5695 Y24.0144
G1 X58.42 Y24.8649
G1 Y26.4431
G1 X57.5565 Y27.3066
G1 Y37.465
G3 X57.4374 Y37.7524 I-0.4065 J0.0
G1 X56.4122 Y38.7777
G3 X55.321 Y39.827 I-1.0912 J-0.0427
G1 X53.137
G3 X52.1235 Y39.1415 I0.0 J-1.092
G1 X52.07
G3 X51.7826 Y39.0224 I0.0 J-0.4065
G1 X49.8776 Y37.1174
G3 X49.7585 Y36.83 I0.2874 J-0.2874
G1 Y29.3784
G1 X46.1866 Y25.8065
G1 X39.5384
G1 X38.3874 Y26.9574
G3 X38.1 Y27.0765 I-0.2874 J-0.2874
G1 X29.3784
G1 X28.3465 Y28.1084
G1 Y28.9092
G3 X28.778 Y29.642 I-0.4065 J0.7328
G1 Y31.318
G3 X27.102 I-0.838 J0.0
G1 Y29.642
G3 X27.5335 Y28.9092 I0.838 J0.0
G1 Y28.1084
G1 X26.5016 Y27.0765
G1 X16.51
G3 X16.2226 Y26.9574 I0.0 J-0.4065
G1 X14.9526 Y25.6874
G3 X14.8335 Y25.4 I0.2874 J-0.2874
G1 Y24.4308
G3 X14.402 Y23.698 I0.4065 J-0.7328
G1 Y23.2665
G1 X12.6332
G3 X10.795 Y23.9599 I-1.2032 J-0.4065
G3 Y21.7601 I0.635 J-1.0999
G3 X12.6332 Y22.4535 I0.635 J1.0999
G1 X14.402
G1 Y22.022
G3 X16.078 I0.838 J0.0
G1 Y23.698
G3 X15.6465 Y24.4308 I-0.838 J0.0
G1 Y25.2316
G1 X16.6784 Y26.2635
G1 X26.67
G3 X26.9574 Y26.3826 I0.0 J0.4065
G1 X27.94 Y27.3651
G1 X28.9226 Y26.3826
G3 X29.21 Y26.2635 I0.2874 J0.2874
G1 X37.9316
G1 X38.9635 Y25.2316
G1 Y19.7452
G3 X38.735 Y19.6419 I0.4065 J-1.2032
G3 Y17.4421 I0.635 J-1.0999
G3 X40.64 Y18.542 I0.635 J1.0999
G3 X39.7765 Y19.7452 I-1.27 J0.0
G1 Y24.9935
G1 X46.355
G3 X46.6424 Y25.1126 I0.0 J0.4065
G1 X50.4524 Y28.9226
G3 X50.5715 Y29.21 I-0.2874 J0.2874
G1 Y36.6616
G1 X52.159 Y38.2492
G3 X53.137 Y37.643 I0.978 J0.4858
G1 X55.321
G3 X56.0852 Y37.9549 I0.0 J1.092
G1 X56.7435 Y37.2966
G1 Y27.559
G1 X55.7259
G1 X54.61 Y26.4431
G1 Y24.8649
G1 X55.7259 Y23.749
G1 X56.756
G1 X57.5055 Y22.7269
G1 Y11.8235
G1 X56.5518 Y10.5973
G3 X55.499 Y10.4979 I-0.4178 J-1.1993
G3 Y8.2981 I0.635 J-1.0999
G3 X55.7275 Y8.1948 I0.635 J1.0999
G1 Y7.366
G1 X54.4559
G1 X53.34 Y6.2501
G1 Y5.5146
G0 Z3.0
G0 X54.3289 Y11.049
G0 Z1.25
G1 F50.0 Z-0.15
G1 F150.0 X55.9071
G1 X57.023 Y12.1649
G1 Y13.7431
G1 X55.9071 Y14.859
G1 X54.3289
G1 X53.213 Y13.7431
G1 Y12.1649
G1 X54.3289 Y11.049
G0 Z3.0
G0 Y16.129
G0 Z1.25
G1 F50.0 Z-0.15
G1 F150.0 X55.3991
G1 X56.515 Y17.2449
G1 Y18.8231
G1 X55.3991 Y19.939
G1 X53.8209
G1 X52.705 Y18.8231
G1 Y17.2449
G1 X53.8209 Y16.129
G1 X54.3289
G0 Z3.0
G0 X49.8546 Y15.7134
G0 Z1.25
G1 F50.0 Z-0.15
G3 F150.0 X47.955 Y16.6959 I-1.2646 J-0.1174
G3 Y14.4961 I0.635 J-1.0999
G3 X49.86 Y15.596 I0.635 J1.0999
G3 X49.8546 Y15.7134 I-1.27 J0.0
G0 Z3.0
G0 X48.4654 Y21.2096
G0 Z1.25
G1 F50.0 Z-0.15
G3 F150.0 X49.098 Y22.022 I-0.2054 J0.8124
G1 Y22.4535
G1 X50.2318
G3 X50.8 Y21.7601 I1.2032 J0.4065
G3 X52.705 Y22.86 I0.635 J1.0999
G3 X51.8415 Y24.0632 I-1.27 J0.0
G1 Y30.761
G1 X54.1159 Y35.103
G1 X55.321
G3 Y37.287 I0.0 J1.092
G1 X53.137
G3 Y35.103 I0.0 J-1.092
G1 X53.1981
G1 X51.0749 Y31.0496
G3 X51.0285 Y30.861 I0.3601 J-0.1886
G1 Y24.0632
G3 X50.8 Y23.9599 I0.4065 J-1.2032
G3 X50.2318 Y23.2665 I0.635 J-1.0999
G1 X49.098
G1 Y23.698
G3 X47.422 I-0.838 J0.0
G1 Y22.022
G3 X48.4654 Y21.2096 I0.838 J0.0
G0 Z3.0
G0 X54.8724 Y21.9518
G0 Z1.25
G1 F50.0 Z-0.15
G3 F150.0 X55.499 Y20.9981 I1.2616 J0.1462
G3 X57.404 Y22.098 I0.635 J1.0999
G3 X55.499 Y23.1979 I-1.27 J0.0
G3 X54.8724 Y21.9518 I0.635 J-1.0999
G0 Z3.0
G0 X57.8699 Y27.7596
G0 Z1.25
G1 F50.0 Z-0.15
G3 F150.0 X57.963 Y27.737 I0.0931 J0.1804
G1 X58.674
G3 X58.877 Y27.94 I0.0 J0.203
G1 Y28.343
G1 Y28.748
G1 Y29.153
G1 Y29.558
G1 Y29.963
G1 Y30.367
G1 Y30.772
G1 Y31.177
G1 Y31.582
G1 Y31.987
G1 Y32.392
G1 Y32.797
G1 Y33.202
G1 Y33.607
G1 Y34.012
G1 Y34.417
G1 Y34.821
G1 Y35.226
G1 Y35.631
G1 Y36.036
G1 Y36.441
G1 Y36.846
G1 Y37.251
G1 Y38.87
G1 Y39.275
G1 Y39.68
G1 Y40.085
G1 Y41.3
G1 Y42.919
G1 Y43.324
G1 Y43.729
G1 Y44.539
G1 Y44.944
G1 Y45.349
G1 Y45.754
G1 Y46.159
G1 Y46.563
G1 Y46.968
G1 Y47.373
G1 Y47.778
G1 Y48.183
G1 Y48.588
G1 Y48.993
G1 Y49.398
G1 Y53.447
G1 Y53.721
G3 X58.674 Y53.924 I-0.203 J0.0
G1 X3.175
G3 X2.972 Y53.721 I0.0 J-0.203
G1 Y53.447
G1 Y49.398
G1 Y48.993
G1 Y48.588
G1 Y48.183
G1 Y44.539
G1 Y44.134
G1 Y43.729
G1 Y43.324
G1 Y42.919
G1 Y39.68
G1 Y39.275
G1 Y38.87
G1 Y36.441
G1 Y36.036
G1 Y35.631
G1 Y35.226
G1 Y34.821
G1 Y33.607
G1 Y33.202
G1 Y32.797
G1 Y32.392
G1 Y31.987
G1 Y31.582
G1 Y31.177
G1 Y30.772
G1 Y30.367
G1 Y29.963
G1 Y29.558
G1 Y29.153
G1 Y28.748
G1 Y28.343
G1 Y27.94
G3 X3.175 Y27.737 I0.203 J0.0
G1 X3.632
G3 X3.835 Y27.94 I0.0 J0.203
G1 Y28.343
G1 Y28.748
G1 Y29.153
G1 Y29.558
G1 Y29.963
G1 Y30.367
G1 Y30.772
G1 Y31.177
G1 Y31.582
G1 Y31.987
G1 Y32.392
G1 Y32.797
G1 Y33.202
G1 Y33.607
G1 Y33.7765
G1 X3.928 Y33.9999
G1 X4.1285 Y34.2005
G1 X4.6055 Y34.6775
G1 X5.0105 Y35.0825
G1 X5.4155 Y35.4875
G1 X5.8205 Y35.8925
G1 X6.2255 Y36.2975
G1 X8.6545 Y38.7265
G1 X9.0595 Y39.1315
G1 X9.4645 Y39.5365
G1 X9.8151 Y39.887
G1 X10.0386 Y39.98
G1 X17.9015
G1 X18.1249 Y39.887
G1 X18.3255 Y39.6864
G1 X18.4734 Y39.5386
G3 X18.4776 Y39.5343 I0.1456 J0.1414
G1 X18.8764 Y39.1356
G3 X18.8846 Y39.1274 I0.1476 J0.1394
G1 X19.2802 Y38.7319
G3 X19.291 Y38.7211 I0.1488 J0.1381
G1 X21.7047 Y36.3079
G3 X21.725 Y36.2877 I0.1533 J0.1331
G1 X22.1091 Y35.9036
G3 X22.1306 Y35.8821 I0.1539 J0.1324
G1 X22.5136 Y35.4992
G3 X22.5362 Y35.4766 I0.1544 J0.1318
G1 X22.9181 Y35.0947
G3 X22.9418 Y35.0711 I0.1549 J0.1313
G1 X23.0535 Y34.9594
G3 X23.197 Y34.9 I0.1435 J0.1436
G1 X40.1265
G1 X40.3499 Y34.807
G1 X40.4795 Y34.6774
G1 X40.5505 Y34.6064
G1 X42.7535 Y32.4044
G3 X42.9736 Y32.36 I0.1435 J0.1436
G1 X43.3875
G1 X43.7699 Y32.201
G1 X44.063 Y31.9079
G1 X44.222 Y31.5255
G1 Y31.177
G1 Y30.772
G1 Y30.367
G1 Y29.963
G1 Y29.558
G1 Y29.4345
G1 X44.063 Y29.0521
G1 X43.9025 Y28.8915
G1 X43.7699 Y28.759
G1 X43.3875 Y28.6
G1 X42.9725
G1 X42.5901 Y28.759
G1 X42.4575 Y28.8915
G1 X42.297 Y29.0521
G1 X42.138 Y29.4345
G1 Y29.558
G1 Y29.963
G1 Y30.367
G1 Y30.772
G1 Y31.177
G1 Y31.21
G3 X42.08 Y31.3521 I-0.203 J0.0
G1 X42.03 Y31.4031
G3 X41.682 Y31.261 I-0.145 J-0.1421
G1 Y31.177
G1 Y30.772
G1 Y30.367
G1 Y29.963
G1 Y29.558
G1 Y29.4345
G1 X41.523 Y29.0521
G1 X41.3625 Y28.8915
G1 X41.2299 Y28.759
G1 X40.8475 Y28.6
G1 X40.4325
G1 X40.0501 Y28.759
G1 X39.9175 Y28.8915
G1 X39.757 Y29.0521
G1 X39.598 Y29.4345
G1 Y29.558
G1 Y29.963
G1 Y30.367
G1 Y30.772
G1 Y31.177
G1 Y31.21
G3 X39.54 Y31.3521 I-0.203 J0.0
G1 X39.49 Y31.4031
G3 X39.142 Y31.261 I-0.145 J-0.1421
G1 Y31.177
G1 Y30.772
G1 Y30.367
G1 Y29.963
G1 Y29.558
G1 Y29.4345
G1 X38.983 Y29.0521
G1 X38.8225 Y28.8915
G1 X38.6899 Y28.759
G1 X38.3075 Y28.6
G1 X37.8925
G1 X37.5101 Y28.759
G1 X37.3775 Y28.8915
G1 X37.217 Y29.0521
G1 X37.058 Y29.4345
G1 Y29.558
G1 Y29.963
G1 Y30.367
G1 Y30.772
G1 Y31.177
G1 Y31.5255
G1 X37.217 Y31.9079
G1 X37.3725 Y32.0635
G3 X37.229 Y32.41 I-0.1435 J0.1435
G1 X36.431
G3 X36.2875 Y32.0635 I0.0 J-0.203
G1 X36.443 Y31.9079
G1 X36.602 Y31.5255
G1 Y31.177
G1 Y30.772
G1 Y30.367
G1 Y29.963
G1 Y29.558
G1 Y29.4345
G1 X36.443 Y29.0521
G1 X36.2825 Y28.8915
G1 X36.1499 Y28.759
G1 X35.7675 Y28.6
G1 X35.3525
G1 X34.9701 Y28.759
G1 X34.8375 Y28.8915
G1 X34.677 Y29.0521
G1 X34.518 Y29.4345
G1 Y29.558
G1 Y29.963
G1 Y30.367
G1 Y30.772
G1 Y31.177
G1 Y31.5255
G1 X34.677 Y31.9079
G1 X34.8325 Y32.0635
G3 X34.689 Y32.41 I-0.1435 J0.1435
G1 X33.891
G3 X33.7475 Y32.0635 I0.0 J-0.203
G1 X33.903 Y31.9079
G1 X34.062 Y31.5255
G1 Y31.177
G1 Y30.772
G1 Y30.367
G1 Y29.963
G1 Y29.558
G1 Y29.4345
G1 X33.903 Y29.0521
G1 X33.7425 Y28.8915
G1 X33.6099 Y28.759
G1 X33.2275 Y28.6
G1 X32.8125
G1 X32.4301 Y28.759
G1 X32.2975 Y28.8915
G1 X32.137 Y29.0521
G1 X31.978 Y29.4345
G1 Y29.558
G1 Y29.963
G1 Y30.367
G1 Y30.772
G1 Y31.177
G1 Y31.5255
G1 X32.137 Y31.9079
G1 X32.2925 Y32.0635
G3 X32.149 Y32.41 I-0.1435 J0.1435
G1 X31.351
G3 X31.2075 Y32.0635 I0.0 J-0.203
G1 X31.363 Y31.9079
G1 X31.522 Y31.5255
G1 Y31.177
G1 Y30.772
G1 Y30.367
G1 Y29.963
G1 Y29.558
G1 Y29.4345
G1 X31.363 Y29.0521
G1 X31.2025 Y28.8915
G1 X31.0699 Y28.759
G1 X30.6875 Y28.6
G1 X30.2725
G1 X29.8901 Y28.759
G1 X29.7575 Y28.8915
G1 X29.597 Y29.0521
G1 X29.438 Y29.4345
G1 Y29.558
G1 Y29.963
G1 Y30.367
G1 Y30.772
G1 Y31.177
G1 Y31.5255
G1 X29.597 Y31.9079
G1 X29.7525 Y32.0635
G3 X29.609 Y32.41 I-0.1435 J0.1435
G1 X28.811
G3 X28.6675 Y32.0635 I0.0 J-0.203
G1 X28.823 Y31.9079
G1 X28.982 Y31.5255
G1 Y31.177
G1 Y30.772
G1 Y30.367
G1 Y29.963
G1 Y29.558
G1 Y29.4345
G1 X28.8229 Y29.0519
G1 X28.6731 Y28.9014
G3 X28.652 Y28.8803 I0.1329 J-0.1534
G1 X28.6092 Y28.8372
G3 X28.55 Y28.694 I0.1438 J-0.1432
G1 Y28.343
G1 Y28.277
G3 X28.6092 Y28.1337 I0.203 J0.0
G1 X28.9452 Y27.7967
G3 X29.089 Y27.737 I0.1438 J0.1433
G1 X47.746
G3 X47.8895 Y27.7965 I0.0 J0.203
G1 X48.2925 Y28.1995
G1 X48.3465 Y28.2535
G3 X48.203 Y28.6 I-0.1435 J0.1435
G1 X48.0525
G1 X47.6701 Y28.759
G1 X47.5375 Y28.8915
G1 X47.377 Y29.0521
G1 X47.218 Y29.4345
G1 Y29.558
G1 Y29.963
G1 Y30.367
G1 Y30.772
G1 Y31.177
G1 Y31.5255
G1 X47.3771 Y31.9081
G1 X47.5908 Y32.1228
G3 X47.65 Y32.266 I-0.1438 J0.1432
G1 Y32.392
G1 Y32.797
G1 Y33.202
G1 Y33.607
G1 Y34.012
G1 Y34.417
G1 Y34.821
G1 Y35.226
G1 Y35.631
G1 Y36.036
G1 Y36.441
G1 Y36.846
G1 Y37.251
G1 Y37.656
G1 Y38.061
G1 Y38.466
G1 Y38.87
G1 Y39.275
G1 Y40.49
G1 Y40.583
G3 X47.3034 Y40.7265 I-0.203 J0.0
G1 X47.2142 Y40.6372
G3 X47.2066 Y40.6296 I0.1398 J-0.1472
G1 X46.3894 Y39.8115
G3 X46.33 Y39.668 I0.1436 J-0.1435
G1 Y39.275
G1 Y38.87
G1 Y38.466
G1 Y38.061
G1 Y37.656
G1 Y37.251
G1 Y36.846
G1 Y36.441
G1 Y36.036
G1 Y35.631
G1 Y35.226
G1 Y34.821
G1 Y34.417
G1 Y34.012
G1 Y33.607
G1 Y33.202
G1 Y32.797
G1 Y32.392
G1 Y32.266
G3 X46.3892 Y32.1228 I0.203 J0.0
G1 X46.6029 Y31.9081
G1 X46.762 Y31.5255
G1 Y31.177
G1 Y30.772
G1 Y30.367
G1 Y29.963
G1 Y29.558
G1 Y29.4345
G1 X46.603 Y29.0521
G1 X46.4425 Y28.8915
G1 X46.3099 Y28.759
G1 X45.9275 Y28.6
G1 X45.5125
G1 X45.1301 Y28.759
G1 X44.9975 Y28.8915
G1 X44.837 Y29.0521
G1 X44.678 Y29.4345
G1 Y29.558
G1 Y29.963
G1 Y30.367
G1 Y30.772
G1 Y31.177
G1 Y31.5255
G1 X44.8371 Y31.9081
G1 X45.0508 Y32.1228
G3 X45.11 Y32.266 I-0.1438 J0.1432
G1 Y34.821
G1 Y35.226
G1 Y35.631
G1 Y36.036
G1 Y36.441
G1 Y38.87
G1 Y39.275
G1 Y39.68
G1 Y40.1265
G1 X45.203 Y40.3499
G1 X47.6285 Y42.7755
G1 X48.0335 Y43.1805
G1 X48.4385 Y43.5855
G1 X48.8435 Y43.9905
G1 X49.2485 Y44.3955
G1 X51.5245 Y46.6715
G1 X51.7249 Y46.8718
G1 X51.9175 Y46.9514
G3 X52.0285 Y47.0636 I-0.0775 J0.1876
G1 X52.039 Y47.0898
G1 X52.1698 Y47.2203
G3 X52.1883 Y47.2388 I-0.1338 J0.1527
G1 X52.403 Y47.4529
G1 X52.7241 Y47.5864
G3 X52.7455 Y47.5953 I-0.0671 J0.1916
G1 X52.8795 Y47.651
G1 X55.5785
G1 X55.7125 Y47.5953
G3 X55.7339 Y47.5864 I0.0885 J0.1827
G1 X56.055 Y47.4529
G1 X56.2697 Y47.2388
G3 X56.2882 Y47.2203 I0.1523 J0.1342
G1 X56.4199 Y47.0889
G1 X56.496 Y46.9051
G3 X56.508 Y46.8761 I0.193 J0.0629
G1 X56.617 Y46.6127
G1 Y46.563
G1 Y46.159
G1 Y46.0973
G1 X56.5128 Y45.8455
G3 X56.5011 Y45.8173 I0.1812 J-0.0915
G1 X56.4199 Y45.621
G1 X56.3029 Y45.504
G3 X56.279 Y45.4801 I0.1311 J-0.155
G1 X56.0275 Y45.2285
G3 Y44.9415 I0.1435 J-0.1435
G1 X56.1685 Y44.8005
G1 X56.4199 Y44.549
G1 X56.4497 Y44.4769
G3 X56.4623 Y44.4464 I0.1933 J0.0621
G1 X56.617 Y44.0727
G1 Y43.729
G1 Y43.5573
G1 X56.5553 Y43.4082
G3 X56.5498 Y43.3949 I0.1847 J-0.0842
G1 X56.4199 Y43.081
G1 X56.4015 Y43.0625
G1 X56.0435 Y42.7045
G3 X56.0681 Y42.3964 I0.1435 J-0.1435
G1 X56.1987 Y42.3021
G1 X56.348 Y42.152
G1 X56.4725 Y41.9805
G1 X56.5689 Y41.7921
G1 X56.6341 Y41.5903
G1 X56.644 Y41.529
G1 X56.3831
G3 X55.321 Y42.367 I-1.062 J-0.254
G1 X53.137
G3 X52.075 Y41.529 I0.0 J-1.092
G1 X51.814
G1 X51.8239 Y41.5903
G1 X51.8891 Y41.7921
G1 X51.9855 Y41.9805
G1 X52.11 Y42.152
G1 X52.2593 Y42.3021
G1 X52.3899 Y42.3964
G3 X52.4145 Y42.7045 I-0.1189 J0.1646
G1 X52.0565 Y43.0625
G1 X52.0379 Y43.0812
G3 X51.851 Y43.205 I-0.1869 J-0.0792
G1 X51.772
G3 X51.6285 Y43.1455 I0.0 J-0.203
G1 X51.5455 Y43.0625
G1 X51.1529 Y42.67
G3 X51.129 Y42.6461 I0.1311 J-0.155
G1 X50.7479 Y42.265
G3 X50.724 Y42.2411 I0.1311 J-0.155
G1 X50.3429 Y41.86
G3 X50.319 Y41.8361 I0.1311 J-0.155
G1 X49.9379 Y41.455
G3 X49.914 Y41.4311 I0.1311 J-0.155
G1 X49.5329 Y41.05
G3 X49.509 Y41.0261 I0.1311 J-0.155
G1 X49.1279 Y40.645
G3 X49.104 Y40.6211 I0.1311 J-0.155
G1 X48.9295 Y40.4465
G3 X48.87 Y40.303 I0.1435 J-0.1435
G1 Y40.085
G1 Y39.68
G1 Y39.275
G1 Y38.87
G1 Y37.251
G1 Y36.846
G1 Y36.441
G1 Y36.036
G1 Y35.631
G1 Y35.226
G1 Y34.821
G1 Y34.417
G1 Y34.012
G1 Y33.607
G1 Y33.202
G1 Y32.797
G1 Y32.392
G1 Y32.266
G3 X48.9292 Y32.1228 I0.203 J0.0
G1 X49.1429 Y31.9081
G1 X49.1646 Y31.8561
G3 X49.555 Y31.934 I0.1874 J0.0779
G1 Y32.392
G1 Y32.797
G1 Y33.202
G1 Y33.607
G1 Y34.012
G1 Y34.417
G1 Y34.821
G1 Y35.226
G1 Y35.631
G1 Y36.036
G1 Y36.441
G1 Y36.846
G1 Y36.9515
G1 X49.6437 Y37.1646
G3 X49.6483 Y37.1753 I-0.1837 J0.0864
G1 X51.1995 Y38.7265
G1 X51.5245 Y39.0515
G1 X51.6045 Y39.1315
G1 X51.7249 Y39.2518
G1 X51.9175 Y39.3314
G3 X52.0285 Y39.4436 I-0.0775 J0.1876
G1 X52.039 Y39.4699
G1 X52.0941 Y39.525
G3 X52.118 Y39.5489 I-0.1311 J0.155
G1 X52.4145 Y39.8455
G3 X52.3899 Y40.1536 I-0.1435 J0.1435
G1 X52.2695 Y40.2405
G3 X52.2569 Y40.2502 I-0.1305 J-0.1555
G1 X52.11 Y40.398
G1 X51.9855 Y40.5695
G1 X51.8891 Y40.7579
G1 X51.8239 Y40.9597
G1 X51.814 Y41.021
G1 X52.075
G3 X53.137 Y40.183 I1.062 J0.254
G1 X55.321
G3 X56.3831 Y41.021 I0.0 J1.092
G1 X56.644
G1 X56.6341 Y40.9597
G1 X56.5689 Y40.7579
G1 X56.4725 Y40.5695
G1 X56.348 Y40.398
G1 X56.2011 Y40.2502
G3 X56.1885 Y40.2405 I0.1179 J-0.1652
G1 X56.0681 Y40.1536
G3 X56.0435 Y39.8455 I0.1189 J-0.1646
G1 X56.34 Y39.5489
G3 X56.3639 Y39.525 I0.155 J0.1311
G1 X56.4199 Y39.469
G1 X56.5253 Y39.2143
G3 X56.539 Y39.1811 I0.1937 J0.0607
G1 X56.617 Y38.9927
G1 Y38.945
G3 X56.6764 Y38.8015 I0.203 J0.0
G1 X56.7394 Y38.7384
G3 X56.7622 Y38.7156 I0.1546 J0.1316
G1 X57.4664 Y38.0105
G3 X57.4665 I0.1437 J0.1435
G1 X57.667 Y37.8099
G1 X57.76 Y37.5865
G1 Y37.251
G1 Y36.846
G1 Y36.441
G1 Y36.036
G1 Y35.631
G1 Y35.226
G1 Y34.821
G1 Y34.417
G1 Y34.012
G1 Y33.607
G1 Y33.202
G1 Y32.797
G1 Y32.392
G1 Y31.987
G1 Y31.582
G1 Y31.177
G1 Y30.772
G1 Y30.367
G1 Y29.963
G1 Y29.558
G1 Y29.153
G1 Y28.748
G1 Y28.343
G1 Y27.94
G3 X57.8699 Y27.7596 I0.203 J0.0
G0 Z3.0
G0 X20.2988 Y45.5199
G0 Z1.25
G1 F50.0 Z-0.15
G1 F150.0 X20.424 Y45.8227
G2 X20.4312 Y45.8402 I0.191 J-0.0687
G1 X20.523 Y46.0623
G1 Y46.6477
G1 X20.4265 Y46.8811
G2 X20.4187 Y46.9 I0.1835 J0.0869
G1 X20.2988 Y47.1901
G1 X20.2709 Y47.218
G2 X20.247 Y47.2419 I0.1311 J0.155
G1 X19.8851 Y47.6038
G1 X19.3427 Y47.828
G1 X18.7573
G1 X18.2149 Y47.6038
G1 X17.853 Y47.2419
G2 X17.8291 Y47.218 I-0.155 J0.1311
G1 X17.8012 Y47.1901
G1 X17.6813 Y46.9
G2 X17.6735 Y46.8811 I-0.1913 J0.068
G1 X17.577 Y46.6477
G1 Y46.0623
G1 X17.6688 Y45.8402
G2 X17.676 Y45.8227 I-0.1838 J-0.0862
G1 X17.8012 Y45.5199
G1 X18.2149 Y45.1062
G1 X18.7573 Y44.882
G1 X19.3427
G1 X19.8851 Y45.1062
G1 X20.2988 Y45.5199
G0 Z3.0
G0 X20.1057 Y45.6491
G0 Z1.25
G1 F50.0 Z-0.15
G3 F150.0 X20.32 Y46.355 I-1.0557 J0.7059
G3 X18.415 Y47.4549 I-1.27 J0.0
G3 Y45.2551 I0.635 J-1.0999
G3 X20.1057 Y45.6491 I0.635 J1.0999
G0 Z3.0
G0 X16.078 Y46.0623
G0 Z1.25
G1 F50.0 Z-0.15
G1 F150.0 Y46.6477
G1 X15.9815 Y46.8811
G2 X15.9737 Y46.9 I0.1835 J0.0869
G1 X15.8538 Y47.1901
G1 X15.8259 Y47.218
G2 X15.802 Y47.2419 I0.1311 J0.155
G1 X15.4401 Y47.6038
G1 X14.8977 Y47.828
G1 X14.3123
G1 X13.7699 Y47.6038
G1 X13.408 Y47.2419
G2 X13.3841 Y47.218 I-0.155 J0.1311
G1 X13.3562 Y47.1901
G1 X13.2363 Y46.9
G2 X13.2285 Y46.8811 I-0.1913 J0.068
G1 X13.132 Y46.6477
G1 Y46.0623
G1 X13.2238 Y45.8402
G2 X13.231 Y45.8227 I-0.1838 J-0.0862
G1 X13.3562 Y45.5199
G1 X13.7699 Y45.1062
G1 X14.3123 Y44.882
G1 X14.8977
G1 X15.4401 Y45.1062
G1 X15.8538 Y45.5199
G1 X15.979 Y45.8227
G2 X15.9862 Y45.8402 I0.191 J-0.0687
G1 X16.078 Y46.0623
G0 Z3.0
G0 X15.8506 Y46.1075
G0 Z1.25
G1 F50.0 Z-0.15
G3 F150.0 X15.875 Y46.355 I-1.2456 J0.2475
G3 X13.97 Y47.4549 I-1.27 J0.0
G3 Y45.2551 I0.635 J-1.0999
G3 X15.8506 Y46.1075 I0.635 J1.0999
G0 Z3.0
G0 X14.9033 Y49.9366
G0 Z1.25
G1 F50.0 Z-0.15
G1 F150.0 X15.0954 Y49.9885
G1 X15.2811 Y50.0655
G1 X15.4538 Y50.1651
G1 X15.6117 Y50.2868
G1 X15.7532 Y50.4283
G1 X15.8749 Y50.5862
G1 X15.9745 Y50.7589
G1 X16.0515 Y50.9446
G1 X16.0823 Y51.0587
G2 X16.0884 Y51.0812 I0.1987 J-0.0417
G1 X16.1034 Y51.1367
G1 X16.1157 Y51.232
G1 X15.8587
G2 X14.808 Y50.1813 I-1.2537 J0.203
G1 Y49.9243
G1 X14.9033 Y49.9366
G0 Z3.0
G0 X14.402
G0 Z1.25
G1 F50.0 Z-0.15
G1 F150.0 Y50.1813
G2 X13.97 Y50.3351 I0.203 J1.2537
G2 X13.3513 Y51.232 I0.635 J1.0999
G1 X13.0943
G1 X13.1066 Y51.1367
G1 X13.1216 Y51.0812
G2 X13.1277 Y51.0587 I-0.1926 J-0.0642
G1 X13.1585 Y50.9446
G1 X13.2355 Y50.7589
G1 X13.3351 Y50.5862
G1 X13.4568 Y50.4283
G1 X13.5335 Y50.3515
G1 X13.5983 Y50.2868
G1 X13.7562 Y50.1651
G1 X13.9289 Y50.0655
G1 X14.1146 Y49.9885
G1 X14.3067 Y49.9366
G1 X14.402 Y49.9243
G1 Y49.9366
G0 Z3.0
G0 X13.3513 Y51.638
G0 Z1.25
G1 F50.0 Z-0.15
G2 F150.0 X13.97 Y52.5349 I1.2537 J-0.203
G2 X14.402 Y52.6887 I0.635 J-1.0999
G1 Y52.9457
G1 X14.3067 Y52.9334
G1 X14.1146 Y52.8815
G1 X13.9289 Y52.8045
G1 X13.7562 Y52.7049
G1 X13.5983 Y52.5832
G1 X13.4568 Y52.4417
G1 X13.3351 Y52.2838
G1 X13.2501 Y52.1365
G2 X13.2434 Y52.1249 I-0.1791 J0.0955
G1 X13.2355 Y52.1111
G1 X13.1585 Y51.9254
G1 X13.1208 Y51.7859
G2 X13.1144 Y51.7622 I-0.1988 J0.0411
G1 X13.1066 Y51.7333
G1 X13.0943 Y51.638
G1 X13.3513
G0 Z3.0
G0 X14.808 Y52.6887
G0 Z1.25
G1 F50.0 Z-0.15
G2 F150.0 X15.8587 Y51.638 I-0.203 J-1.2537
G1 X16.1157
G1 X16.1034 Y51.7333
G1 X16.0956 Y51.7622
G2 X16.0892 Y51.7859 I0.1924 J0.0648
G1 X16.0515 Y51.9254
G1 X15.9745 Y52.1111
G1 X15.9666 Y52.1249
G2 X15.9599 Y52.1365 I0.1724 J0.1071
G1 X15.8749 Y52.2838
G1 X15.7532 Y52.4417
G1 X15.6117 Y52.5832
G1 X15.4538 Y52.7049
G1 X15.2811 Y52.8045
G1 X15.0954 Y52.8815
G1 X14.9033 Y52.9334
G1 X14.808 Y52.9457
G1 Y52.6887
G0 Z3.0
G0 X17.6035 Y51.9254
G0 Z1.25
G1 F50.0 Z-0.15
G1 F150.0 X17.5658 Y51.7859
G2 X17.5594 Y51.7622 I-0.1988 J0.0411
G1 X17.5516 Y51.7333
G1 X17.5393 Y51.638
G1 X17.7963
G2 X18.415 Y52.5349 I1.2537 J-0.203
G2 X18.847 Y52.6887 I0.635 J-1.0999
G1 Y52.9457
G1 X18.7517 Y52.9334
G1 X18.5596 Y52.8815
G1 X18.3739 Y52.8045
G1 X18.2012 Y52.7049
G1 X18.0433 Y52.5832
G1 X17.9018 Y52.4417
G1 X17.7801 Y52.2838
G1 X17.6951 Y52.1365
G2 X17.6884 Y52.1249 I-0.1791 J0.0955
G1 X17.6805 Y52.1111
G1 X17.6035 Y51.9254
G0 Z3.0
G0 Y51.232
G0 Z1.25
G1 F50.0 Z-0.15
G1 F150.0 X17.5393
G1 X17.5516 Y51.1367
G1 X17.5666 Y51.0812
G2 X17.5727 Y51.0587 I-0.1926 J-0.0642
G1 X17.6035 Y50.9446
G1 X17.6805 Y50.7589
G1 X17.7801 Y50.5862
G1 X17.9018 Y50.4283
G1 X17.9785 Y50.3515
G1 X18.0433 Y50.2868
G1 X18.2012 Y50.1651
G1 X18.3739 Y50.0655
G1 X18.5596 Y49.9885
G1 X18.7517 Y49.9366
G1 X18.847 Y49.9243
G1 Y50.1813
G2 X18.415 Y50.3351 I0.203 J1.2537
G2 X17.7963 Y51.232 I0.635 J1.0999
G1 X17.6035
G0 Z3.0
G0 X19.253 Y50.1813
G0 Z1.25
G1 F50.0 Z-0.15
G1 F150.0 Y49.9243
G1 X19.3483 Y49.9366
G1 X19.5404 Y49.9885
G1 X19.7261 Y50.0655
G1 X19.8988 Y50.1651
G1 X20.0567 Y50.2868
G1 X20.1982 Y50.4283
G1 X20.3199 Y50.5862
G1 X20.4195 Y50.7589
G1 X20.4965 Y50.9446
G1 X20.5273 Y51.0587
G2 X20.5334 Y51.0812 I0.1987 J-0.0417
G1 X20.5484 Y51.1367
G1 X20.5607 Y51.232
G1 X20.3037
G2 X19.253 Y50.1813 I-1.2537 J0.203
G0 Z3.0
G0 X20.3037 Y51.638
G0 Z1.25
G1 F50.0 Z-0.15
G1 F150.0 X20.5607
G1 X20.5484 Y51.7333
G1 X20.5406 Y51.7622
G2 X20.5342 Y51.7859 I0.1924 J0.0648
G1 X20.4965 Y51.9254
G1 X20.4195 Y52.1111
G1 X20.4116 Y52.1249
G2 X20.4049 Y52.1365 I0.1724 J0.1071
G1 X20.3199 Y52.2838
G1 X20.1982 Y52.4417
G1 X20.0567 Y52.5832
G1 X19.8988 Y52.7049
G1 X19.7261 Y52.8045
G1 X19.5404 Y52.8815
G1 X19.3483 Y52.9334
G1 X19.253 Y52.9457
G1 Y52.6887
G2 X20.3037 Y51.638 I-0.203 J-1.2537
G0 Z3.0
G0 X17.8619 Y39.7682
G0 Z1.25
G1 F50.0 Z-0.15
G3 F150.0 X17.78 Y39.7765 I-0.0819 J-0.3982
G1 X10.16
G3 X9.8726 Y39.6574 I0.0 J-0.4065
G1 X4.1576 Y33.9424
G3 X4.0385 Y33.655 I0.2874 J-0.2874
G1 Y26.6032
G3 X3.81 Y26.4999 I0.4065 J-1.2032
G3 Y24.3001 I0.635 J-1.0999
G3 X5.715 Y25.4 I0.635 J1.0999
G3 X4.8515 Y26.6032 I-1.27 J0.0
G1 Y33.4866
G1 X10.3284 Y38.9635
G1 X17.6116
G1 X22.5726 Y34.0026
G3 X22.86 Y33.8835 I0.2874 J0.2874
G1 X39.8366
G1 X42.344 Y31.3761
G3 X42.342 Y31.318 I0.836 J-0.0581
G1 Y29.642
G3 X44.018 I0.838 J0.0
G1 Y31.318
G3 X42.8033 Y32.0666 I-0.838 J0.0
G1 X40.2924 Y34.5774
G3 X40.005 Y34.6965 I-0.2874 J-0.2874
G1 X23.0284
G1 X18.0674 Y39.6574
G3 X17.8619 Y39.7682 I-0.2874 J-0.2874
G0 Z3.0
G0 X17.7999 Y38.506
G0 Z1.25
G1 F50.0 Z-0.15
G3 F150.0 X17.78 Y38.5065 I-0.0199 J-0.406
G1 X10.16
G3 X9.8726 Y38.3874 I0.0 J-0.4065
G1 X7.9676 Y36.4824
G3 X7.8485 Y36.195 I0.2874 J-0.2874
G1 Y26.6032
G3 X7.62 Y26.4999 I0.4065 J-1.2032
G3 Y24.3001 I0.635 J-1.0999
G3 X9.525 Y25.4 I0.635 J1.0999
G3 X8.6615 Y26.6032 I-1.27 J0.0
G1 Y36.0266
G1 X10.3284 Y37.6935
G1 X17.6116
G1 X22.5726 Y32.7326
G3 X22.86 Y32.6135 I0.2874 J0.2874
G1 X38.5666
G1 X39.804 Y31.3761
G3 X39.802 Y31.318 I0.836 J-0.0581
G1 Y29.642
G3 X41.478 I0.838 J0.0
G1 Y31.318
G3 X40.2633 Y32.0666 I-0.838 J0.0
G1 X39.0224 Y33.3074
G3 X38.735 Y33.4265 I-0.2874 J-0.2874
G1 X23.0284
G1 X18.0674 Y38.3874
G3 X17.7999 Y38.506 I-0.2874 J-0.2874
G0 Z3.0
G0 X16.7115 Y37.4176
G0 Z1.25
G1 F50.0 Z-0.15
G1 F150.0 X16.6641 Y37.465
G1 X15.0859
G1 X13.97 Y36.3491
G1 Y34.7709
G1 X15.0859 Y33.655
G1 X16.6641
G1 X17.78 Y34.7709
G1 Y35.1535
G1 X18.2466
G1 X22.024 Y31.3761
G3 X22.022 Y31.318 I0.836 J-0.0581
G1 Y29.642
G3 X23.698 I0.838 J0.0
G1 Y31.318
G3 X22.4833 Y32.0666 I-0.838 J0.0
G1 X18.7024 Y35.8474
G3 X18.415 Y35.9665 I-0.2874 J-0.2874
G1 X17.78
G1 Y36.3491
G1 X16.7115 Y37.4176
G0 Z3.0
G0 X18.0908 Y34.8183
G0 Z1.25
G1 F50.0 Z-0.15
G3 F150.0 X17.9909 Y34.6949 I0.0952 J-0.1793
G1 X17.8565 Y34.5605
G1 X17.4515 Y34.1555
G1 X16.7401 Y33.4441
G3 X16.6525 Y33.1055 I0.0559 J-0.1951
G1 X16.6995 Y33.0585
G1 X17.1045 Y32.6535
G1 X17.3535 Y32.4045
G3 X17.5736 Y32.36 I0.1435 J0.1435
G1 X17.9875
G1 X18.3699 Y32.201
G1 X18.663 Y31.9079
G1 X18.822 Y31.5255
G1 Y31.177
G1 Y30.772
G1 Y30.367
G1 Y29.963
G1 Y29.558
G1 Y29.4345
G1 X18.663 Y29.0521
G1 X18.5025 Y28.8915
G1 X18.3699 Y28.759
G1 X17.9875 Y28.6
G1 X17.5725
G1 X17.1901 Y28.759
G1 X17.0575 Y28.8915
G1 X16.897 Y29.0521
G1 X16.738 Y29.4345
G1 Y29.558
G1 Y29.963
G1 Y30.367
G1 Y30.772
G1 Y31.177
G1 Y31.21
G3 X16.68 Y31.3521 I-0.203 J0.0
G1 X16.63 Y31.4031
G3 X16.282 Y31.261 I-0.145 J-0.1421
G1 Y31.177
G1 Y30.772
G1 Y30.367
G1 Y29.963
G1 Y29.558
G1 Y29.4345
G1 X16.123 Y29.0521
G1 X15.9625 Y28.8915
G1 X15.8299 Y28.759
G1 X15.4475 Y28.6
G1 X15.0325
G1 X14.6501 Y28.759
G1 X14.357 Y29.0521
G1 X14.198 Y29.4345
G1 Y29.667
G3 X13.995 Y29.87 I-0.203 J0.0
G1 X13.741
G3 X13.538 Y29.667 I0.0 J-0.203
G1 Y29.6071
G1 X12.3029 Y28.372
G1 X10.5571
G1 X9.322 Y29.6071
G1 Y29.963
G1 Y30.367
G1 Y30.772
G1 Y31.177
G1 Y31.3529
G1 X10.5571 Y32.588
G1 X12.3029
G1 X13.538 Y31.3529
G1 Y31.293
G3 X13.741 Y31.09 I0.203 J0.0
G1 X13.995
G3 X14.198 Y31.293 I0.0 J0.203
G1 Y31.5255
G1 X14.357 Y31.9079
G1 X14.5125 Y32.0635
G3 X14.369 Y32.41 I-0.1435 J0.1435
G1 X13.8486
G1 X13.6251 Y32.503
G1 X13.1875 Y32.9405
G1 X12.7825 Y33.3455
G1 X12.6335 Y33.4945
G3 X12.3472 Y33.4952 I-0.1435 J-0.1435
G1 X12.3035 Y33.452
G1 X10.5571
G1 X9.8535 Y34.1555
G1 X9.4485 Y34.5605
G1 X9.322 Y34.6871
G1 Y34.821
G1 Y35.226
G1 Y35.631
G1 Y35.909
G3 X8.9755 Y36.0525 I-0.203 J0.0
G1 X8.9245 Y36.0015
G3 X8.865 Y35.858 I0.1435 J-0.1435
G1 Y35.631
G1 Y35.226
G1 Y34.821
G1 Y34.417
G1 Y34.012
G1 Y33.202
G1 Y32.797
G1 Y31.177
G1 Y30.772
G1 Y30.367
G1 Y29.963
G1 Y27.94
G3 X9.068 Y27.737 I0.203 J0.0
G1 X26.791
G3 X26.9348 Y27.7967 I0.0 J0.203
G1 X27.2708 Y28.1337
G3 X27.33 Y28.277 I-0.1438 J0.1433
G1 Y28.694
G3 X27.2708 Y28.8372 I-0.203 J0.0
G1 X27.228 Y28.8803
G3 X27.2069 Y28.9014 I-0.154 J-0.1323
G1 X27.0571 Y29.0519
G1 X26.898 Y29.4345
G1 Y29.54
G1 Y29.558
G1 Y29.963
G1 Y30.367
G1 Y30.48
G1 Y30.772
G1 Y31.177
G1 Y31.42
G1 Y31.5255
G1 X27.057 Y31.9079
G1 X27.2125 Y32.0635
G3 X27.069 Y32.41 I-0.1435 J0.1435
G1 X26.343
G3 X26.1995 Y32.0635 I0.0 J-0.203
G1 X26.2332 Y32.0297
G1 X26.3342 Y31.8908
G1 X26.4121 Y31.7368
G1 X26.4659 Y31.5743
G1 X26.4684 Y31.5586
G3 X26.4706 Y31.5439 I0.2016 J0.0234
G1 X26.492 Y31.4045
G1 Y31.177
G1 Y30.772
G1 Y30.683
G1 X26.238
G1 Y31.318
G3 X24.562 I-0.838 J0.0
G1 Y30.683
G1 X24.308
G1 Y30.772
G1 Y31.177
G1 Y31.4045
G1 X24.3294 Y31.5439
G3 X24.3316 Y31.5586 I-0.1994 J0.0381
G1 X24.3341 Y31.5743
G1 X24.388 Y31.7368
G1 X24.4658 Y31.8908
G1 X24.5668 Y32.0297
G1 X24.6005 Y32.0635
G3 X24.457 Y32.41 I-0.1435 J0.1435
G1 X23.731
G3 X23.5875 Y32.0635 I0.0 J-0.203
G1 X23.743 Y31.9079
G1 X23.902 Y31.5255
G1 Y31.42
G1 Y31.177
G1 Y30.772
G1 Y30.48
G1 Y29.54
G1 Y29.4345
G1 X23.743 Y29.0521
G1 X23.4499 Y28.759
G1 X23.0675 Y28.6
G1 X22.6525
G1 X22.2701 Y28.759
G1 X22.1375 Y28.8915
G1 X21.977 Y29.0521
G1 X21.818 Y29.4345
G1 Y29.558
G1 Y29.963
G1 Y30.367
G1 Y30.772
G1 Y31.177
G1 Y31.21
G3 X21.76 Y31.3521 I-0.203 J0.0
G1 X21.71 Y31.4031
G3 X21.362 Y31.261 I-0.145 J-0.1421
G1 Y31.177
G1 Y30.772
G1 Y30.367
G1 Y29.963
G1 Y29.558
G1 Y29.4345
G1 X21.203 Y29.0521
G1 X21.0425 Y28.8915
G1 X20.9099 Y28.759
G1 X20.5275 Y28.6
G1 X20.1125
G1 X19.7301 Y28.759
G1 X19.5975 Y28.8915
G1 X19.437 Y29.0521
G1 X19.278 Y29.4345
G1 Y29.558
G1 Y29.963
G1 Y30.367
G1 Y30.772
G1 Y31.177
G1 Y31.5255
G1 X19.437 Y31.9079
G1 X19.7301 Y32.201
G1 X20.1125 Y32.36
G1 X20.263
G3 X20.4065 Y32.7066 I0.0 J0.203
G1 X20.1765 Y32.9365
G3 X20.1684 Y32.9445 I-0.1475 J-0.1395
G1 X19.774 Y33.3388
G3 X19.7607 Y33.3521 I-0.15 J-0.1368
G1 X19.3708 Y33.7418
G3 X19.3538 Y33.7588 I-0.1518 J-0.1348
G1 X18.9672 Y34.1452
G3 X18.9472 Y34.1652 I-0.1532 J-0.1332
G1 X18.5634 Y34.5488
G3 X18.5407 Y34.5714 I-0.1544 J-0.1318
G1 X18.3295 Y34.7826
G3 X18.0908 Y34.8183 I-0.1435 J-0.1436
G0 Z3.0
G0 X26.238 Y30.277
G0 Z1.25
G1 F50.0 Z-0.15
G1 F150.0 Y29.642
G2 X25.603 Y28.829 I-0.838 J0.0
G1 Y28.5676
G1 X25.6554 Y28.576
G1 X25.819 Y28.6291
G1 X25.9725 Y28.7075
G1 X26.1117 Y28.8088
G1 X26.1945 Y28.8915
G1 X26.2332 Y28.9303
G1 X26.3342 Y29.0692
G1 X26.4121 Y29.2232
G1 X26.4659 Y29.3857
G1 X26.492 Y29.5555
G1 Y29.558
G1 Y29.963
G1 Y30.277
G1 X26.238
G0 Z3.0
G0 X25.197 Y28.5676
G0 Z1.25
G1 F50.0 Z-0.15
G1 F150.0 X25.1446 Y28.576
G1 X24.981 Y28.6291
G1 X24.8275 Y28.7075
G1 X24.6883 Y28.8088
G1 X24.6055 Y28.8915
G1 X24.5668 Y28.9303
G1 X24.4658 Y29.0692
G1 X24.388 Y29.2232
G1 X24.3341 Y29.3857
G1 X24.308 Y29.5555
G0 Z3.0
G0 X21.1578 Y29.6238
G0 Z1.25
G1 F50.0 Z-0.15
G3 F150.0 X21.158 Y29.642 I-0.8378 J0.0182
G1 Y31.318
G3 X19.482 I-0.838 J0.0
G1 Y29.642
G3 X21.1578 Y29.6238 I0.838 J0.0
G0 Z3.0
G0 X18.618 Y29.6375
G0 Z1.25
G1 F50.0 Z-0.15
G3 F150.0 Y29.642 I-0.838 J0.0045
G1 Y31.318
G3 X17.4033 Y32.0666 I-0.838 J0.0
G1 X16.1624 Y33.3074
G3 X15.875 Y33.4265 I-0.2874 J-0.2874
G1 X14.1384
G1 X13.0645 Y34.5004
G1 X13.335 Y34.7709
G1 Y36.3491
G1 X12.2191 Y37.465
G1 X10.6409
G1 X9.525 Y36.3491
G1 Y34.7709
G1 X10.6409 Y33.655
G1 X12.2191
G1 X12.4896 Y33.9255
G1 X13.6826 Y32.7326
G3 X13.97 Y32.6135 I0.2874 J0.2874
G1 X15.7066
G1 X16.944 Y31.3761
G3 X16.942 Y31.318 I0.836 J-0.0581
G1 Y29.642
G3 X18.618 Y29.6375 I0.838 J0.0
G0 Z3.0
G0 X16.078 Y29.6409
G0 Z1.25
G1 F50.0 Z-0.15
G3 F150.0 Y29.642 I-0.838 J0.0011
G1 Y31.318
G3 X14.402 I-0.838 J0.0
G1 Y30.8865
G1 X13.335
G1 Y31.2691
G1 X12.2191 Y32.385
G1 X10.6409
G1 X9.525 Y31.2691
G1 Y29.6909
G1 X10.6409 Y28.575
G1 X12.2191
G1 X13.335 Y29.6909
G1 Y30.0735
G1 X14.402
G1 Y29.642
G3 X16.078 Y29.6409 I0.838 J0.0
G0 Z3.0
G0 X17.5493 Y24.5036
G0 Z1.25
G1 F50.0 Z-0.15
G3 F150.0 X16.942 Y23.698 I0.2307 J-0.8056
G1 Y22.022
G3 X18.618 I0.838 J0.0
G1 Y23.698
G3 X17.5493 Y24.5036 I-0.838 J0.0
G0 Z3.0
G0 X19.5153 Y23.932
G0 Z1.25
G1 F50.0 Z-0.15
G3 F150.0 X19.482 Y23.698 I0.8047 J-0.234
G1 Y22.022
G3 X21.158 I0.838 J0.0
G1 Y23.698
G3 X19.5153 Y23.932 I-0.838 J0.0
G0 Z3.0
G0 X22.024 Y23.7565
G0 Z1.25
G1 F50.0 Z-0.15
G3 F150.0 X22.022 Y23.698 I0.836 J-0.0585
G1 Y22.022
G3 X23.698 I0.838 J0.0
G1 Y23.698
G3 X22.024 Y23.7565 I-0.838 J0.0
G0 Z3.0
G0 X24.5621 Y23.7125
G0 Z1.25
G1 F50.0 Z-0.15
G3 F150.0 X24.562 Y23.698 I0.8379 J-0.0145
G1 Y22.022
G3 X24.9935 Y21.2892 I0.838 J0.0
G1 Y19.6182
G3 X24.765 Y19.5149 I0.4065 J-1.2032
G3 Y17.3151 I0.635 J-1.0999
G3 X24.9935 Y17.2118 I0.635 J1.0999
G1 Y10.795
G1 X24.6109
G1 X23.495 Y9.6791
G1 Y8.1009
G1 X23.7655 Y7.8304
G1 X21.5183 Y5.5832
G3 X20.32 Y5.5449 I-0.5633 J-1.1382
G3 Y3.3451 I0.635 J-1.0999
G3 X22.225 Y4.445 I0.635 J1.0999
G3 X22.0932 Y5.0083 I-1.27 J0.0
G1 X24.2984 Y7.2135
G1 X24.3824
G1 X24.6109 Y6.985
G1 X25.4601
G1 X28.2876 Y4.1576
G3 X28.575 Y4.0385 I0.2874 J0.2874
G1 X34.3568
G3 X34.925 Y3.3451 I1.2032 J0.4065
G3 X36.83 Y4.445 I0.635 J1.0999
G3 X34.925 Y5.5449 I-1.27 J0.0
G3 X34.3568 Y4.8515 I0.635 J-1.0999
G1 X28.7434
G1 X26.3995 Y7.1954
G1 X27.305 Y8.1009
G1 Y9.6791
G1 X26.1891 Y10.795
G1 X25.8065
G1 Y17.2118
G3 X26.67 Y18.415 I-0.4065 J1.2032
G3 X25.8065 Y19.6182 I-1.27 J0.0
G1 Y21.2892
G3 X26.238 Y22.022 I-0.4065 J0.7328
G1 Y23.698
G3 X24.5621 Y23.7125 I-0.838 J0.0
G0 Z3.0
G0 X27.102 Y23.7016
G0 Z1.25
G1 F50.0 Z-0.15
G3 F150.0 Y23.698 I0.838 J-0.0036
G1 Y22.022
G3 X27.5335 Y21.2892 I0.838 J0.0
G1 Y17.145
G3 X27.6526 Y16.8576 I0.4065 J0.0
G1 X28.1685 Y16.3416
G1 Y15.24
G1 X27.7859
G1 X26.67 Y14.1241
G1 Y12.5459
G1 X27.7859 Y11.43
G1 X29.3641
G1 X30.48 Y12.5459
G1 Y14.1241
G1 X29.3641 Y15.24
G1 X28.9815
G1 Y16.51
G3 X28.8624 Y16.7974 I-0.4065 J0.0
G1 X28.3465 Y17.3134
G1 Y21.2892
G3 X28.778 Y22.022 I-0.4065 J0.7328
G1 Y23.698
G3 X27.102 Y23.7016 I-0.838 J0.0
G0 Z3.0
G0 X29.642 Y23.6989
G0 Z1.25
G1 F50.0 Z-0.15
G3 F150.0 Y23.698 I0.838 J-0.0009
G1 Y22.022
G3 X31.318 I0.838 J0.0
G1 Y23.698
G3 X29.642 Y23.6989 I-0.838 J0.0
G0 Z3.0
G0 X32.182 Y23.6982
G0 Z1.25
G1 F50.0 Z-0.15
G3 F150.0 Y23.698 I0.838 J-0.0002
G1 Y22.022
G3 X33.858 I0.838 J0.0
G1 Y23.698
G3 X32.182 Y23.6982 I-0.838 J0.0
G0 Z3.0
G0 X34.722 Y23.6981
G0 Z1.25
G1 F50.0 Z-0.15
G1 F150.0 Y23.698
G1 Y22.022
G3 X36.398 I0.838 J0.0
G1 Y23.698
G3 X34.722 Y23.6981 I-0.838 J0.0
G0 Z3.0
G0 X37.262 Y23.698
G0 Z1.25
G1 F50.0 Z-0.15
G1 F150.0 Y22.022
G3 X37.6935 Y21.2892 I0.838 J0.0
G1 Y21.1234
G1 X34.0026 Y17.4324
G3 X33.8835 Y17.145 I0.2874 J-0.2874
G1 Y14.605
G1 X33.5009
G1 X32.385 Y13.4891
G1 Y11.9109
G1 X33.5009 Y10.795
G1 X35.0791
G1 X36.195 Y11.9109
G1 Y13.4891
G1 X35.0791 Y14.605
G1 X34.6965
G1 Y16.9766
G1 X38.3874 Y20.6676
G3 X38.5065 Y20.955 I-0.2874 J0.2874
G1 Y21.2892
G3 X38.938 Y22.022 I-0.4065 J0.7328
G1 Y23.698
G3 X37.262 I-0.838 J0.0
G0 Z3.0
G0 X39.802
G0 Z1.25
G1 F50.0 Z-0.15
G1 F150.0 Y22.022
G3 X40.2335 Y21.2892 I0.838 J0.0
G1 Y20.32
G3 X40.3526 Y20.0326 I0.4065 J0.0
G1 X40.8685 Y19.5166
G1 Y17.9484
G1 X38.4476 Y15.5274
G3 X38.3285 Y15.24 I0.2874 J-0.2874
G1 Y14.605
G1 X37.9459
G1 X36.83 Y13.4891
G1 Y11.9109
G1 X37.9459 Y10.795
G1 X39.5241
G1 X40.64 Y11.9109
G1 Y13.4891
G1 X39.5241 Y14.605
G1 X39.1415
G1 Y15.0716
G1 X41.5624 Y17.4926
G3 X41.6815 Y17.78 I-0.2874 J0.2874
G1 Y19.685
G3 X41.5624 Y19.9724 I-0.4065 J0.0
G1 X41.0465 Y20.4884
G1 Y21.2892
G3 X41.478 Y22.022 I-0.4065 J0.7328
G1 Y23.698
G3 X39.802 I-0.838 J0.0
G0 Z3.0
G0 X38.3307 Y28.8364
G0 Z1.25
G1 F50.0 Z-0.15
G3 F150.0 X38.938 Y29.642 I-0.2307 J0.8056
G1 Y31.318
G3 X37.262 I-0.838 J0.0
G1 Y29.642
G3 X38.3307 Y28.8364 I0.838 J0.0
G0 Z3.0
G0 X36.3647 Y29.408
G0 Z1.25
G1 F50.0 Z-0.15
G3 F150.0 X36.398 Y29.642 I-0.8047 J0.234
G1 Y31.318
G3 X34.722 I-0.838 J0.0
G1 Y29.642
G3 X36.3647 Y29.408 I0.838 J0.0
G0 Z3.0
G0 X33.856 Y29.5835
G0 Z1.25
G1 F50.0 Z-0.15
G3 F150.0 X33.858 Y29.642 I-0.836 J0.0585
G1 Y31.318
G3 X32.182 I-0.838 J0.0
G1 Y29.642
G3 X33.856 Y29.5835 I0.838 J0.0
G0 Z3.0
G0 X31.3179 Y29.6275
G0 Z1.25
G1 F50.0 Z-0.15
G3 F150.0 X31.318 Y29.642 I-0.8379 J0.0145
G1 Y31.318
G3 X29.642 I-0.838 J0.0
G1 Y29.642
G3 X31.3179 Y29.6275 I0.838 J0.0
G0 Z3.0
G0 X44.882 Y29.6412
G0 Z1.25
G1 F50.0 Z-0.15
G3 F150.0 X46.558 Y29.642 I0.838 J0.0008
G1 Y31.318
G3 X46.1265 Y32.0508 I-0.838 J0.0
G1 Y39.8366
G1 X52.159 Y45.8692
G3 X53.137 Y45.263 I0.978 J0.4858
G1 X55.321
G3 Y47.447 I0.0 J1.092
G1 X53.137
G3 X52.1235 Y46.7615 I0.0 J-1.092
G1 X52.07
G3 X51.7826 Y46.6424 I0.0 J-0.4065
G1 X45.4326 Y40.2924
G3 X45.3135 Y40.005 I0.2874 J-0.2874
G1 Y32.0508
G3 X44.882 Y31.318 I0.4065 J-0.7328
G1 Y29.642
G3 Y29.6412 I0.838 J0.0
G0 Z3.0
G0 X47.422 Y29.6418
G0 Z1.25
G1 F50.0 Z-0.15
G3 F150.0 X49.098 Y29.642 I0.838 J0.0002
G1 Y31.318
G3 X48.6665 Y32.0508 I-0.838 J0.0
G1 Y40.4716
G1 X51.6034 Y43.4085
G1 X52.1235
G3 X53.137 Y42.723 I1.0135 J0.4065
G1 X55.321
G3 Y44.907 I0.0 J1.092
G1 X53.137
G3 X52.1235 Y44.2215 I0.0 J-1.092
G1 X51.435
G3 X51.1476 Y44.1024 I0.0 J-0.4065
G1 X47.9726 Y40.9274
G3 X47.8535 Y40.64 I0.2874 J-0.2874
G1 Y32.0508
G3 X47.422 Y31.318 I0.4065 J-0.7328
G1 Y29.642
G3 Y29.6418 I0.838 J0.0
G0 Z3.0
G0 X42.5389 Y16.7833
G0 Z1.25
G1 F50.0 Z-0.15
G3 F150.0 X41.453 Y16.6959 I-0.4509 J-1.1873
G3 Y14.4961 I0.635 J-1.0999
G3 X43.358 Y15.596 I0.635 J1.0999
G3 X42.5389 Y16.7833 I-1.27 J0.0
G0 Z3.0
G0 X42.188 Y12.3401
G0 Z1.25
G1 F50.0 Z-0.15
G3 F150.0 X41.453 Y12.1739 I-0.1 J-1.2661
G3 Y9.9741 I0.635 J-1.0999
G3 X43.358 Y11.074 I0.635 J1.0999
G3 X42.188 Y12.3401 I-1.27 J0.0
G0 Z3.0
G0 X36.6411 Y8.9213
G0 Z1.25
G1 F50.0 Z-0.15
G3 F150.0 X34.925 Y9.3549 I-1.0811 J-0.6663
G3 Y7.1551 I0.635 J-1.0999
G3 X36.83 Y8.255 I0.635 J1.0999
G3 X36.6411 Y8.9213 I-1.27 J0.0
G0 Z3.0
G0 X22.2241 Y9.4762
G0 Z1.25
G1 F50.0 Z-0.15
G3 F150.0 X22.225 Y9.525 I-1.2691 J0.0488
G3 X20.32 Y10.6249 I-1.27 J0.0
G3 Y8.4251 I0.635 J-1.0999
G3 X22.2241 Y9.4762 I0.635 J1.0999
G0 Z3.0
G0 X17.2373 Y15.0605
G0 Z1.25
G1 F50.0 Z-0.15
G3 F150.0 X17.602 Y15.875 I-0.7273 J0.8145
G3 X15.964 Y16.8207 I-1.092 J0.0
G3 Y14.9293 I0.546 J-0.9457
G3 X17.2373 Y15.0605 I0.546 J0.9457
G0 Z3.0
G0 X16.7414 Y17.3478
G0 Z1.25
G1 F50.0 Z-0.15
G3 F150.0 X17.5235 Y18.0085 I-0.2314 J1.0672
G1 X19.1168
G3 X19.685 Y17.3151 I1.2032 J0.4065
G3 X21.59 Y18.415 I0.635 J1.0999
G3 X19.685 Y19.5149 I-1.27 J0.0
G3 X19.1168 Y18.8215 I0.635 J-1.0999
G1 X17.5235
G3 X15.964 Y19.3607 I-1.0135 J-0.4065
G3 X15.4422 Y18.1865 I0.546 J-0.9457
G1 X12.6332
G3 X10.795 Y18.8799 I-1.2032 J-0.4065
G3 Y16.6801 I0.635 J-1.0999
G3 X12.6332 Y17.3735 I0.635 J1.0999
G1 X15.875
G3 X16.0621 Y17.4191 I0.0 J0.4065
G3 X16.7414 Y17.3478 I0.4479 J0.9959
G0 Z3.0
G0 X9.4876 Y15.5461
G0 Z1.25
G1 F50.0 Z-0.15
G3 F150.0 X7.62 Y16.3399 I-1.2326 J-0.3061
G3 X7.0518 Y15.6465 I0.635 J-1.0999
G1 X5.6482
G3 X3.81 Y16.3399 I-1.2032 J-0.4065
G3 Y14.1401 I0.635 J-1.0999
G3 X5.6482 Y14.8335 I0.635 J1.0999
G1 X7.0518
G3 X7.62 Y14.1401 I1.2032 J0.4065
G3 X9.525 Y15.24 I0.635 J1.0999
G3 X9.4876 Y15.5461 I-1.27 J0.0
( texte )
M0
S1000
G0 Z3.0
G0 X27.8419 Y47.9612
G0 Z1.25
G1 F50.0 Z-0.15
G1 F150.0 X29.0753 Y45.1837
G1 X30.3106 Y47.9612
G1 X30.5506 Y45.2023
G1 X30.3106 Y47.9612
G1 X29.0753 Y45.1837
G1 X27.8419 Y47.9612
G1 X27.6056 Y45.2023
G1 X27.8419 Y47.9612
G0 Z3.0
G0 X27.6141 Y43.4111
G0 Z1.25
G1 F50.0 Z-0.15
G3 F150.0 X27.6231 Y43.3111 I0.5247 J-0.0031
G3 X27.655 Y43.2158 I0.3586 J0.0671
G3 X27.7638 Y43.0837 I0.335 J0.1652
G3 X27.9238 Y43.0084 I0.2747 J0.3759
G3 X28.1182 Y42.9851 I0.1905 J0.7687
G3 X28.3052 Y43.014 I0.0073 J0.5732
G3 X28.4475 Y43.0921 I-0.1509 J0.4435
G3 X28.5396 Y43.2028 I-0.2199 J0.2766
G3 X28.574 Y43.3274 I-0.2519 J0.1366
G3 X28.5624 Y43.4408 I-0.4112 J0.0153
G3 X28.5163 Y43.5451 I-0.3245 J-0.0812
G3 X28.4329 Y43.6248 I-0.2107 J-0.1369
G3 X28.3247 Y43.6651 I-0.1736 J-0.3012
G1 X27.8578 Y43.7655
G2 X27.7732 Y43.7959 I0.0752 J0.3424
G2 X27.7024 Y43.8511 I0.1095 J0.2134
G2 X27.6586 Y43.9456 I0.1705 J0.1364
G2 X27.6485 Y44.0492 I0.4667 J0.0981
G2 X27.6754 Y44.1767 I0.3093 J0.0011
G2 X27.7573 Y44.2837 I0.2758 J-0.1262
G2 X27.8912 Y44.3562 I0.2639 J-0.3273
G2 X28.0726 Y44.3832 I0.1725 J-0.5368
G2 X28.2624 Y44.359 I0.0066 J-0.705
G2 X28.4112 Y44.2892 I-0.1178 J-0.4449
G2 X28.508 Y44.1776 I-0.1779 J-0.2519
G2 X28.5396 Y44.0269 I-0.279 J-0.1372
G3 X28.508 Y44.1776 I-0.3106 J0.0135
G3 X28.4112 Y44.2892 I-0.2747 J-0.1403
G3 X28.2624 Y44.359 I-0.2666 J-0.3751
G3 X28.0726 Y44.3832 I-0.1832 J-0.6807
G3 X27.8912 Y44.3562 I-0.0089 J-0.5637
G3 X27.7573 Y44.2837 I0.1299 J-0.3998
G3 X27.6754 Y44.1767 I0.1939 J-0.2332
G3 X27.6485 Y44.0492 I0.2823 J-0.1263
G3 X27.6624 Y43.9339 I0.4237 J-0.0073
G3 X27.7034 Y43.8511 I0.2328 J0.0636
G3 X27.7694 Y43.7962 I0.1592 J0.1244
G3 X27.8578 Y43.7655 I0.1713 J0.3507
G1 X28.3247 Y43.6651
G2 X28.4317 Y43.6242 I-0.0664 J-0.3341
G2 X28.5145 Y43.5451 I-0.1357 J-0.2249
G2 X28.574 Y43.3274 I-0.2962 J-0.198
G2 X28.5396 Y43.2028 I-0.2863 J0.012
G2 X28.4475 Y43.0921 I-0.312 J0.1659
G2 X28.3052 Y43.014 I-0.2932 J0.3654
G2 X28.1182 Y42.9851 I-0.1797 J0.5445
G2 X27.9238 Y43.0084 I-0.0039 J0.7919
G2 X27.7638 Y43.0837 I0.1147 J0.4512
G2 X27.655 Y43.2158 I0.2262 J0.2973
G2 X27.6231 Y43.3111 I0.3267 J0.1624
G2 X27.6141 Y43.4111 I0.5157 J0.097
G0 Z3.0
G0 X30.0364 Y43.5829
G0 Z1.25
G1 F50.0 Z-0.15
G3 F150.0 X30.0629 Y43.4027 I1.2077 J0.0856
G3 X30.1097 Y43.2682 I0.6659 J0.1564
G3 X30.1888 Y43.1498 I0.432 J0.2028
G3 X30.3902 Y43.0184 I0.3615 J0.334
G3 X30.6278 Y42.9814 I0.2271 J0.6777
G3 X30.8277 Y43.0059 I0.0079 J0.7612
G3 X31.0083 Y43.0949 I-0.1271 J0.486
G3 X31.1366 Y43.2584 I-0.2907 J0.3601
G3 X31.199 Y43.4567 I-0.6996 J0.3291
G2 X31.1366 Y43.2584 I-0.7619 J0.1308
G2 X31.0083 Y43.0949 I-0.4189 J0.1965
G2 X30.8277 Y43.0059 I-0.3077 J0.397
G2 X30.6278 Y42.9814 I-0.1919 J0.7367
G2 X30.3902 Y43.0184 I-0.0106 J0.7147
G2 X30.1888 Y43.1498 I0.1601 J0.4655
G2 X30.1097 Y43.2682 I0.3529 J0.3212
G2 X30.049 Y43.4718 I0.6833 J0.3145
G2 X30.0334 Y43.6837 I1.3154 J0.2034
G2 X30.063 Y43.9642 I1.2018 J0.015
G2 X30.1099 Y44.0984 I0.6662 J-0.1574
G2 X30.1888 Y44.2167 I0.4361 J-0.2052
G2 X30.3898 Y44.3494 I0.3632 J-0.3314
G2 X30.6278 Y44.3869 I0.2274 J-0.6697
G2 X30.8042 Y44.3679 I0.006 J-0.7708
G2 X30.9683 Y44.3004 I-0.1179 J-0.52
G2 X31.0921 Y44.1832 I-0.2283 J-0.3654
G2 X31.1683 Y44.0306 I-0.4783 J-0.3339
G3 X31.0921 Y44.1832 I-0.5544 J-0.1813
G3 X30.9683 Y44.3004 I-0.3522 J-0.2483
G3 X30.8042 Y44.3679 I-0.282 J-0.4526
G3 X30.6278 Y44.3869 I-0.1704 J-0.7518
G3 X30.3898 Y44.3494 I-0.0106 J-0.7072
G3 X30.1888 Y44.2167 I0.1621 J-0.4642
G3 X30.1099 Y44.0984 I0.3572 J-0.3235
G3 X30.0491 Y43.8952 I0.6823 J-0.3149
G3 X30.0334 Y43.6837 I1.3047 J-0.2031
G3 X30.0364 Y43.5829 I1.2107 J-0.0151
G0 Z3.0
G0 X33.5029 Y46.1809
G0 Z1.25
G1 F50.0 Z-0.15
G2 F150.0 X33.4564 Y45.7418 I-1.8562 J-0.0254
G2 X33.3039 Y45.433 I-0.6956 J0.1515
G2 X33.0155 Y45.2488 I-0.4984 J0.4625
G2 X32.7957 Y45.2002 I-0.3449 J1.0391
G2 X32.5709 Y45.1874 I-0.2168 J1.8252
G2 X32.3488 Y45.1999 I-0.0087 J1.825
G2 X32.1319 Y45.2488 I0.1139 J1.0116
G2 X31.864 Y45.4367 I0.1905 J0.5565
G2 X31.73 Y45.7493 I0.6053 J0.4444
G2 X31.6947 Y46.1809 I2.3352 J0.4085
G1 Y47.9501
G1 Y46.1809
G3 X31.73 Y45.7493 I2.3702 J-0.0231
G3 X31.864 Y45.4367 I0.7392 J0.1318
G3 X32.1319 Y45.2488 I0.4584 J0.3686
G3 X32.3488 Y45.1999 I0.331 J0.9631
G3 X32.5709 Y45.1874 I0.2135 J1.8134
G3 X32.7957 Y45.2002 I0.0081 J1.8375
G3 X33.0155 Y45.2488 I-0.1252 J1.0881
G3 X33.3039 Y45.433 I-0.2101 J0.6467
G3 X33.4564 Y45.7418 I-0.5431 J0.4604
G3 X33.5029 Y46.1809 I-1.8098 J0.4137
G1 Y47.9501
G1 Y46.1809
G0 Z3.0
G0 X35.2368 Y47.924
G0 Z1.25
G1 F50.0 Z-0.15
G1 F150.0 Y45.1837
G1 Y47.924
G1 X36.0442
G1 X34.4257
G1 X35.2368
G0 Z3.0
G0 X37.8655
G0 Z1.25
G1 F50.0 Z-0.15
G1 F150.0 X38.9519 Y45.1837
G1 X37.8655 Y47.924
G1 X36.7846 Y45.1837
G1 X37.8655 Y47.924
G0 Z3.0
G0 X38.5631 Y46.1623
G0 Z1.25
G1 F50.0 Z-0.15
G1 F150.0 X37.1641
G1 X38.5631
G0 Z3.0
G0 X38.5832 Y44.3702
G0 Z1.25
G1 F50.0 Z-0.15
G1 F150.0 X39.0808
G1 X38.0902
G1 X38.5832
G1 Y42.9963
G1 Y44.3702
G0 Z3.0
G0 X36.6363 Y43.4325
G0 Z1.25
G1 F50.0 Z-0.15
G2 F150.0 X36.6084 Y43.267 I-0.4939 J-0.0019
G2 X36.5237 Y43.1274 I-0.3557 J0.1203
G2 X36.3758 Y43.0326 I-0.2858 J0.2829
G2 X36.2695 Y43.0056 I-0.1764 J0.473
G2 X36.16 Y42.9982 I-0.1061 J0.7474
G2 X35.9415 Y43.0335 I-0.0022 J0.6802
G2 X35.7889 Y43.1256 I0.1481 J0.4177
G2 X35.6996 Y43.2623 I0.2652 J0.2707
G2 X35.6708 Y43.4325 I0.4598 J0.1654
G1 Y44.372
G1 Y43.4325
G3 X35.6996 Y43.2623 I0.4886 J-0.0048
G3 X35.7889 Y43.1256 I0.3545 J0.134
G3 X35.9415 Y43.0335 I0.3007 J0.3257
G3 X36.16 Y42.9982 I0.2164 J0.6449
G3 X36.2695 Y43.0056 I0.0034 J0.7542
G3 X36.3758 Y43.0326 I-0.07 J0.5
G3 X36.5237 Y43.1274 I-0.1379 J0.3777
G3 X36.6084 Y43.267 I-0.271 J0.2599
G3 X36.6363 Y43.4325 I-0.4659 J0.1637
G1 Y44.372
G1 Y43.4325
G0 Z3.0
G0 X36.4324 Y42.0726
G0 Z1.25
G1 F50.0 Z-0.15
G1 F150.0 Y40.7025
G1 Y42.0726
G1 X36.8361
G1 X36.0268
G1 X36.4324
G0 Z3.0
G0 X37.3465 Y41.7219
G0 Z1.25
G1 F50.0 Z-0.15
G2 F150.0 X37.4333 Y41.8857 I0.717 J-0.2751
G2 X37.5905 Y42.0354 I0.447 J-0.3118
G2 X37.783 Y42.0912 I0.1925 J-0.3041
G2 X37.9755 Y42.0354 I0.001 J-0.3567
G2 X38.1327 Y41.8857 I-0.2898 J-0.4616
G2 X38.2397 Y41.6652 I-0.6154 J-0.4348
G2 X38.2788 Y41.3955 I-0.871 J-0.2638
G2 X38.2397 Y41.1257 I-0.9101 J-0.0059
G2 X38.1327 Y40.9043 I-0.7349 J0.2186
G2 X37.9755 Y40.7564 I-0.4396 J0.3098
G2 X37.783 Y40.7025 I-0.1912 J0.3118
G2 X37.5905 Y40.7564 I-0.0004 J0.369
G2 X37.4333 Y40.9043 I0.2824 J0.4577
G2 X37.3272 Y41.1257 I0.6431 J0.4441
G2 X37.2881 Y41.3955 I0.871 J0.2638
G2 X37.3272 Y41.6652 I0.9101 J0.0059
G2 X37.3465 Y41.7219 I0.7363 J-0.2184
G0 Z3.0
G0 X38.8257 Y42.0745
G0 Z1.25
G1 F50.0 Z-0.15
G1 F150.0 X39.022
G1 Y40.7025
G1 Y42.0745
G1 X38.8257
G0 Z3.0
G0 X33.9896 Y43.4061
G0 Z1.25
G1 F50.0 Z-0.15
G2 F150.0 X33.9754 Y43.36 I-0.7808 J0.215
G2 X33.9224 Y43.2435 I-0.6461 J0.2236
G2 X33.8452 Y43.1414 I-0.438 J0.2511
G2 X33.6527 Y43.0214 I-0.3498 J0.3469
G2 X33.4173 Y42.9851 I-0.2299 J0.7097
G2 X33.182 Y43.0214 I-0.0055 J0.746
G2 X32.9894 Y43.1414 I0.1573 J0.4669
G2 X32.9122 Y43.2435 I0.3608 J0.3532
G2 X32.8592 Y43.36 I0.5928 J0.3399
G2 X32.8218 Y43.5245 I0.7665 J0.261
G2 X32.8118 Y43.693 I1.3169 J0.1626
G2 X32.8219 Y43.861 I1.3124 J0.0057
G2 X32.8592 Y44.0251 I0.8132 J-0.0989
G2 X32.9121 Y44.1429 I0.6587 J-0.2248
G2 X32.9894 Y44.2464 I0.4431 J-0.2505
G2 X33.182 Y44.3692 I0.3462 J-0.3305
G2 X33.4173 Y44.4064 I0.23 J-0.6917
G2 X33.6527 Y44.3692 I0.0054 J-0.7289
G2 X33.8452 Y44.2464 I-0.1536 J-0.4532
G2 X33.9225 Y44.1429 I-0.3658 J-0.3539
G2 X33.9754 Y44.0251 I-0.6059 J-0.3427
G2 X34.0128 Y43.861 I-0.7758 J-0.263
G2 X34.0229 Y43.693 I-1.3022 J-0.1623
G2 X34.0129 Y43.5245 I-1.3282 J-0.0058
G2 X33.9896 Y43.4061 I-0.8041 J0.0965
G2 X33.9754 Y43.36 I-0.7808 J0.215
G2 X33.9224 Y43.2435 I-0.6461 J0.2236
G2 X33.8452 Y43.1414 I-0.438 J0.2511
G2 X33.6527 Y43.0214 I-0.3498 J0.3469
G2 X33.4173 Y42.9851 I-0.2299 J0.7097
G2 X33.182 Y43.0214 I-0.0055 J0.746
G2 X32.9894 Y43.1414 I0.1573 J0.4669
G2 X32.9122 Y43.2435 I0.3608 J0.3532
G2 X32.8592 Y43.36 I0.5928 J0.3399
G2 X32.8218 Y43.5245 I0.7665 J0.261
G2 X32.8118 Y43.693 I1.3169 J0.1626
G2 X32.8219 Y43.861 I1.3124 J0.0057
G2 X32.8592 Y44.0251 I0.8132 J-0.0989
G2 X32.9121 Y44.1429 I0.6587 J-0.2248
G2 X32.9894 Y44.2464 I0.4431 J-0.2505
G2 X33.182 Y44.3692 I0.3462 J-0.3305
G2 X33.4173 Y44.4064 I0.23 J-0.6917
G2 X33.6527 Y44.3692 I0.0054 J-0.7289
G2 X33.8452 Y44.2464 I-0.1536 J-0.4532
G2 X33.9225 Y44.1429 I-0.3658 J-0.3539
G2 X33.9754 Y44.0251 I-0.6059 J-0.3427
G2 X34.0128 Y43.861 I-0.7758 J-0.263
G2 X34.0229 Y43.693 I-1.3022 J-0.1623
G2 X34.0129 Y43.5245 I-1.3282 J-0.0058
G2 X33.9896 Y43.4061 I-0.8041 J0.0965
G0 Z3.0
G0 X52.7665 Y48.7469
G0 Z1.25
G1 F50.0 Z-0.15
G1 F150.0 Y49.4934
G1 Y48.7469
G0 Z3.0
G0 X53.2155
G0 Z1.25
G1 F50.0 Z-0.15
G1 F150.0 Y49.2733
G3 X53.2066 Y49.3609 I-0.3971 J0.0039
G3 X53.172 Y49.4418 I-0.2199 J-0.0463
G3 X53.1029 Y49.4912 I-0.1076 J-0.0774
G3 X53.0188 Y49.5031 I-0.0791 J-0.2565
G3 X52.9181 Y49.4773 I-0.0019 J-0.2024
G3 X52.8391 Y49.4136 I0.1437 J-0.2591
G3 X52.7867 Y49.3282 I0.2279 J-0.1985
G3 X52.7665 Y49.2403 I0.2487 J-0.1033
G2 X52.7867 Y49.3282 I0.2688 J-0.0154
G2 X52.8391 Y49.4136 I0.2803 J-0.1131
G2 X52.9181 Y49.4773 I0.2227 J-0.1954
G2 X53.0188 Y49.5031 I0.0989 J-0.1766
G2 X53.1029 Y49.4912 I0.005 J-0.2684
G2 X53.172 Y49.4418 I-0.0385 J-0.1268
G2 X53.2066 Y49.3609 I-0.1853 J-0.1272
G2 X53.2155 Y49.2733 I-0.3884 J-0.0837
G1 Y48.7469
G0 Z3.0
G0 X53.6646
G0 Z1.25
G1 F50.0 Z-0.15
G1 F150.0 Y49.2733
G3 X53.6557 Y49.3609 I-0.3971 J0.0039
G3 X53.621 Y49.4418 I-0.2199 J-0.0463
G3 X53.5528 Y49.4911 I-0.1076 J-0.0771
G3 X53.4695 Y49.5031 I-0.0784 J-0.2495
G3 X53.3671 Y49.4773 I-0.0026 J-0.2056
G3 X53.2881 Y49.4136 I0.1437 J-0.2591
G3 X53.2357 Y49.3282 I0.2279 J-0.1985
G3 X53.2155 Y49.2403 I0.2487 J-0.1033
G2 X53.2357 Y49.3282 I0.2688 J-0.0154
G2 X53.2881 Y49.4136 I0.2803 J-0.1131
G2 X53.3671 Y49.4773 I0.2227 J-0.1954
G2 X53.4695 Y49.5031 I0.0998 J-0.1798
G2 X53.5528 Y49.4911 I0.0049 J-0.2614
G2 X53.621 Y49.4418 I-0.0394 J-0.1264
G2 X53.6557 Y49.3609 I-0.1853 J-0.1272
G2 X53.6646 Y49.2733 I-0.3884 J-0.0837
G1 Y48.7469
G0 Z3.0
G0 X54.2127 Y48.7526
G0 Z1.25
G1 F50.0 Z-0.15
G1 F150.0 Y50.1351
G1 Y49.1556
G1 X54.6069 Y49.5007
G1 X54.2127 Y49.1556
G1 X54.7045 Y48.7526
G1 X54.2127 Y49.1556
G2 X54.2144 Y48.9509 I-15.0625 J-0.221
G1 Y48.8767
G1 Y48.8122
G2 X54.2135 Y48.7671 I-1.0275 J-0.0042
G2 X54.2127 Y48.7526 I-0.6693 J0.0299
G0 Z3.0
G0 X55.7183 Y49.9344
G0 Z1.25
G1 F50.0 Z-0.15
G1 F150.0 X55.5482
G1 X55.7183
G1 Y48.7453
G1 Y49.9344
( Perçage10 )
M0
G0 Z3.0
( T4 : 1.0 )
T4 M6
M3 S1000
G0 X15.875 Y35.56
G98
G81 X15.875 Y35.56 Z-2.0 R3.0 F300.0
G81 X11.43 Z-2.0
G81 Y30.48 Z-2.0
G81 X28.575 Y13.335 Z-2.0
G81 X25.4 Y8.89 Z-2.0
G81 X34.29 Y12.7 Z-2.0
G81 X38.735 Z-2.0
G81 X42.088 Y11.074 Z-2.0
G81 Y15.596 Z-2.0
G81 X48.59 Z-2.0
G81 Y11.074 Z-2.0
G81 X55.118 Y12.954 Z-2.0
G81 X56.134 Y9.398 Z-2.0
G81 X55.245 Y5.461 Z-2.0
G81 X54.61 Y18.034 Z-2.0
G81 X56.134 Y22.098 Z-2.0
G81 X56.515 Y25.654 Z-2.0
G81 X54.229 Y36.195 Z-2.0
G81 Y38.735 Z-2.0
G81 Y41.275 Z-2.0
G81 Y43.815 Z-2.0
G81 Y46.355 Z-2.0
G80
( Perçage07 )
M0
G0 Z3.0
( T5 : 0.7 )
T5 M6
M3 S1000
G0 X20.955 Y4.445
G98
G81 X20.955 Y4.445 Z-2.0 R3.0 F300.0
G81 Y9.525 Z-2.0
G81 X16.51 Y15.875 Z-2.0
G81 Y18.415 Z-2.0
G81 X20.32 Z-2.0
G81 Y22.86 Z-2.0
G81 X17.78 Z-2.0
G81 X15.24 Z-2.0
G81 X11.43 Z-2.0
G81 X8.255 Y25.4 Z-2.0
G81 X4.445 Z-2.0
G81 Y15.24 Z-2.0
G81 X8.255 Z-2.0
G81 X11.43 Y17.78 Z-2.0
G81 X22.86 Y22.86 Z-2.0
G81 X25.4 Z-2.0
G81 X27.94 Z-2.0
G81 X30.48 Z-2.0
G81 X33.02 Z-2.0
G81 X35.56 Z-2.0
G81 X38.1 Z-2.0
G81 X40.64 Z-2.0
G81 X43.18 Z-2.0
G81 X45.72 Z-2.0
G81 X48.26 Z-2.0
G81 X51.435 Z-2.0
G81 X49.53 Y18.542 Z-2.0
G81 X51.435 Y12.7 Z-2.0
G81 X50.8 Y9.525 Z-2.0
G81 Y6.985 Z-2.0
G81 Y4.445 Z-2.0
G81 X45.72 Z-2.0
G81 Y8.255 Z-2.0
G81 X35.56 Z-2.0
G81 Y4.445 Z-2.0
G81 X39.37 Y18.542 Z-2.0
G81 X40.64 Y30.48 Z-2.0
G81 X43.18 Z-2.0
G81 X45.72 Z-2.0
G81 X48.26 Z-2.0
G81 X38.1 Z-2.0
G81 X35.56 Z-2.0
G81 X33.02 Z-2.0
G81 X30.48 Z-2.0
G81 X27.94 Z-2.0
G81 X25.4 Z-2.0
G81 X22.86 Z-2.0
G81 X20.32 Z-2.0
G81 X17.78 Z-2.0
G81 X15.24 Z-2.0
G81 X25.4 Y18.415 Z-2.0
G81 X19.05 Y46.355 Z-2.0
G81 X14.605 Z-2.0
G81 Y51.435 Z-2.0
G81 X19.05 Z-2.0
G80
( Contour1 )
M0
G0 Z3.0
( T6 : 3.0 )
T6 M6
M3 S1000
G0 X2.54 Y1.04
G0 Z1.0
G1 F50.0 Z-0.5
G1 F150.0 X27.4275
G1 X28.0275 Z0.5
G1 X31.0275
G1 X31.6275 Z-0.5
G1 X59.055
G3 X60.555 Y2.54 I0.0 J1.5
G1 Y24.8875
G1 Y25.4875 Z0.5
G1 Y28.4875
G1 Y29.0875 Z-0.5
G1 Y53.975
G3 X59.055 Y55.475 I-1.5 J0.0
G1 X34.1675
G1 X33.5675 Z0.5
G1 X30.5675
G1 X29.9675 Z-0.5
G1 X2.54
G3 X1.04 Y53.975 I0.0 J-1.5
G1 Y31.6275
G1 Y31.0275 Z0.5
G1 Y28.0275
G1 Y27.4275 Z-0.5
G1 Y2.54
G0 Z3.0
G0 X2.54 Y1.04
G0 Z0.5
G1 F50.0 Z-1.0
G1 F150.0 X27.4275
G1 X28.0275 Z0.5
G1 X31.0275
G1 X31.6275 Z-1.0
G1 X59.055
G3 X60.555 Y2.54 I0.0 J1.5
G1 Y24.8875
G1 Y25.4875 Z0.5
G1 Y28.4875
G1 Y29.0875 Z-1.0
G1 Y53.975
G3 X59.055 Y55.475 I-1.5 J0.0
G1 X34.1675
G1 X33.5675 Z0.5
G1 X30.5675
G1 X29.9675 Z-1.0
G1 X2.54
G3 X1.04 Y53.975 I0.0 J-1.5
G1 Y31.6275
G1 Y31.0275 Z0.5
G1 Y28.0275
G1 Y27.4275 Z-1.0
G1 Y2.54
G0 Z3.0
G0 X2.54 Y1.04
G0 Z0.0
G1 F50.0 Z-1.5
G1 F150.0 X27.4275
G1 X28.0275 Z0.5
G1 X31.0275
G1 X31.6275 Z-1.5
G1 X59.055
G3 X60.555 Y2.54 I0.0 J1.5
G1 Y24.8875
G1 Y25.4875 Z0.5
G1 Y28.4875
G1 Y29.0875 Z-1.5
G1 Y53.975
G3 X59.055 Y55.475 I-1.5 J0.0
G1 X34.1675
G1 X33.5675 Z0.5
G1 X30.5675
G1 X29.9675 Z-1.5
G1 X2.54
G3 X1.04 Y53.975 I0.0 J-1.5
G1 Y31.6275
G1 Y31.0275 Z0.5
G1 Y28.0275
G1 Y27.4275 Z-1.5
G1 Y2.54
G0 Z3.0
G0 X2.54 Y1.04
G0 Z-0.5
G1 F50.0 Z-2.0
G1 F150.0 X27.4275
G1 X28.0275 Z0.5
G1 X31.0275
G1 X31.6275 Z-2.0
G1 X59.055
G3 X60.555 Y2.54 I0.0 J1.5
G1 Y24.8875
G1 Y25.4875 Z0.5
G1 Y28.4875
G1 Y29.0875 Z-2.0
G1 Y53.975
G3 X59.055 Y55.475 I-1.5 J0.0
G1 X34.1675
G1 X33.5675 Z0.5
G1 X30.5675
G1 X29.9675 Z-2.0
G1 X2.54
G3 X1.04 Y53.975 I0.0 J-1.5
G1 Y31.6275
G1 Y31.0275 Z0.5
G1 Y28.0275
G1 Y27.4275 Z-2.0
G1 Y2.54
G0 Z3.0
M5
M30
