( Made using CamBam - http://www.cambam.co.uk )
( operator.cmp 10/5/2014 3:15:19 PM )
( T1 : 0.008 )
( T2 : 0.027 )
G20 G90 G64 G40
G0 Z0.06
( T1 : 0.008 )
T1 M6
( isolation )
M0
G17
M3 S1000
G0 X1.3903 Y0.8509
G1 F2.0 Z-0.006
G1 F6.0 X1.4095 Y0.8318
G1 Y0.7976
G1 X1.3949
G1 Y0.6992
G1 X1.5049
G1 Y0.7976
G1 X1.4415
G1 Y0.8384
G3 X1.4368 Y0.8497 I-0.016 J0.0
G1 X1.4084 Y0.8781
G3 X1.4085 Y0.8804 I-0.0329 J0.0023
G1 Y0.9464
G3 X1.3425 I-0.033 J0.0
G1 Y0.8804
G3 X1.3903 Y0.8509 I0.033 J0.0
G0 Z0.06
G0 X1.3415
G1 F2.0 Z-0.006
G1 F6.0 Y1.0568
G1 X1.3868 Y1.1021
G3 X1.3915 Y1.1134 I-0.0113 J0.0113
G1 Y1.1515
G3 X1.4085 Y1.1804 I-0.016 J0.0289
G1 Y1.2464
G3 X1.3425 I-0.033 J0.0
G1 Y1.1804
G3 X1.3595 Y1.1515 I0.033 J0.0
G1 Y1.12
G1 X1.3142 Y1.0747
G3 X1.3095 Y1.0634 I0.0113 J-0.0113
G1 Y0.6765
G1 X1.2989 Y0.6744
G1 X1.1557
G1 X1.085 Y0.7263
G3 X1.0755 Y0.7294 I-0.0095 J-0.0129
G1 X0.6071
G1 X0.5165 Y0.82
G1 Y1.3068
G1 X0.6618 Y1.4521
G3 X0.6665 Y1.4634 I-0.0113 J0.0113
G1 Y1.6384
G3 X0.6618 Y1.6497 I-0.016 J0.0
G1 X0.6118 Y1.6997
G3 X0.6005 Y1.7044 I-0.0113 J-0.0113
G1 X0.575
G1 Y1.7379
G1 X0.476
G1 Y1.6389
G1 X0.575
G1 Y1.6724
G1 X0.5939
G1 X0.6345 Y1.6318
G1 Y1.47
G1 X0.4892 Y1.3247
G3 X0.4845 Y1.3134 I0.0113 J-0.0113
G1 Y0.8134
G3 X0.4892 Y0.8021 I0.016 J0.0
G1 X0.5892 Y0.7021
G3 X0.6005 Y0.6974 I0.0113 J0.0113
G1 X1.0703
G1 X1.141 Y0.6455
G3 X1.1505 Y0.6424 I0.0095 J0.0129
G1 X1.3005
G3 X1.3036 Y0.6427 I0.0 J0.016
G1 X1.3286 Y0.6477
G3 X1.3415 Y0.6634 I-0.0031 J0.0157
G1 Y0.8509
G0 Z0.06
G0 X1.3056 Y0.8669
G1 F2.0 Z-0.006
G3 F6.0 X1.3085 Y0.8804 I-0.0301 J0.0135
G1 Y0.9464
G3 X1.2915 Y0.9753 I-0.033 J0.0
G1 Y1.0384
G3 X1.2868 Y1.0497 I-0.016 J0.0
G1 X1.2415 Y1.095
G1 Y1.3318
G1 X1.3368 Y1.4271
G3 X1.3415 Y1.4384 I-0.0113 J0.0113
G1 Y1.5634
G3 X1.3368 Y1.5747 I-0.016 J0.0
G1 X1.3118 Y1.5997
G3 X1.3005 Y1.6044 I-0.0113 J-0.0113
G1 X1.275
G1 Y1.6379
G1 X1.176
G1 Y1.5389
G1 X1.275
G1 Y1.5724
G1 X1.2939
G1 X1.3095 Y1.5568
G1 Y1.445
G1 X1.2142 Y1.3497
G3 X1.2095 Y1.3384 I0.0113 J-0.0113
G1 Y1.0884
G3 X1.2142 Y1.0771 I0.016 J0.0
G1 X1.2595 Y1.0318
G1 Y0.9753
G3 X1.2425 Y0.9464 I0.016 J-0.0289
G1 Y0.8804
G3 X1.3056 Y0.8669 I0.033 J0.0
G0 Z0.06
G0 X1.2406 Y0.8438
G1 F2.0 Z-0.006
G3 F6.0 X1.2368 Y0.8497 I-0.0151 J-0.0054
G1 X1.2084 Y0.8781
G3 X1.2085 Y0.8804 I-0.0329 J0.0023
G1 Y0.9464
G3 X1.1425 I-0.033 J0.0
G1 Y0.8804
G3 X1.1903 Y0.8509 I0.033 J0.0
G1 X1.2095 Y0.8318
G1 Y0.7976
G1 X1.1461
G1 Y0.6992
G1 X1.2561
G1 Y0.7976
G1 X1.2415
G1 Y0.8384
G3 X1.2406 Y0.8438 I-0.016 J0.0
G0 Z0.06
G0 X1.1077 Y0.8733
G1 F2.0 Z-0.006
G3 F6.0 X1.1085 Y0.8804 I-0.0322 J0.0071
G1 Y0.9464
G3 X1.0425 I-0.033 J0.0
G1 Y0.8804
G3 X1.0426 Y0.8781 I0.033 J0.0
G1 X0.9439 Y0.7794
G1 X0.6321
G1 X0.5665 Y0.845
G1 Y1.2818
G1 X0.7118 Y1.4271
G3 X0.7165 Y1.4384 I-0.0113 J0.0113
G1 Y1.6634
G3 X0.7118 Y1.6747 I-0.016 J0.0
G1 X0.5868 Y1.7997
G3 X0.5755 Y1.8044 I-0.0113 J-0.0113
G1 X0.575
G1 Y1.8379
G1 X0.476
G1 Y1.7389
G1 X0.575
G1 Y1.7663
G1 X0.6845 Y1.6568
G1 Y1.445
G1 X0.5392 Y1.2997
G3 X0.5345 Y1.2884 I0.0113 J-0.0113
G1 Y0.8384
G3 X0.5392 Y0.8271 I0.016 J0.0
G1 X0.6142 Y0.7521
G3 X0.6255 Y0.7474 I0.0113 J0.0113
G1 X0.9505
G3 X0.9618 Y0.7521 I0.0 J0.016
G1 X1.0607 Y0.8509
G3 X1.1077 Y0.8733 I0.0148 J0.0295
G0 Z0.06
G0 X1.0085 Y0.8786
G1 F2.0 Z-0.006
G3 F6.0 Y0.8804 I-0.033 J0.0018
G1 Y0.9464
G3 X0.9425 I-0.033 J0.0
G1 Y0.8804
G3 X0.9495 Y0.86 I0.033 J0.0
G1 X0.9189 Y0.8294
G1 X0.6571
G1 X0.6165 Y0.87
G1 Y1.2568
G1 X0.7618 Y1.4021
G3 X0.7665 Y1.4134 I-0.0113 J0.0113
G1 Y1.7134
G3 X0.7618 Y1.7247 I-0.016 J0.0
G1 X0.5868 Y1.8997
G3 X0.5755 Y1.9044 I-0.0113 J-0.0113
G1 X0.575
G1 Y1.9379
G1 X0.476
G1 Y1.8389
G1 X0.575
G1 Y1.8663
G1 X0.7345 Y1.7068
G1 Y1.42
G1 X0.5892 Y1.2747
G3 X0.5845 Y1.2634 I0.0113 J-0.0113
G1 Y0.8634
G3 X0.5892 Y0.8521 I0.016 J0.0
G1 X0.6392 Y0.8021
G3 X0.6505 Y0.7974 I0.0113 J0.0113
G1 X0.9255
G3 X0.9368 Y0.8021 I0.0 J0.016
G1 X0.983 Y0.8483
G3 X1.0085 Y0.8786 I-0.0075 J0.0321
G0 Z0.06
G0 X0.9085 Y0.88
G1 F2.0 Z-0.006
G3 F6.0 Y0.8804 I-0.033 J0.0004
G1 Y0.9464
G3 X0.8425 I-0.033 J0.0
G1 Y0.8804
G3 X0.9085 Y0.88 I0.033 J0.0
G0 Z0.06
G0 X0.8085 Y0.8803
G1 F2.0 Z-0.006
G3 F6.0 Y0.8804 I-0.033 J0.0001
G1 Y0.9464
G3 X0.7425 I-0.033 J0.0
G1 Y0.8804
G3 X0.8085 Y0.8803 I0.033 J0.0
G0 Z0.06
G0 X0.7085 Y0.8804
G1 F2.0 Z-0.006
G1 F6.0 Y0.9464
G3 X0.6425 I-0.033 J0.0
G1 Y0.8804
G3 X0.7085 I0.033 J0.0
G0 Z0.06
G0 Y0.6794
G1 F2.0 Z-0.006
G1 F6.0 X0.5821
G1 X0.4665 Y0.795
G1 Y0.8634
G3 X0.4618 Y0.8747 I-0.016 J0.0
G1 X0.3165 Y1.02
G1 Y1.5068
G1 X0.3821 Y1.5724
G1 X0.476
G1 Y1.5389
G1 X0.575
G1 Y1.6379
G1 X0.476
G1 Y1.6044
G1 X0.3755
G3 X0.3642 Y1.5997 I0.0 J-0.016
G1 X0.2892 Y1.5247
G3 X0.2845 Y1.5134 I0.0113 J-0.0113
G1 Y1.0134
G3 X0.2892 Y1.0021 I0.016 J0.0
G1 X0.4345 Y0.8568
G1 Y0.7884
G3 X0.4392 Y0.7771 I0.016 J0.0
G1 X0.5642 Y0.6521
G3 X0.5755 Y0.6474 I0.0113 J0.0113
G1 X1.0453
G1 X1.116 Y0.5955
G3 X1.1255 Y0.5924 I0.0095 J0.0129
G1 X1.4505
G3 X1.46 Y0.5955 I0.0 J0.016
G1 X1.535 Y0.6505
G3 X1.5415 Y0.6634 I-0.0095 J0.0129
G1 Y1.0818
G1 X1.5571 Y1.0974
G1 X1.6255
G3 X1.6368 Y1.1021 I0.0 J0.016
G1 X1.683 Y1.1483
G3 X1.7085 Y1.1804 I-0.0075 J0.0321
G1 Y1.2464
G3 X1.6425 I-0.033 J0.0
G1 Y1.1804
G3 X1.6495 Y1.16 I0.033 J0.0
G1 X1.6189 Y1.1294
G1 X1.5505
G3 X1.5392 Y1.1247 I0.0 J-0.016
G1 X1.5142 Y1.0997
G3 X1.5095 Y1.0884 I0.0113 J-0.0113
G1 Y0.6715
G1 X1.4453 Y0.6244
G1 X1.1307
G1 X1.06 Y0.6763
G3 X1.0505 Y0.6794 I-0.0095 J-0.0129
G1 X0.7085
G0 Z0.06
G0 X0.6198 Y0.6094
G1 F2.0 Z-0.006
G3 F6.0 X0.5555 Y0.6217 I-0.0393 J-0.031
G3 X0.5305 Y0.5765 I0.025 J-0.0433
G1 X0.4698 Y0.5534
G3 X0.4595 Y0.5384 I0.0057 J-0.015
G1 Y0.395
G1 X0.4395 Y0.375
G1 Y0.3804
G1 X0.3785
G1 Y0.3304
G1 Y0.3292
G1 Y0.2792
G1 X0.4395
G1 Y0.3292
G1 Y0.3298
G1 X0.4868 Y0.3771
G3 X0.4915 Y0.3884 I-0.0113 J0.0113
G1 Y0.5274
G1 X0.5419 Y0.5466
G3 X0.5555 Y0.5351 I0.0386 J0.0318
G3 X0.6305 Y0.5784 I0.025 J0.0433
G3 X0.6198 Y0.6094 I-0.05 J0.0
G0 Z0.06
G0 X0.6915 Y0.5076
G1 F2.0 Z-0.006
G1 F6.0 Y0.4576
G1 Y0.4564
G1 Y0.4064
G1 X0.7525
G1 Y0.4564
G1 Y0.4576
G1 Y0.5076
G1 X0.6915
G0 Z0.06
G0 X0.7845
G1 F2.0 Z-0.006
G1 F6.0 Y0.4134
G3 X0.7892 Y0.4021 I0.016 J0.0
G1 X0.8142 Y0.3771
G3 X0.8252 Y0.3724 I0.0113 J0.0113
G1 X0.837 Y0.3722
G1 Y0.3669
G1 Y0.3579
G1 Y0.3469
G1 X0.916
G1 Y0.3579
G1 Y0.3669
G1 Y0.4076
G1 Y0.4169
G1 Y0.4276
G1 X0.837
G1 Y0.4169
G1 Y0.4076
G1 Y0.4042
G1 X0.8323 Y0.4043
G1 X0.8165 Y0.42
G1 Y0.5318
G1 X0.8328 Y0.548
G1 X0.9349 Y0.5579
G3 X0.9555 Y0.5351 I0.0456 J0.0205
G3 X1.0305 Y0.5784 I0.025 J0.0433
G3 X0.9555 Y0.6217 I-0.05 J0.0
G3 X0.9318 Y0.5898 I0.025 J-0.0433
G1 X0.824 Y0.5793
G3 X0.8142 Y0.5747 I0.0015 J-0.0159
G1 X0.7892 Y0.5497
G3 X0.7845 Y0.5384 I0.0113 J-0.0113
G1 Y0.5076
G0 Z0.06
G0 X0.837 Y0.5069
G1 F2.0 Z-0.006
G1 F6.0 Y0.4575
G1 Y0.4479
G1 Y0.4375
G1 X0.916
G1 Y0.4479
G1 Y0.4575
G1 Y0.4614
G1 X1.0495
G3 X1.0608 Y0.4661 I0.0 J0.016
G1 X1.0771 Y0.4824
G1 X1.1839
G1 X1.1892 Y0.4771
G3 X1.2005 Y0.4724 I0.0113 J0.0113
G1 X1.2281
G3 X1.2505 Y0.4451 I0.0474 J0.016
G3 X1.3255 Y0.4884 I0.025 J0.0433
G3 X1.2505 Y0.5317 I-0.05 J0.0
G3 X1.2281 Y0.5044 I0.025 J-0.0433
G1 X1.2071
G1 X1.2018 Y0.5097
G3 X1.1905 Y0.5144 I-0.0113 J-0.0113
G1 X1.0705
G3 X1.0592 Y0.5097 I0.0 J-0.016
G1 X1.0429 Y0.4934
G1 X0.916
G1 Y0.5069
G1 X0.837
G0 Z0.06
G0 X0.7525 Y0.3804
G1 F2.0 Z-0.006
G1 F6.0 X0.6915
G1 Y0.3304
G1 Y0.3292
G1 Y0.2792
G1 X0.7525
G1 Y0.3292
G1 Y0.3304
G1 Y0.3804
G0 Z0.06
G0 X0.837 Y0.337
G1 F2.0 Z-0.006
G1 F6.0 Y0.3269
G1 Y0.317
G1 Y0.2679
G1 X0.916
G1 Y0.2814
G1 X0.9449
G1 X0.9592 Y0.2671
G3 X0.9705 Y0.2624 I0.0113 J0.0113
G1 X1.2328
G3 X1.2505 Y0.2451 I0.0427 J0.026
G3 X1.3255 Y0.2884 I0.025 J0.0433
G3 X1.2505 Y0.3317 I-0.05 J0.0
G3 X1.2259 Y0.2944 I0.025 J-0.0433
G1 X0.9771
G1 X0.9628 Y0.3087
G3 X0.9515 Y0.3134 I-0.0113 J-0.0113
G1 X0.916
G1 Y0.317
G1 Y0.3269
G1 Y0.337
G1 X0.837
G0 Z0.06
G0 X1.085
G1 F2.0 Z-0.006
G1 F6.0 Y0.3134
G1 X1.164
G1 Y0.4634
G1 X1.085
G1 Y0.337
G0 Z0.06
G0 X1.4009 Y0.295
G1 F2.0 Z-0.006
G3 F6.0 X1.4255 Y0.2451 I0.0496 J-0.0066
G3 X1.5005 Y0.2884 I0.025 J0.0433
G3 X1.4821 Y0.3271 I-0.05 J0.0
G1 X1.5405 Y0.4828
G3 X1.5412 Y0.4853 I-0.015 J0.0056
G1 X1.5652 Y0.6055
G1 X1.5821 Y0.6224
G1 X1.6689
G1 X1.7135 Y0.5778
G1 Y0.564
G3 X1.717 Y0.5555 I0.012 J0.0
G1 X1.7225 Y0.55
G1 Y0.5127
G1 X1.7525
G1 Y0.5914
G1 X1.7412
G3 X1.7368 Y0.5997 I-0.0157 J-0.003
G1 X1.6868 Y0.6497
G3 X1.6755 Y0.6544 I-0.0113 J-0.0113
G1 X1.5755
G3 X1.5642 Y0.6497 I0.0 J-0.016
G1 X1.5392 Y0.6247
G3 X1.5348 Y0.6165 I0.0113 J-0.0113
G1 X1.5101 Y0.4928
G1 X1.4522 Y0.3384
G3 X1.4255 Y0.3317 I-0.0017 J-0.05
G3 X1.4009 Y0.295 I0.025 J-0.0433
G0 Z0.06
G0 X1.4381 Y0.44
G1 F2.0 Z-0.006
G3 F6.0 X1.5005 Y0.4884 I0.0124 J0.0484
G3 X1.4255 Y0.5317 I-0.05 J0.0
G3 Y0.4451 I0.025 J-0.0433
G3 X1.4381 Y0.44 I0.025 J0.0433
G0 Z0.06
G0 X1.5851 Y0.4922
G1 F2.0 Z-0.006
G1 F6.0 X1.6851
G1 Y0.5922
G1 X1.5851
G1 Y0.4922
G0 Z0.06
G0 Y0.3835
G1 F2.0 Z-0.006
G1 F6.0 Y0.2835
G1 X1.6851
G1 Y0.3835
G1 X1.5851
G0 Z0.06
G0 X1.754 Y0.5127
G1 F2.0 Z-0.006
G1 F6.0 X1.784
G1 Y0.5768
G1 X1.7843 Y0.5827
G3 X1.784 Y0.5861 I-0.0138 J0.0007
G1 Y0.5863
G1 Y0.5914
G1 X1.783 Y0.5913
G1 X1.7756 Y0.6282
G3 X1.769 Y0.6469 I-0.0151 J0.0052
G1 X1.6415 Y0.7272
G1 Y1.0068
G1 X1.7071 Y1.0724
G1 X1.7755
G3 X1.7868 Y1.0771 I0.0 J0.016
G1 X1.8368 Y1.1271
G3 X1.8415 Y1.1384 I-0.0113 J0.0113
G1 Y1.2583
G1 X1.8587 Y1.2824
G1 X1.9423
G1 X1.9517 Y1.2692
G3 X1.9425 Y1.2464 I0.0238 J-0.0228
G1 Y1.1804
G3 X2.0085 I0.033 J0.0
G1 Y1.2464
G3 X1.9847 Y1.2781 I-0.033 J0.0
G1 X1.9635 Y1.3077
G3 X1.9505 Y1.3144 I-0.013 J-0.0093
G1 X1.8505
G3 X1.8375 Y1.3077 I0.0 J-0.016
G1 X1.8125 Y1.2727
G3 X1.8095 Y1.2634 I0.013 J-0.0093
G1 Y1.145
G1 X1.7689 Y1.1044
G1 X1.7005
G3 X1.6892 Y1.0997 I0.0 J-0.016
G1 X1.6142 Y1.0247
G3 X1.6095 Y1.0134 I0.0113 J-0.0113
G1 Y0.7184
G3 X1.617 Y0.7049 I0.016 J0.0
G1 X1.7487 Y0.6219
G1 X1.7548 Y0.5914
G1 X1.754
G1 Y0.5127
G0 Z0.06
G0 X1.7855
G1 F2.0 Z-0.006
G1 F6.0 X1.8155
G1 Y0.5914
G1 X1.8143
G1 Y0.6553
G3 X1.8087 Y0.6771 I-0.0138 J0.0081
G1 X1.7165 Y0.7325
G1 Y0.7983
G1 X1.7385 Y0.8291
G3 X1.7415 Y0.8384 I-0.013 J0.0093
G1 Y0.9818
G1 X1.7571 Y0.9974
G1 X1.7755
G3 X1.7868 Y1.0021 I0.0 J0.016
G1 X1.8868 Y1.1021
G3 X1.8915 Y1.1134 I-0.0113 J0.0113
G1 Y1.1515
G3 X1.9085 Y1.1804 I-0.016 J0.0289
G1 Y1.2464
G3 X1.8425 I-0.033 J0.0
G1 Y1.1804
G3 X1.8595 Y1.1515 I0.033 J0.0
G1 Y1.12
G1 X1.7689 Y1.0294
G1 X1.7505
G3 X1.7392 Y1.0247 I0.0 J-0.016
G1 X1.7142 Y0.9997
G3 X1.7095 Y0.9884 I0.0113 J-0.0113
G1 Y0.8435
G1 X1.6875 Y0.8127
G3 X1.6845 Y0.8034 I0.013 J-0.0093
G1 Y0.7234
G3 X1.6923 Y0.7097 I0.016 J0.0
G1 X1.7867 Y0.653
G1 Y0.5913
G1 X1.7855 Y0.5914
G1 Y0.5127
G0 Z0.06
G0 X1.817
G1 F2.0 Z-0.006
G1 F6.0 X1.847
G1 Y0.5914
G1 X1.817
G1 Y0.5127
G0 Z0.06
G0 X1.8485
G1 F2.0 Z-0.006
G1 F6.0 X1.8785
G1 Y0.5477
G3 X1.8915 Y0.5634 I-0.003 J0.0157
G1 Y0.7134
G3 X1.8868 Y0.7247 I-0.016 J0.0
G1 X1.8368 Y0.7747
G3 X1.8255 Y0.7794 I-0.0113 J-0.0113
G1 X1.8229
G3 X1.7505 Y0.8067 I-0.0474 J-0.016
G3 Y0.7201 I0.025 J-0.0433
G3 X1.8218 Y0.7445 I0.025 J0.0433
G1 X1.8595 Y0.7068
G1 Y0.5914
G1 X1.8485
G1 Y0.5127
G0 Z0.06
G0 X1.9159
G1 F2.0 Z-0.006
G1 F6.0 Y0.4922
G1 X2.0159
G1 Y0.5922
G1 X1.9159
G1 Y0.5127
G0 Z0.06
G0 Y0.3835
G1 F2.0 Z-0.006
G1 F6.0 Y0.2835
G1 X2.0159
G1 Y0.3835
G1 X1.9159
G0 Z0.06
G0 X1.9678 Y0.714
G1 F2.0 Z-0.006
G3 F6.0 X2.0255 Y0.7634 I0.0077 J0.0494
G3 X1.9505 Y0.8067 I-0.05 J0.0
G3 Y0.7201 I0.025 J-0.0433
G3 X1.9678 Y0.714 I0.025 J0.0433
G0 Z0.06
G0 X1.974 Y0.8474
G1 F2.0 Z-0.006
G3 F6.0 X2.0085 Y0.8804 I0.0015 J0.033
G1 Y0.9464
G3 X1.9425 I-0.033 J0.0
G1 Y0.8804
G3 X1.974 Y0.8474 I0.033 J0.0
G0 Z0.06
G0 X1.9068 Y0.8699
G1 F2.0 Z-0.006
G3 F6.0 X1.9085 Y0.8804 I-0.0313 J0.0105
G1 Y0.9464
G3 X1.8425 I-0.033 J0.0
G1 Y0.8804
G3 X1.9068 Y0.8699 I0.033 J0.0
G0 Z0.06
G0 X1.8084 Y0.8778
G1 F2.0 Z-0.006
G3 F6.0 X1.8085 Y0.8804 I-0.0329 J0.0026
G1 Y0.9464
G3 X1.7425 I-0.033 J0.0
G1 Y0.8804
G3 X1.8084 Y0.8778 I0.033 J0.0
G0 Z0.06
G0 X1.7085 Y0.8797
G1 F2.0 Z-0.006
G3 F6.0 Y0.8804 I-0.033 J0.0007
G1 Y0.9464
G3 X1.6425 I-0.033 J0.0
G1 Y0.8804
G3 X1.7085 Y0.8797 I0.033 J0.0
G0 Z0.06
G0 X1.6085 Y0.8802
G1 F2.0 Z-0.006
G3 F6.0 Y0.8804 I-0.033 J0.0002
G1 Y0.9464
G3 X1.5425 I-0.033 J0.0
G1 Y0.8804
G3 X1.6085 Y0.8802 I0.033 J0.0
G0 Z0.06
G0 X1.5085 Y0.8804
G1 F2.0 Z-0.006
G1 F6.0 Y0.9464
G3 X1.4425 I-0.033 J0.0
G1 Y0.8804
G3 X1.5085 I0.033 J0.0
G0 Z0.06
G0 X1.4791 Y1.1476
G1 F2.0 Z-0.006
G3 F6.0 X1.5085 Y1.1804 I-0.0036 J0.0328
G1 Y1.2464
G3 X1.4425 I-0.033 J0.0
G1 Y1.1804
G3 X1.4791 Y1.1476 I0.033 J0.0
G0 Z0.06
G0 X1.5443 Y1.1698
G1 F2.0 Z-0.006
G3 F6.0 X1.6085 Y1.1804 I0.0312 J0.0106
G1 Y1.2464
G3 X1.5425 I-0.033 J0.0
G1 Y1.1804
G3 X1.5443 Y1.1698 I0.033 J0.0
G0 Z0.06
G0 X1.5303 Y1.3136
G1 F2.0 Z-0.006
G3 F6.0 X1.5755 Y1.3634 I-0.0048 J0.0498
G3 X1.5033 Y1.4082 I-0.05 J0.0
G1 X1.4415 Y1.47
G1 Y1.6634
G3 X1.4368 Y1.6747 I-0.016 J0.0
G1 X1.3118 Y1.7997
G3 X1.3005 Y1.8044 I-0.0113 J-0.0113
G1 X1.275
G1 Y1.8379
G1 X1.176
G1 Y1.7389
G1 X1.275
G1 Y1.7724
G1 X1.2939
G1 X1.4095 Y1.6568
G1 Y1.4634
G3 X1.4142 Y1.4521 I0.016 J0.0
G1 X1.4807 Y1.3856
G3 X1.5005 Y1.3201 I0.0448 J-0.0222
G3 X1.5303 Y1.3136 I0.025 J0.0433
G0 Z0.06
G0 X1.6525 Y1.3494
G1 F2.0 Z-0.006
G3 F6.0 X1.6755 Y1.3201 I0.048 J0.014
G3 X1.7505 Y1.3634 I0.025 J0.0433
G3 X1.6755 Y1.4067 I-0.05 J0.0
G3 X1.6525 Y1.3494 I0.025 J-0.0433
G0 Z0.06
G0 X1.7502 Y1.2676
G1 F2.0 Z-0.006
G3 F6.0 X1.7425 Y1.2464 I0.0253 J-0.0212
G1 Y1.1804
G3 X1.8085 I0.033 J0.0
G1 Y1.2464
G3 X1.7502 Y1.2676 I-0.033 J0.0
G0 Z0.06
G0 X1.8484 Y1.494
G1 F2.0 Z-0.006
G3 F6.0 X1.9085 Y1.5334 I0.0171 J0.0394
G3 X1.844 Y1.5706 I-0.043 J0.0
G3 Y1.4962 I0.0215 J-0.0372
G3 X1.8484 Y1.494 I0.0215 J0.0372
G0 Z0.06
G0 X1.8603 Y1.5907
G1 F2.0 Z-0.006
G3 F6.0 X1.9085 Y1.6334 I0.0052 J0.0427
G3 X1.844 Y1.6706 I-0.043 J0.0
G3 Y1.5962 I0.0215 J-0.0372
G3 X1.8603 Y1.5907 I0.0215 J0.0372
G0 Z0.06
G0 X1.7345 Y1.7267
G1 F2.0 Z-0.006
G3 F6.0 X1.7505 Y1.7634 I-0.034 J0.0367
G3 X1.6755 Y1.8067 I-0.05 J0.0
G3 Y1.7201 I0.025 J-0.0433
G3 X1.7345 Y1.7267 I0.025 J0.0433
G0 Z0.06
G0 X1.5415
G1 F2.0 Z-0.006
G1 F6.0 Y1.7384
G3 X1.5368 Y1.7497 I-0.016 J0.0
G1 X1.3868 Y1.8997
G3 X1.3755 Y1.9044 I-0.0113 J-0.0113
G1 X1.275
G1 Y1.9379
G1 X1.2415
G1 Y1.9389
G1 X1.275
G1 Y2.0379
G1 X1.176
G1 Y1.9389
G1 X1.2095
G1 Y1.9379
G1 X1.176
G1 Y1.9044
G1 X1.0005
G3 X0.9892 Y1.8997 I0.0 J-0.016
G1 X0.9689 Y1.8794
G1 X0.7071
G1 X0.5868 Y1.9997
G3 X0.5755 Y2.0044 I-0.0113 J-0.0113
G1 X0.575
G1 Y2.0379
G1 X0.476
G1 Y2.0044
G1 X0.4505
G3 X0.4392 Y1.9997 I0.0 J-0.016
G1 X0.2392 Y1.7997
G3 X0.2345 Y1.7884 I0.0113 J-0.0113
G1 Y1.0134
G3 X0.2383 Y1.003 I0.016 J0.0
G1 X0.3795 Y0.8375
G1 Y0.6913
G1 X0.3337 Y0.6561
G3 X0.3285 Y0.6564 I-0.0052 J-0.0427
G1 X0.2425
G3 Y0.5704 I0.0 J-0.043
G1 X0.3254
G1 X0.3857 Y0.5337
G1 X0.3893 Y0.5076
G1 X0.3785
G1 Y0.4576
G1 Y0.4564
G1 Y0.4064
G1 X0.4395
G1 Y0.4564
G1 Y0.4576
G1 Y0.5076
G1 X0.4216
G1 X0.4163 Y0.5456
G3 X0.4088 Y0.5571 I-0.0158 J-0.0022
G1 X0.3615 Y0.5859
G3 X0.3634 Y0.6385 I-0.033 J0.0275
G1 X0.4053 Y0.6707
G3 X0.4115 Y0.6834 I-0.0098 J0.0127
G1 Y0.8434
G3 X0.4077 Y0.8538 I-0.016 J0.0
G1 X0.2665 Y1.0193
G1 Y1.7818
G1 X0.4571 Y1.9724
G1 X0.476
G1 Y1.9389
G1 X0.575
G1 Y1.9663
G1 X0.6892 Y1.8521
G3 X0.7005 Y1.8474 I0.0113 J0.0113
G1 X0.9755
G3 X0.9868 Y1.8521 I0.0 J0.016
G1 X1.0071 Y1.8724
G1 X1.176
G1 Y1.8389
G1 X1.275
G1 Y1.8724
G1 X1.3689
G1 X1.5095 Y1.7318
G1 Y1.6108
G3 X1.5005 Y1.6067 I0.016 J-0.0474
G3 Y1.5201 I0.025 J-0.0433
G3 X1.5755 Y1.5634 I0.025 J0.0433
G3 X1.5415 Y1.6108 I-0.05 J0.0
G1 Y1.7267
G0 Z0.06
G0 X1.3887 Y1.6224
G1 F2.0 Z-0.006
G3 F6.0 X1.3868 Y1.6247 I-0.0132 J-0.009
G1 X1.3118 Y1.6997
G3 X1.3005 Y1.7044 I-0.0113 J-0.0113
G1 X1.275
G1 Y1.7379
G1 X1.176
G1 Y1.6389
G1 X1.275
G1 Y1.6724
G1 X1.2939
G1 X1.3595 Y1.6068
G1 Y1.42
G1 X1.2642 Y1.3247
G3 X1.2595 Y1.3134 I0.0113 J-0.0113
G1 Y1.2753
G3 X1.2425 Y1.2464 I0.016 J-0.0289
G1 Y1.1804
G3 X1.3085 I0.033 J0.0
G1 Y1.2464
G3 X1.2915 Y1.2753 I-0.033 J0.0
G1 Y1.3068
G1 X1.3868 Y1.4021
G3 X1.3915 Y1.4134 I-0.0113 J0.0113
G1 Y1.6134
G3 X1.3887 Y1.6224 I-0.016 J0.0
G0 Z0.06
G0 X1.275 Y1.5379
G1 F2.0 Z-0.006
G1 F6.0 X1.176
G1 Y1.5044
G1 X1.0505
G3 X1.0392 Y1.4997 I0.0 J-0.016
G1 X0.8642 Y1.3247
G3 X0.8595 Y1.3134 I0.0113 J-0.0113
G1 Y1.2753
G3 X0.8425 Y1.2464 I0.016 J-0.0289
G1 Y1.1804
G3 X0.9085 I0.033 J0.0
G1 Y1.2464
G3 X0.8915 Y1.2753 I-0.033 J0.0
G1 Y1.3068
G1 X1.0571 Y1.4724
G1 X1.176
G1 Y1.4389
G1 X1.275
G1 Y1.5379
G0 Z0.06
G0 X1.1862 Y1.2776
G1 F2.0 Z-0.006
G3 F6.0 X1.1425 Y1.2464 I-0.0107 J-0.0312
G1 Y1.1804
G3 X1.2085 I0.033 J0.0
G1 Y1.2464
G3 X1.1862 Y1.2776 I-0.033 J0.0
G0 Z0.06
G0 X1.1073 Y1.2554
G1 F2.0 Z-0.006
G3 F6.0 X1.0425 Y1.2464 I-0.0318 J-0.009
G1 Y1.1804
G3 X1.1085 I0.033 J0.0
G1 Y1.2464
G3 X1.1073 Y1.2554 I-0.033 J0.0
G0 Z0.06
G0 X1.0084 Y1.2486
G1 F2.0 Z-0.006
G3 F6.0 X0.9425 Y1.2464 I-0.0329 J-0.0022
G1 Y1.1804
G3 X1.0085 I0.033 J0.0
G1 Y1.2464
G3 X1.0084 Y1.2486 I-0.033 J0.0
G0 Z0.06
G0 X0.8085 Y1.2467
G1 F2.0 Z-0.006
G3 F6.0 X0.7425 Y1.2464 I-0.033 J-0.0003
G1 Y1.1804
G3 X0.8085 I0.033 J0.0
G1 Y1.2464
G3 Y1.2467 I-0.033 J0.0
G0 Z0.06
G0 X0.7085 Y1.2465
G1 F2.0 Z-0.006
G3 F6.0 X0.6425 Y1.2464 I-0.033 J-0.0001
G1 Y1.1804
G3 X0.7085 I0.033 J0.0
G1 Y1.2464
G1 Y1.2465
G0 Z0.06
G0 X0.575 Y1.4389
G1 F2.0 Z-0.006
G1 F6.0 Y1.5379
G1 X0.476
G1 Y1.4858
G1 X0.3946 Y1.4533
G3 X0.3845 Y1.4384 I0.0059 J-0.0149
G1 Y1.4108
G3 X0.3755 Y1.4067 I0.016 J-0.0474
G3 Y1.3201 I0.025 J-0.0433
G3 X0.4505 Y1.3634 I0.025 J0.0433
G3 X0.4165 Y1.4108 I-0.05 J0.0
G1 Y1.4276
G1 X0.476 Y1.4514
G1 Y1.4389
G1 X0.575
G0 Z0.06
G0 X0.4462 Y1.0509
G1 F2.0 Z-0.006
G3 F6.0 X0.4055 Y1.0467 I-0.0157 J-0.0475
G3 Y0.9601 I0.025 J-0.0433
G3 X0.4805 Y1.0034 I0.025 J0.0433
G3 X0.4462 Y1.0509 I-0.05 J0.0
G0 Z0.06
G0 X0.3476 Y0.8519
G1 F2.0 Z-0.006
G3 F6.0 X0.3285 Y0.8564 I-0.0191 J-0.0385
G1 X0.2425
G3 Y0.7704 I0.0 J-0.043
G1 X0.3285
G3 X0.3476 Y0.8519 I0.0 J0.043
G0 Z0.06
G0 X0.3344 Y0.756
G1 F2.0 Z-0.006
G3 F6.0 X0.3285 Y0.7564 I-0.0059 J-0.0426
G1 X0.2425
G3 Y0.6704 I0.0 J-0.043
G1 X0.3285
G3 X0.3344 Y0.756 I0.0 J0.043
G0 Z0.06
G0 X0.4039 Y0.6457
G1 F2.0 Z-0.006
G3 F6.0 X0.4055 Y0.5601 I0.0266 J-0.0423
G3 X0.4805 Y0.6034 I0.025 J0.0433
G3 X0.4055 Y0.6467 I-0.05 J0.0
G3 X0.4039 Y0.6457 I0.025 J-0.0433
G0 Z0.06
G0 X0.3498 Y0.5508
G1 F2.0 Z-0.006
G3 F6.0 X0.3285 Y0.5564 I-0.0213 J-0.0374
G1 X0.2425
G3 Y0.4704 I0.0 J-0.043
G1 X0.3285
G3 X0.3498 Y0.5508 I0.0 J0.043
G0 Z0.06
G0 X0.3351 Y0.4559
G1 F2.0 Z-0.006
G3 F6.0 X0.3285 Y0.4564 I-0.0066 J-0.0425
G1 X0.2425
G3 Y0.3704 I0.0 J-0.043
G1 X0.3285
G3 X0.3351 Y0.4559 I0.0 J0.043
( texte )
M0
S1000
G0 Z0.06
G0 X1.5255 Y2.0467
G1 F2.0 Z-0.006
G1 F6.0 X1.5741 Y1.9374
G1 X1.6227 Y2.0467
G1 X1.6321 Y1.9381
G1 X1.6227 Y2.0467
G1 X1.5741 Y1.9374
G1 X1.5255 Y2.0467
G1 X1.5162 Y1.9381
G1 X1.5255 Y2.0467
G0 Z0.06
G0 X1.5237 Y1.9097
G1 F2.0 Z-0.006
G2 F6.0 X1.5323 Y1.9082 I-0.0004 J-0.0287
G2 X1.5399 Y1.9034 I-0.006 J-0.0178
G2 X1.543 Y1.8993 I-0.0144 J-0.0139
G2 X1.5451 Y1.8946 I-0.0239 J-0.0135
G2 X1.5465 Y1.8882 I-0.0305 J-0.0104
G2 X1.5469 Y1.8816 I-0.0513 J-0.0064
G2 X1.5465 Y1.8749 I-0.0523 J-0.0002
G2 X1.5451 Y1.8685 I-0.0317 J0.0038
G2 X1.543 Y1.8639 I-0.0254 J0.0088
G2 X1.5399 Y1.8599 I-0.0172 J0.0099
G2 X1.5323 Y1.8551 I-0.0138 J0.0137
G2 X1.5231 Y1.8537 I-0.009 J0.0279
G2 X1.5138 Y1.8551 I-0.0002 J0.0294
G2 X1.5062 Y1.8599 I0.0062 J0.0184
G2 X1.5032 Y1.8639 I0.0142 J0.0139
G2 X1.5011 Y1.8685 I0.0233 J0.0134
G2 X1.4996 Y1.8749 I0.0302 J0.0103
G2 X1.4992 Y1.8816 I0.0518 J0.0064
G2 X1.4996 Y1.8882 I0.0517 J0.0002
G2 X1.5011 Y1.8946 I0.032 J-0.0039
G2 X1.5032 Y1.8993 I0.0259 J-0.0088
G2 X1.5062 Y1.9034 I0.0174 J-0.0099
G2 X1.5138 Y1.9082 I0.0136 J-0.013
G2 X1.5231 Y1.9097 I0.0091 J-0.0272
G2 X1.5237 I0.0002 J-0.0287
G2 X1.5323 Y1.9082 I-0.0004 J-0.0287
G2 X1.5399 Y1.9034 I-0.006 J-0.0178
G2 X1.543 Y1.8993 I-0.0144 J-0.0139
G2 X1.5451 Y1.8946 I-0.0239 J-0.0135
G2 X1.5465 Y1.8882 I-0.0305 J-0.0104
G2 X1.5469 Y1.8816 I-0.0513 J-0.0064
G2 X1.5465 Y1.8749 I-0.0523 J-0.0002
G2 X1.5451 Y1.8685 I-0.0317 J0.0038
G2 X1.543 Y1.8639 I-0.0254 J0.0088
G2 X1.5399 Y1.8599 I-0.0172 J0.0099
G2 X1.5323 Y1.8551 I-0.0138 J0.0137
G2 X1.5231 Y1.8537 I-0.009 J0.0279
G2 X1.5138 Y1.8551 I-0.0002 J0.0294
G2 X1.5062 Y1.8599 I0.0062 J0.0184
G2 X1.5032 Y1.8639 I0.0142 J0.0139
G2 X1.5011 Y1.8685 I0.0233 J0.0134
G2 X1.4996 Y1.8749 I0.0302 J0.0103
G2 X1.4992 Y1.8816 I0.0518 J0.0064
G2 X1.4996 Y1.8882 I0.0517 J0.0002
G2 X1.5011 Y1.8946 I0.032 J-0.0039
G2 X1.5032 Y1.8993 I0.0259 J-0.0088
G2 X1.5062 Y1.9034 I0.0174 J-0.0099
G2 X1.5138 Y1.9082 I0.0136 J-0.013
G2 X1.5231 Y1.9097 I0.0091 J-0.0272
G2 X1.5237 I0.0002 J-0.0287
G0 Z0.06
G0 X1.5735 Y1.8541
G1 F2.0 Z-0.006
G1 F6.0 Y1.9082
G1 X1.5908
G2 X1.5951 Y1.908 I0.0002 J-0.0357
G2 X1.5993 Y1.9071 I-0.0022 J-0.02
G2 X1.6045 Y1.904 I-0.0042 J-0.0132
G2 X1.6072 Y1.8995 I-0.0072 J-0.0074
G2 X1.6082 Y1.8943 I-0.0198 J-0.0063
G2 X1.6075 Y1.889 I-0.0184 J-0.0005
G2 X1.605 Y1.8842 I-0.011 J0.0028
G2 X1.6 Y1.8808 I-0.0101 J0.0094
G2 X1.5962 Y1.8798 I-0.0061 J0.0148
G2 X1.5922 Y1.8795 I-0.0038 J0.0259
G1 X1.5735
G1 X1.5922
G3 X1.5961 Y1.8798 I0.0001 J0.0255
G3 X1.5999 Y1.8808 I-0.0023 J0.0159
G3 X1.6049 Y1.8842 I-0.0051 J0.0128
G3 X1.6075 Y1.889 I-0.0087 J0.0078
G3 X1.6082 Y1.8943 I-0.0169 J0.0049
G3 X1.6072 Y1.8995 I-0.0208 J-0.0011
G3 X1.6045 Y1.904 I-0.0098 J-0.003
G3 X1.5993 Y1.9071 I-0.0097 J-0.0104
G3 X1.5951 Y1.908 I-0.0064 J-0.0187
G3 X1.5908 Y1.9082 I-0.0041 J-0.0353
G1 X1.5735
G1 Y1.8541
G0 Z0.06
G0 X1.6349
G1 F2.0 Z-0.006
G1 F6.0 Y1.9079
G1 X1.6698
G1 X1.6349
G1 Y1.8541
G1 X1.6698
G1 X1.6349
G0 Z0.06
G0 Y1.8818
G1 F2.0 Z-0.006
G1 F6.0 X1.6668
G1 X1.6349
G0 Z0.06
G0 X1.6962 Y1.8541
G1 F2.0 Z-0.006
G1 F6.0 Y1.9082
G1 X1.7159
G2 X1.7202 Y1.9081 I0.0002 J-0.0476
G2 X1.7244 Y1.9074 I-0.002 J-0.025
G2 X1.7295 Y1.9049 I-0.0031 J-0.013
G2 X1.7321 Y1.9011 I-0.0053 J-0.0064
G2 X1.733 Y1.8962 I-0.0167 J-0.0057
G2 X1.7324 Y1.8909 I-0.0197 J-0.0005
G2 X1.73 Y1.8862 I-0.0106 J0.0027
G2 X1.7251 Y1.883 I-0.0094 J0.0088
G2 X1.7213 Y1.882 I-0.006 J0.0153
G2 X1.7174 Y1.8817 I-0.0037 J0.0266
G1 X1.6962
G1 X1.7174
G3 X1.7213 Y1.882 I0.0001 J0.0261
G3 X1.725 Y1.883 I-0.0022 J0.0159
G3 X1.7298 Y1.8862 I-0.0048 J0.0124
G3 X1.7324 Y1.8909 I-0.0081 J0.0075
G3 X1.733 Y1.8962 I-0.0182 J0.0048
G3 X1.7321 Y1.9011 I-0.0168 J-0.0008
G3 X1.7294 Y1.9049 I-0.008 J-0.0028
G3 X1.727 Y1.9064 I-0.0069 J-0.0085
G3 X1.7242 Y1.9074 I-0.0072 J-0.0162
G3 X1.7201 Y1.9081 I-0.0062 J-0.0242
G3 X1.7159 Y1.9082 I-0.004 J-0.0454
G1 X1.6962
G1 Y1.8541
G0 Z0.06
G0 X1.7185 Y1.8817
G1 F2.0 Z-0.006
G2 F6.0 X1.7235 Y1.8812 I0.0003 J-0.0208
G2 X1.7279 Y1.879 I-0.0023 J-0.0104
G2 X1.7315 Y1.8718 I-0.0066 J-0.0077
G1 X1.7328 Y1.8582
G3 X1.7332 Y1.8562 I0.0082 J0.0005
G3 X1.7347 Y1.8541 I0.0038 J0.0012
G2 X1.7332 Y1.8562 I0.0023 J0.0033
G2 X1.7328 Y1.8582 I0.0079 J0.0025
G1 X1.7315 Y1.8718
G3 X1.7304 Y1.8758 I-0.0111 J-0.0008
G3 X1.7279 Y1.879 I-0.0089 J-0.0043
G3 X1.7235 Y1.8812 I-0.0068 J-0.0082
G3 X1.7185 Y1.8817 I-0.0047 J-0.0203
G0 Z0.06
G0 X1.7746 Y1.9082
G1 F2.0 Z-0.006
G1 F6.0 X1.7961 Y1.8541
G1 X1.7746 Y1.9082
G1 X1.7532 Y1.8541
G1 X1.7746 Y1.9082
G0 Z0.06
G0 X1.7893 Y1.8712
G1 F2.0 Z-0.006
G1 F6.0 X1.7599
G1 X1.7893
G0 Z0.06
G0 X1.8339 Y1.9082
G1 F2.0 Z-0.006
G1 F6.0 X1.8534
G1 X1.8144
G1 X1.8339
G1 Y1.8541
G1 Y1.9082
G0 Z0.06
G0 X1.8166 Y1.9374
G1 F2.0 Z-0.006
G1 F6.0 Y2.0453
G1 X1.8484
G1 X1.7847
G1 X1.8166
G1 Y1.9374
G0 Z0.06
G0 X1.8776
G1 F2.0 Z-0.006
G1 F6.0 X1.9201 Y2.0453
G1 X1.9629 Y1.9374
G1 X1.9201 Y2.0453
G1 X1.8776 Y1.9374
G0 Z0.06
G0 X1.8866 Y1.9084
G1 F2.0 Z-0.006
G2 F6.0 X1.8954 Y1.9097 I0.0085 J-0.0274
G2 X1.9046 Y1.9082 I0.0002 J-0.0287
G2 X1.9122 Y1.9034 I-0.006 J-0.0178
G2 X1.9153 Y1.8993 I-0.0144 J-0.0139
G2 X1.9173 Y1.8946 I-0.0239 J-0.0135
G2 X1.9188 Y1.8882 I-0.0305 J-0.0104
G2 X1.9192 Y1.8816 I-0.0513 J-0.0064
G2 X1.9188 Y1.8749 I-0.0523 J-0.0002
G2 X1.9173 Y1.8685 I-0.0317 J0.0038
G2 X1.9153 Y1.8639 I-0.0254 J0.0088
G2 X1.9122 Y1.8599 I-0.0172 J0.0099
G2 X1.9046 Y1.8551 I-0.0138 J0.0137
G2 X1.8954 Y1.8537 I-0.009 J0.0279
G2 X1.8861 Y1.8551 I-0.0002 J0.0294
G2 X1.8785 Y1.8599 I0.0062 J0.0184
G2 X1.8755 Y1.8639 I0.0142 J0.0139
G2 X1.8734 Y1.8685 I0.0233 J0.0134
G2 X1.8719 Y1.8749 I0.0302 J0.0103
G2 X1.8715 Y1.8816 I0.0518 J0.0064
G2 X1.8719 Y1.8882 I0.0517 J0.0002
G2 X1.8734 Y1.8946 I0.032 J-0.0039
G2 X1.8755 Y1.8993 I0.0259 J-0.0088
G2 X1.8785 Y1.9034 I0.0174 J-0.0099
G2 X1.8861 Y1.9082 I0.0136 J-0.013
G2 X1.8866 Y1.9084 I0.0091 J-0.0272
G2 X1.8954 Y1.9097 I0.0085 J-0.0274
G2 X1.9046 Y1.9082 I0.0002 J-0.0287
G2 X1.9122 Y1.9034 I-0.006 J-0.0178
G2 X1.9153 Y1.8993 I-0.0144 J-0.0139
G2 X1.9173 Y1.8946 I-0.0239 J-0.0135
G2 X1.9188 Y1.8882 I-0.0305 J-0.0104
G2 X1.9192 Y1.8816 I-0.0513 J-0.0064
G2 X1.9188 Y1.8749 I-0.0523 J-0.0002
G2 X1.9173 Y1.8685 I-0.0317 J0.0038
G2 X1.9153 Y1.8639 I-0.0254 J0.0088
G2 X1.9122 Y1.8599 I-0.0172 J0.0099
G2 X1.9046 Y1.8551 I-0.0138 J0.0137
G2 X1.8954 Y1.8537 I-0.009 J0.0279
G2 X1.8861 Y1.8551 I-0.0002 J0.0294
G2 X1.8785 Y1.8599 I0.0062 J0.0184
G2 X1.8755 Y1.8639 I0.0142 J0.0139
G2 X1.8734 Y1.8685 I0.0233 J0.0134
G2 X1.8719 Y1.8749 I0.0302 J0.0103
G2 X1.8715 Y1.8816 I0.0518 J0.0064
G2 X1.8719 Y1.8882 I0.0517 J0.0002
G2 X1.8734 Y1.8946 I0.032 J-0.0039
G2 X1.8755 Y1.8993 I0.0259 J-0.0088
G2 X1.8785 Y1.9034 I0.0174 J-0.0099
G2 X1.8861 Y1.9082 I0.0136 J-0.013
G2 X1.8866 Y1.9084 I0.0091 J-0.0272
G0 Z0.06
G0 X1.9458 Y1.8541
G1 F2.0 Z-0.006
G1 F6.0 Y1.9082
G1 X1.9655
G2 X1.9698 Y1.9081 I0.0002 J-0.0476
G2 X1.974 Y1.9074 I-0.002 J-0.025
G2 X1.9791 Y1.9049 I-0.0031 J-0.013
G2 X1.9817 Y1.9011 I-0.0053 J-0.0064
G2 X1.9826 Y1.8962 I-0.0167 J-0.0057
G2 X1.9821 Y1.8909 I-0.0197 J-0.0005
G2 X1.9796 Y1.8862 I-0.0106 J0.0027
G2 X1.9747 Y1.883 I-0.0094 J0.0088
G2 X1.9709 Y1.882 I-0.006 J0.0153
G2 X1.967 Y1.8817 I-0.0037 J0.0266
G1 X1.9458
G1 X1.967
G3 X1.9709 Y1.882 I0.0001 J0.0261
G3 X1.9746 Y1.883 I-0.0022 J0.0159
G3 X1.9795 Y1.8862 I-0.0048 J0.0124
G3 X1.982 Y1.8909 I-0.0081 J0.0075
G3 X1.9826 Y1.8962 I-0.0182 J0.0048
G3 X1.9817 Y1.9011 I-0.0168 J-0.0008
G3 X1.979 Y1.9049 I-0.008 J-0.0028
G3 X1.9766 Y1.9064 I-0.0069 J-0.0085
G3 X1.9739 Y1.9074 I-0.0072 J-0.0162
G3 X1.9697 Y1.9081 I-0.0062 J-0.0242
G3 X1.9655 Y1.9082 I-0.004 J-0.0454
G1 X1.9458
G1 Y1.8541
G0 Z0.06
G0 X1.9681 Y1.8817
G1 F2.0 Z-0.006
G2 F6.0 X1.9731 Y1.8812 I0.0003 J-0.0208
G2 X1.9776 Y1.879 I-0.0023 J-0.0104
G2 X1.9811 Y1.8718 I-0.0066 J-0.0077
G1 X1.9824 Y1.8582
G3 X1.9828 Y1.8562 I0.0082 J0.0005
G3 X1.9843 Y1.8541 I0.0038 J0.0012
G2 X1.9828 Y1.8562 I0.0023 J0.0033
G2 X1.9824 Y1.8582 I0.0079 J0.0025
G1 X1.9811 Y1.8718
G3 X1.98 Y1.8758 I-0.0111 J-0.0008
G3 X1.9776 Y1.879 I-0.0089 J-0.0043
G3 X1.9731 Y1.8812 I-0.0068 J-0.0082
G3 X1.9681 Y1.8817 I-0.0047 J-0.0203
G0 Z0.06
G0 X1.9476 Y1.9759
G1 F2.0 Z-0.006
G1 F6.0 X1.8925
G1 X1.9476
G0 Z0.06
G0 X1.7484 Y1.9766
G1 F2.0 Z-0.006
G2 F6.0 X1.7465 Y1.9593 I-0.0731 J-0.001
G2 X1.7405 Y1.9472 I-0.0274 J0.006
G2 X1.7292 Y1.9399 I-0.0196 J0.0182
G2 X1.7205 Y1.938 I-0.0136 J0.0409
G2 X1.7117 Y1.9375 I-0.0085 J0.0719
G2 X1.7029 Y1.938 I-0.0003 J0.0718
G2 X1.6944 Y1.9399 I0.0045 J0.0398
G2 X1.6839 Y1.9473 I0.0075 J0.0219
G2 X1.6786 Y1.9596 I0.0238 J0.0175
G2 X1.6772 Y1.9766 I0.0919 J0.0161
G1 Y2.0463
G1 Y1.9766
G3 X1.6786 Y1.9596 I0.0933 J-0.0009
G3 X1.6839 Y1.9473 I0.0291 J0.0052
G3 X1.6944 Y1.9399 I0.018 J0.0145
G3 X1.7029 Y1.938 I0.013 J0.0379
G3 X1.7117 Y1.9375 I0.0084 J0.0714
G3 X1.7205 Y1.938 I0.0003 J0.0723
G3 X1.7292 Y1.9399 I-0.0049 J0.0428
G3 X1.7405 Y1.9472 I-0.0083 J0.0255
G3 X1.7465 Y1.9593 I-0.0214 J0.0181
G3 X1.7484 Y1.9766 I-0.0713 J0.0163
G1 Y2.0463
G1 Y1.9766
G0 Z0.06
G0 X1.7523 Y1.6346
G1 F2.0 Z-0.006
G1 F6.0 X1.7834
G1 X1.7523
G0 Z0.06
G0 X1.9431 Y1.6386
G1 F2.0 Z-0.006
G1 F6.0 Y1.6319
G1 Y1.6386
G1 X1.9899
G1 X1.9431
G0 Z0.06
G0 X1.9602 Y1.5949
G1 F2.0 Z-0.006
G1 F6.0 X1.9738 Y1.5794
G1 X1.9896 Y1.5987
G1 X1.9738 Y1.5794
G2 X1.9818 I0.0087 J-0.593
G1 X1.9847
G1 X1.9873
G2 X1.9891 I0.0002 J-0.0405
G2 X1.9896 I-0.0012 J-0.0264
G1 X1.9352
G1 X1.9738
G1 X1.9602 Y1.5949
G0 Z0.06
G0 X1.9898 Y1.5578
G1 F2.0 Z-0.006
G1 F6.0 X1.9691
G3 X1.9657 Y1.5574 I-0.0002 J-0.0156
G3 X1.9625 Y1.5561 I0.0018 J-0.0087
G3 X1.9605 Y1.5534 I0.003 J-0.0042
G3 X1.9601 Y1.5501 I0.0098 J-0.0031
G3 X1.9611 Y1.5461 I0.0081 J-0.0001
G3 X1.9636 Y1.543 I0.0102 J0.0057
G3 X1.967 Y1.5409 I0.0078 J0.009
G3 X1.9704 Y1.5401 I0.0041 J0.0098
G2 X1.967 Y1.5409 I0.0006 J0.0106
G2 X1.9636 Y1.543 I0.0045 J0.011
G2 X1.9611 Y1.5461 I0.0077 J0.0088
G2 X1.9601 Y1.5501 I0.0071 J0.0039
G2 X1.9605 Y1.5534 I0.0103 J0.0002
G2 X1.9625 Y1.5561 I0.005 J-0.0016
G2 X1.9657 Y1.5574 I0.005 J-0.0073
G2 X1.9691 Y1.5578 I0.0033 J-0.0153
G1 X1.9898
G0 Z0.06
G0 Y1.5401
G1 F2.0 Z-0.006
G1 F6.0 X1.9691
G3 X1.9657 Y1.5398 I-0.0002 J-0.0156
G3 X1.9625 Y1.5384 I0.0018 J-0.0087
G3 X1.9605 Y1.5357 I0.003 J-0.0042
G3 X1.9601 Y1.5324 I0.0101 J-0.0031
G3 X1.9611 Y1.5284 I0.008 J-0.0001
G3 X1.9636 Y1.5253 I0.0102 J0.0057
G3 X1.967 Y1.5232 I0.0078 J0.009
G3 X1.9704 Y1.5224 I0.0041 J0.0098
G2 X1.967 Y1.5232 I0.0006 J0.0106
G2 X1.9636 Y1.5253 I0.0045 J0.011
G2 X1.9611 Y1.5284 I0.0077 J0.0088
G2 X1.9601 Y1.5324 I0.007 J0.0039
G2 X1.9605 Y1.5357 I0.0106 J0.0002
G2 X1.9625 Y1.5384 I0.005 J-0.0015
G2 X1.9657 Y1.5398 I0.005 J-0.0073
G2 X1.9691 Y1.5401 I0.0033 J-0.0153
G1 X1.9898
G0 Z0.06
G0 Y1.5224
G1 F2.0 Z-0.006
G1 F6.0 X1.9605
G1 X1.9898
G0 Z0.06
G0 X1.2832 Y0.7654
G1 F2.0 Z-0.006
G1 F6.0 Y0.7497
G1 X1.2677
G1 X1.2832
G1 Y0.7341
G1 Y0.7497
G1 X1.2988
G1 X1.2832
G1 Y0.7654
G0 Z0.06
G0 X1.2055 Y0.3509
G1 F2.0 Z-0.006
G1 F6.0 Y0.3353
G1 X1.1899
G1 X1.2055
G1 Y0.3196
G1 Y0.3353
G1 X1.221
G1 X1.2055
G1 Y0.3509
G0 Z0.06
G0 X0.6842 Y1.0764
G1 F2.0 Z-0.006
G2 F6.0 X0.6911 Y1.0756 I0.0004 J-0.0292
G2 X0.696 Y1.0732 I-0.0024 J-0.011
G2 X0.6989 Y1.0687 I-0.0073 J-0.0078
G2 X0.6996 Y1.0652 I-0.0164 J-0.0054
G2 X0.6999 Y1.0617 I-0.0287 J-0.0034
G2 X0.6997 Y1.0582 I-0.0287 J-0.0001
G2 X0.6989 Y1.0548 I-0.0159 J0.0018
G2 X0.6959 Y1.0505 I-0.0088 J0.003
G2 X0.691 Y1.0484 I-0.007 J0.0095
G2 X0.6842 Y1.0479 I-0.0064 J0.0368
G1 X0.6563
G1 X0.6842
G3 X0.691 Y1.0484 I0.0004 J0.0373
G3 X0.6959 Y1.0505 I-0.0021 J0.0116
G3 X0.6989 Y1.0548 I-0.0058 J0.0072
G3 X0.6997 Y1.0582 I-0.0152 J0.0052
G3 X0.6999 Y1.0617 I-0.0286 J0.0034
G3 X0.6996 Y1.0652 I-0.0289 J0.0001
G3 X0.6989 Y1.0687 I-0.0171 J-0.002
G3 X0.696 Y1.0732 I-0.0102 J-0.0033
G3 X0.6911 Y1.0756 I-0.0073 J-0.0086
G3 X0.6842 Y1.0764 I-0.0065 J-0.0285
G1 X0.6563
G1 X0.6842
G0 Z0.06
G0 X0.1554 Y0.8357
G1 F2.0 Z-0.006
G1 F6.0 X0.1492
G1 X0.1554
G1 Y0.7924
G1 Y0.8357
( trous_ref_07 )
M0
G0 Z0.06
( T2 : 0.027 )
T2 M6
M3 S1000
G0 X0.0505 Y0.1634
G98
G81 X0.0505 Y0.1634 Z-0.09 R0.06 F4.0
G81 Y2.1384 Z-0.09
G81 X1.0755 Z-0.09
G81 X2.1005 Z-0.09
G81 Y0.1634 Z-0.09
G80
G0 Z0.06
M5
M30
