( Made using CamBam - http://www.cambam.co.uk )
( operator.sol 10/5/2014 3:15:13 PM )
( T1 : 0.008 )
( T2 : 0.027 )
( T3 : 0.04 )
( T4 : 0.12 )
G20 G90 G64 G40
G0 Z0.06
( T2 : 0.027 )
T2 M6
( fake_ref )
M0
G17
M3 S1000
G0 X0.0505 Y0.1634
G98
G81 X0.0505 Y0.1634 Z-0.001 R0.06 F4.0
G81 Y2.1384 Z-0.001
G81 X1.0755 Z-0.001
G81 X2.1005 Z-0.001
G81 Y0.1634 Z-0.001
G80
( isolation )
M0
G0 Z0.06
( T1 : 0.008 )
T1 M6
M3 S1000
G0 X1.4165 Y1.2546
G1 F2.0 Z-0.006
G1 F6.0 Y1.2412
G1 Y1.2254
G1 Y1.2095
G1 Y1.1937
G1 Y1.1778
G1 Y1.1723
G1 X1.4102 Y1.1572
G1 X1.3988 Y1.1457
G1 X1.3836 Y1.1394
G1 X1.3674
G1 X1.3522 Y1.1457
G1 X1.3408 Y1.1572
G1 X1.3345 Y1.1723
G1 Y1.1778
G1 Y1.1937
G1 Y1.2095
G1 Y1.2254
G1 Y1.2412
G1 Y1.2546
G1 X1.3408 Y1.2697
G1 X1.3522 Y1.2812
G1 X1.3523
G3 X1.3531 Y1.2815 I-0.0026 J0.0076
G1 X1.3628 Y1.2855
G3 X1.3655 Y1.2873 I-0.003 J0.0074
G1 X1.4039 Y1.3258
G3 X1.3982 Y1.3394 I-0.0057 J0.0056
G1 X1.2888
G3 X1.2831 Y1.3371 I0.0 J-0.008
G1 X1.2729 Y1.3269
G3 X1.2714 Y1.3254 I0.0049 J-0.0064
G1 X1.2563 Y1.3103
G1 X1.2412 Y1.2952
G3 X1.2397 Y1.2937 I0.0049 J-0.0064
G1 X1.2246 Y1.2786
G1 X1.2156 Y1.2696
G3 X1.2139 Y1.2608 I0.0057 J-0.0057
G1 X1.2165 Y1.2546
G1 Y1.2412
G1 Y1.2254
G1 Y1.2095
G1 Y1.1937
G1 Y1.1778
G1 Y1.1723
G1 X1.2102 Y1.1572
G1 X1.1988 Y1.1457
G1 X1.1836 Y1.1394
G1 X1.1674
G1 X1.1522 Y1.1457
G1 X1.1408 Y1.1572
G1 X1.1345 Y1.1723
G1 Y1.1778
G1 Y1.1937
G1 Y1.2095
G1 Y1.2254
G1 Y1.2412
G1 Y1.2546
G1 X1.1408 Y1.2697
G1 X1.1522 Y1.2812
G1 X1.1523
G3 X1.1531 Y1.2815 I-0.0026 J0.0076
G1 X1.1628 Y1.2855
G3 X1.1655 Y1.2872 I-0.003 J0.0074
G1 X1.2541 Y1.3759
G1 X1.2619 Y1.3838
G1 X1.2707 Y1.3874
G1 X1.6923
G3 X1.6997 Y1.3924 I0.0 J0.008
G1 X1.7011 Y1.3959
G3 X1.7014 Y1.3964 I-0.007 J0.0038
G1 X1.715 Y1.4099
G1 X1.7176 Y1.4126
G1 X1.739 Y1.4214
G1 X1.762
G1 X1.7834 Y1.4126
G1 X1.786 Y1.4099
G1 X1.7996 Y1.3964
G3 X1.7999 Y1.3958 I0.0073 J0.0033
G1 X1.8085 Y1.375
G1 Y1.368
G1 Y1.3522
G1 Y1.3519
G1 X1.8036 Y1.34
G3 X1.803 Y1.3386 I0.0071 J-0.0037
G1 X1.7997 Y1.3305
G1 X1.7959 Y1.3268
G3 X1.7947 Y1.3255 I0.005 J-0.0063
G1 X1.7834 Y1.3143
G1 X1.762 Y1.3054
G1 X1.739
G1 X1.7376 Y1.306
G3 X1.7288 Y1.293 I-0.0031 J-0.0074
G1 X1.7843 Y1.2359
G3 X1.7848 Y1.2354 I0.006 J0.0053
G1 X1.8149 Y1.2044
G3 X1.8158 Y1.2035 I0.0062 J0.0051
G1 X1.9077 Y1.109
G3 X1.908 Y1.1087 I0.0059 J0.0054
G1 X1.9383 Y1.0775
G3 X1.9391 Y1.0767 I0.0061 J0.0052
G1 X1.969 Y1.046
G3 X1.97 Y1.0449 I0.0062 J0.005
G1 X1.9818 Y1.0328
G3 X1.9875 Y1.0304 I0.0057 J0.0056
G1 X2.0355
G3 X2.0435 Y1.0384 I0.0 J0.008
G1 Y1.051
G1 Y1.0669
G1 Y1.0827
G1 Y1.0986
G1 Y1.1144
G1 Y1.1303
G1 Y1.1461
G1 Y1.162
G1 Y1.1778
G1 Y1.1937
G1 Y1.2095
G1 Y1.2254
G1 Y1.2412
G1 Y1.2571
G1 Y1.2729
G1 Y1.2888
G1 Y1.3046
G1 Y1.3205
G1 Y1.3363
G1 Y1.3522
G1 Y1.368
G1 Y1.3839
G1 Y1.3997
G1 Y1.4156
G1 Y1.4314
G1 Y1.4473
G1 Y1.4631
G1 Y1.479
G1 Y1.4948
G1 Y1.5107
G1 Y1.5265
G1 Y1.5424
G1 Y1.5582
G1 Y1.5741
G1 Y1.5899
G1 Y1.6058
G1 Y1.6216
G1 Y1.6375
G1 Y1.6533
G1 Y1.6692
G1 Y1.685
G1 Y1.7009
G1 Y1.7167
G1 Y1.7326
G1 Y1.7484
G1 Y1.7643
G1 Y1.7801
G1 Y1.796
G1 Y1.8118
G1 Y1.8277
G1 Y1.8435
G1 Y1.8594
G1 Y1.8752
G1 Y1.8911
G1 Y1.9069
G1 Y1.9228
G1 Y1.9386
G1 Y1.9545
G1 Y1.9703
G1 Y1.9862
G1 Y2.002
G1 Y2.0179
G1 Y2.0337
G1 Y2.0496
G1 Y2.0534
G3 X2.0355 Y2.0614 I-0.008 J0.0
G1 X0.5255
G3 X0.5175 Y2.0534 I0.0 J-0.008
G1 Y2.0496
G1 Y2.0337
G1 Y2.0179
G1 Y2.002
G1 Y1.9862
G1 Y1.9703
G1 Y1.9545
G1 Y1.9386
G1 Y1.9228
G1 Y1.9069
G1 Y1.8911
G1 Y1.8752
G1 Y1.8594
G1 Y1.8435
G1 Y1.8277
G1 Y1.8118
G1 Y1.796
G1 Y1.7801
G1 Y1.7643
G1 Y1.7484
G1 Y1.7326
G1 Y1.7167
G1 Y1.7009
G1 Y1.685
G1 Y1.6692
G1 Y1.6533
G1 Y1.6375
G1 Y1.6216
G1 Y1.6058
G1 Y1.5899
G1 Y1.5741
G1 Y1.5582
G1 Y1.5424
G1 Y1.5265
G1 Y1.5107
G1 Y1.4948
G1 Y1.479
G1 Y1.4631
G1 Y1.4473
G1 Y1.4314
G1 Y1.4156
G1 Y1.4129
G3 X0.5105 Y1.4134 I-0.007 J-0.0495
G1 X0.4505
G3 X0.4255 Y1.4067 I0.0 J-0.05
G3 Y1.3201 I0.025 J-0.0433
G3 X0.4505 Y1.3134 I0.025 J0.0433
G1 X0.5105
G3 X0.5175 Y1.3139 I0.0 J0.05
G1 Y1.3046
G1 Y1.2888
G1 Y1.2729
G1 Y1.2571
G1 Y1.2254
G1 Y1.2095
G1 Y1.1937
G1 Y1.1778
G1 Y1.1303
G1 Y1.1144
G1 Y1.0986
G1 Y1.0954
G3 X0.5255 Y1.0874 I0.008 J0.0
G1 X0.6122
G3 X0.6179 Y1.0897 I0.0 J0.008
G1 X0.6211 Y1.0929
G1 X0.6369 Y1.1087
G1 X0.6492 Y1.121
G3 X0.6515 Y1.1267 I-0.0057 J0.0057
G1 Y1.1303
G1 Y1.1431
G3 X0.6492 Y1.1487 I-0.008 J0.0
G1 X0.6408 Y1.1572
G1 X0.6345 Y1.1723
G1 Y1.1778
G1 Y1.1937
G1 Y1.2095
G1 Y1.2172
G3 X0.6322 Y1.2229 I-0.008 J0.0
G1 X0.624 Y1.2311
G1 X0.6085 Y1.2465
G3 X0.6015 Y1.2667 I-0.033 J-0.0001
G1 Y1.2729
G1 Y1.2888
G1 Y1.3046
G1 Y1.3052
G3 X0.5966 Y1.3126 I-0.008 J0.0
G1 X0.5927 Y1.3143
G1 X0.5813 Y1.3255
G3 X0.5801 Y1.3268 I-0.0062 J-0.005
G1 X0.5763 Y1.3305
G1 X0.573 Y1.3386
G3 X0.5724 Y1.34 I-0.0077 J-0.0023
G1 X0.5675 Y1.3519
G1 Y1.3522
G1 Y1.368
G1 Y1.375
G1 X0.5761 Y1.3958
G3 X0.5764 Y1.3964 I-0.007 J0.0039
G1 X0.59 Y1.4099
G1 X0.5926 Y1.4126
G1 X0.614 Y1.4214
G1 X0.637
G1 X0.6584 Y1.4126
G1 X0.661 Y1.4099
G1 X0.6746 Y1.3964
G3 X0.6749 Y1.3958 I0.0073 J0.0033
G1 X0.6835 Y1.375
G1 Y1.368
G1 Y1.3522
G1 Y1.3519
G1 X0.6786 Y1.34
G3 X0.678 Y1.3386 I0.0071 J-0.0037
G1 X0.6747 Y1.3305
G1 X0.6709 Y1.3268
G3 X0.6697 Y1.3255 I0.005 J-0.0063
G1 X0.6583 Y1.3143
G1 X0.6544 Y1.3126
G3 X0.6495 Y1.3052 I0.0031 J-0.0074
G1 Y1.3046
G1 Y1.292
G3 X0.6605 Y1.2846 I0.008 J0.0
G1 X0.6674 Y1.2874
G1 X0.6836
G1 X0.6978 Y1.2816
G3 X0.6988 Y1.2812 I0.0035 J0.0072
G1 X0.7102 Y1.2697
G1 X0.7165 Y1.2546
G1 Y1.2412
G1 Y1.2254
G1 Y1.2095
G1 Y1.1937
G1 Y1.1778
G1 Y1.1723
G1 X0.7102 Y1.1572
G1 X0.7018 Y1.1487
G3 X0.6995 Y1.1431 I0.0057 J-0.0056
G1 Y1.1303
G1 Y1.1144
G1 Y1.1087
G1 X0.6958 Y1.0998
G1 X0.6879 Y1.092
G1 X0.6685 Y1.0725
G1 X0.6469 Y1.0509
G1 X0.6401 Y1.044
G3 X0.6458 Y1.0304 I0.0057 J-0.0056
G1 X0.7595
G1 Y0.9753
G3 X0.7425 Y0.9464 I0.016 J-0.0289
G1 Y0.8804
G3 X0.7595 Y0.8515 I0.033 J0.0
G1 Y0.82
G1 X0.7189 Y0.7794
G1 X0.7005
G1 X0.4229
G3 X0.3505 Y0.8067 I-0.0474 J-0.016
G3 Y0.7201 I0.025 J-0.0433
G3 X0.4229 Y0.7474 I0.025 J0.0433
G1 X0.6845
G1 Y0.5358
G3 X0.6755 Y0.5317 I0.016 J-0.0474
G3 Y0.4451 I0.025 J-0.0433
G3 X0.7479 Y0.4724 I0.025 J0.0433
G1 X0.8281
G3 X0.8505 Y0.4451 I0.0474 J0.016
G3 X0.9255 Y0.4884 I0.025 J0.0433
G3 X0.8505 Y0.5317 I-0.05 J0.0
G3 X0.8281 Y0.5044 I0.025 J-0.0433
G1 X0.7479
G3 X0.7165 Y0.5358 I-0.0474 J-0.016
G1 Y0.7474
G1 X0.7255
G3 X0.7368 Y0.7521 I0.0 J0.016
G1 X0.7868 Y0.8021
G3 X0.7915 Y0.8134 I-0.0113 J0.0113
G1 Y0.8515
G3 X0.8085 Y0.8804 I-0.016 J0.0289
G1 Y0.9464
G3 X0.7915 Y0.9753 I-0.033 J0.0
G1 Y1.0304
G1 X1.6636
G3 X1.6711 Y1.0356 I0.0 J0.008
G1 X1.6714 Y1.0364
G1 X1.6797 Y1.0446
G3 X1.6812 Y1.0461 I-0.0049 J0.0064
G1 X1.6876 Y1.0526
G1 X1.709 Y1.0614
G1 X1.732
G1 X1.7534 Y1.0526
G1 X1.7598 Y1.0461
G3 X1.7613 Y1.0446 I0.0064 J0.0049
G1 X1.7696 Y1.0364
G1 X1.7699 Y1.0356
G3 X1.7774 Y1.0304 I0.0075 J0.0028
G1 X1.8302
G3 X1.8359 Y1.0441 I0.0 J0.008
G1 X1.8233 Y1.0567
G1 X1.8082 Y1.0718
G3 X1.8067 Y1.0733 I-0.0064 J-0.0049
G1 X1.7916 Y1.0884
G1 X1.7765 Y1.1035
G3 X1.775 Y1.105 I-0.0064 J-0.0049
G1 X1.7599 Y1.1201
G1 X1.7448 Y1.1352
G3 X1.7433 Y1.1367 I-0.0064 J-0.0049
G1 X1.7282 Y1.1518
G1 X1.7131 Y1.1669
G3 X1.7116 Y1.1684 I-0.0064 J-0.0049
G1 X1.6965 Y1.1835
G1 X1.6929 Y1.1871
G3 X1.6872 Y1.1894 I-0.0057 J-0.0057
G1 X1.5245
G3 X1.5165 Y1.1814 I0.0 J-0.008
G1 Y1.1778
G1 Y1.1723
G1 X1.5102 Y1.1572
G1 X1.4988 Y1.1457
G1 X1.4836 Y1.1394
G1 X1.4674
G1 X1.4522 Y1.1457
G1 X1.4408 Y1.1572
G1 X1.4345 Y1.1723
G1 Y1.1778
G1 Y1.1937
G1 Y1.2095
G1 Y1.2254
G1 Y1.2412
G1 Y1.2546
G1 X1.4408 Y1.2697
G1 X1.4469 Y1.2757
G3 X1.4412 Y1.2894 I-0.0057 J0.0057
G1 X1.4388
G3 X1.4331 Y1.2871 I0.0 J-0.008
G1 X1.4156 Y1.2696
G3 X1.4139 Y1.2608 I0.0057 J-0.0057
G1 X1.4165 Y1.2546
G0 Z0.06
G0 X1.1165
G1 F2.0 Z-0.006
G1 F6.0 X1.1102 Y1.2697
G1 X1.0988 Y1.2812
G2 X1.0978 Y1.2816 I0.0025 J0.0076
G1 X1.0836 Y1.2874
G1 X1.0674
G1 X1.0532 Y1.2816
G2 X1.0522 Y1.2812 I-0.0035 J0.0072
G1 X1.0408 Y1.2697
G1 X1.0345 Y1.2546
G1 Y1.1723
G1 X1.0408 Y1.1572
G1 X1.0522 Y1.1457
G1 X1.0674 Y1.1394
G1 X1.0836
G1 X1.0988 Y1.1457
G1 X1.1102 Y1.1572
G1 X1.1165 Y1.1723
G1 Y1.2546
G0 Z0.06
G0 X1.1079 Y1.2529
G1 F2.0 Z-0.006
G3 F6.0 X1.0425 Y1.2464 I-0.0324 J-0.0065
G1 Y1.1804
G3 X1.1085 I0.033 J0.0
G1 Y1.2464
G3 X1.1079 Y1.2529 I-0.033 J0.0
G0 Z0.06
G0 X1.0165
G1 F2.0 Z-0.006
G1 F6.0 Y1.2546
G1 X1.0102 Y1.2697
G1 X0.9988 Y1.2812
G2 X0.9978 Y1.2816 I0.0025 J0.0076
G1 X0.9836 Y1.2874
G1 X0.9674
G1 X0.9532 Y1.2816
G2 X0.9522 Y1.2812 I-0.0035 J0.0072
G1 X0.9408 Y1.2697
G1 X0.9345 Y1.2546
G1 Y1.1723
G1 X0.9408 Y1.1572
G1 X0.9522 Y1.1457
G1 X0.9674 Y1.1394
G1 X0.9836
G1 X0.9988 Y1.1457
G1 X1.0102 Y1.1572
G1 X1.0165 Y1.1723
G1 Y1.2529
G0 Z0.06
G0 X1.0081 Y1.2515
G1 F2.0 Z-0.006
G3 F6.0 X0.9425 Y1.2464 I-0.0326 J-0.0051
G1 Y1.1804
G3 X1.0085 I0.033 J0.0
G1 Y1.2464
G3 X1.0081 Y1.2515 I-0.033 J0.0
G0 Z0.06
G0 X0.9165
G1 F2.0 Z-0.006
G1 F6.0 Y1.2546
G1 X0.9102 Y1.2697
G1 X0.8988 Y1.2812
G2 X0.8978 Y1.2816 I0.0025 J0.0076
G1 X0.8836 Y1.2874
G1 X0.8674
G1 X0.8532 Y1.2816
G2 X0.8522 Y1.2812 I-0.0035 J0.0072
G1 X0.8408 Y1.2697
G1 X0.8345 Y1.2546
G1 Y1.1723
G1 X0.8408 Y1.1572
G1 X0.8522 Y1.1457
G1 X0.8674 Y1.1394
G1 X0.8836
G1 X0.8988 Y1.1457
G1 X0.9102 Y1.1572
G1 X0.9165 Y1.1723
G1 Y1.2515
G0 Z0.06
G0 X0.9082 Y1.2505
G1 F2.0 Z-0.006
G3 F6.0 X0.8425 Y1.2464 I-0.0327 J-0.0041
G1 Y1.1804
G3 X0.9085 I0.033 J0.0
G1 Y1.2464
G3 X0.9082 Y1.2505 I-0.033 J0.0
G0 Z0.06
G0 X0.8165
G1 F2.0 Z-0.006
G1 F6.0 Y1.2546
G1 X0.8102 Y1.2697
G1 X0.7988 Y1.2812
G2 X0.7978 Y1.2816 I0.0025 J0.0076
G1 X0.7836 Y1.2874
G1 X0.7674
G1 X0.7532 Y1.2816
G2 X0.7522 Y1.2812 I-0.0035 J0.0072
G1 X0.7408 Y1.2697
G1 X0.7345 Y1.2546
G1 Y1.1723
G1 X0.7408 Y1.1572
G1 X0.7522 Y1.1457
G1 X0.7674 Y1.1394
G1 X0.7836
G1 X0.7988 Y1.1457
G1 X0.8102 Y1.1572
G1 X0.8165 Y1.1723
G1 Y1.2505
G0 Z0.06
G0 X0.8083 Y1.2497
G1 F2.0 Z-0.006
G3 F6.0 X0.7425 Y1.2464 I-0.0328 J-0.0033
G1 Y1.1804
G3 X0.8085 I0.033 J0.0
G1 Y1.2464
G3 X0.8083 Y1.2497 I-0.033 J0.0
G0 Z0.06
G0 X0.7085 Y1.2472
G1 F2.0 Z-0.006
G3 F6.0 X0.6476 Y1.264 I-0.033 J-0.0008
G1 X0.6415 Y1.27
G1 Y1.316
G3 X0.6755 Y1.3634 I-0.016 J0.0474
G3 X0.6005 Y1.4067 I-0.05 J0.0
G3 Y1.3201 I0.025 J-0.0433
G3 X0.6095 Y1.316 I0.025 J0.0433
G1 Y1.2634
G3 X0.6142 Y1.2521 I0.016 J0.0
G1 X0.6425 Y1.2238
G1 Y1.1804
G3 X0.6595 Y1.1515 I0.033 J0.0
G1 Y1.12
G1 X0.6189 Y1.0794
G1 X0.2505
G3 X0.2392 Y1.0747 I0.0 J-0.016
G1 X0.1642 Y0.9997
G3 X0.1595 Y0.9884 I0.0113 J-0.0113
G1 Y0.9753
G3 X0.1425 Y0.9464 I0.016 J-0.0289
G1 Y0.8804
G3 X0.1595 Y0.8515 I0.033 J0.0
G1 Y0.8108
G3 X0.1505 Y0.8067 I0.016 J-0.0474
G3 Y0.7201 I0.025 J-0.0433
G3 X0.2028 Y0.7215 I0.025 J0.0433
G1 X0.6406 Y0.3758
G3 X0.6505 Y0.3724 I0.0099 J0.0126
G1 X0.9755
G3 X0.9868 Y0.3771 I0.0 J0.016
G1 X1.1365 Y0.5268
G1 X1.1457 Y0.535
G3 X1.2205 Y0.5784 I0.0248 J0.0434
G3 X1.2199 Y0.5864 I-0.05 J0.0
G1 X1.4295 Y0.6974
G1 X1.7826
G3 X1.8225 Y0.6704 I0.0399 J0.016
G1 X1.9085
G3 Y0.7564 I0.0 J0.043
G1 X1.8225
G3 X1.7826 Y0.7294 I0.0 J-0.043
G1 X1.4255
G3 X1.418 Y0.7275 I0.0 J-0.016
G1 X1.2049 Y0.6147
G3 X1.1455 Y0.6217 I-0.0344 J-0.0363
G3 X1.1245 Y0.5589 I0.025 J-0.0433
G1 X1.1149 Y0.5504
G3 X1.1142 Y0.5497 I0.0106 J-0.012
G1 X0.9689 Y0.4044
G1 X0.6561
G1 X0.2226 Y0.7466
G3 X0.2255 Y0.7634 I-0.0471 J0.0168
G3 X0.1915 Y0.8108 I-0.05 J0.0
G1 Y0.8515
G3 X0.2085 Y0.8804 I-0.016 J0.0289
G1 Y0.9464
G3 X0.1915 Y0.9753 I-0.033 J0.0
G1 Y0.9818
G1 X0.2571 Y1.0474
G1 X0.6255
G3 X0.6368 Y1.0521 I0.0 J0.016
G1 X0.6868 Y1.1021
G3 X0.6915 Y1.1134 I-0.0113 J0.0113
G1 Y1.1515
G3 X0.7085 Y1.1804 I-0.016 J0.0289
G1 Y1.2464
G3 Y1.2472 I-0.033 J0.0
G0 Z0.06
G0 X0.5085 Y1.2465
G1 F2.0 Z-0.006
G3 F6.0 X0.4425 Y1.2464 I-0.033 J-0.0001
G1 Y1.1804
G3 X0.5085 I0.033 J0.0
G1 Y1.2464
G3 Y1.2465 I-0.033 J0.0
G0 Z0.06
G0 X0.4085 Y1.2464
G1 F2.0 Z-0.006
G3 F6.0 X0.3915 Y1.2753 I-0.033 J0.0
G1 Y1.3934
G3 X0.389 Y1.4021 I-0.016 J0.0
G1 X0.3205 Y1.5085
G3 X0.3285 Y1.5334 I-0.035 J0.0249
G3 X0.264 Y1.5706 I-0.043 J0.0
G3 Y1.4962 I0.0215 J-0.0372
G3 X0.2936 Y1.4912 I0.0215 J0.0372
G1 X0.3595 Y1.3887
G1 Y1.2753
G3 X0.3425 Y1.2464 I0.016 J-0.0289
G1 Y1.1804
G3 X0.4085 I0.033 J0.0
G1 Y1.2464
G0 Z0.06
G0 X0.3085
G1 F2.0 Z-0.006
G3 F6.0 X0.2425 I-0.033 J0.0
G1 Y1.1804
G3 X0.3085 I0.033 J0.0
G1 Y1.2464
G0 Z0.06
G0 X0.2085
G1 F2.0 Z-0.006
G3 F6.0 X0.1425 I-0.033 J0.0
G1 Y1.1804
G3 X0.2085 I0.033 J0.0
G1 Y1.2464
G0 Z0.06
G0 X0.2683 Y0.9786
G1 F2.0 Z-0.006
G3 F6.0 X0.2425 Y0.9464 I0.0072 J-0.0322
G1 Y0.8804
G3 X0.3085 I0.033 J0.0
G1 Y0.9464
G3 X0.2683 Y0.9786 I-0.033 J0.0
G0 Z0.06
G0 X0.3439 Y0.9559
G1 F2.0 Z-0.006
G3 F6.0 X0.3425 Y0.9464 I0.0316 J-0.0095
G1 Y0.8804
G3 X0.4085 I0.033 J0.0
G1 Y0.9464
G3 X0.3439 Y0.9559 I-0.033 J0.0
G0 Z0.06
G0 X0.4426 Y0.9488
G1 F2.0 Z-0.006
G3 F6.0 X0.4425 Y0.9464 I0.0329 J-0.0024
G1 Y0.8804
G3 X0.5085 I0.033 J0.0
G1 Y0.9464
G3 X0.4426 Y0.9488 I-0.033 J0.0
G0 Z0.06
G0 X0.5425 Y0.947
G1 F2.0 Z-0.006
G3 F6.0 Y0.9464 I0.033 J-0.0006
G1 Y0.8804
G3 X0.6085 I0.033 J0.0
G1 Y0.9464
G3 X0.5425 Y0.947 I-0.033 J0.0
G0 Z0.06
G0 X0.6425 Y0.9465
G1 F2.0 Z-0.006
G3 F6.0 Y0.9464 I0.033 J-0.0001
G1 Y0.8804
G3 X0.7085 I0.033 J0.0
G1 Y0.9464
G3 X0.6425 Y0.9465 I-0.033 J0.0
G0 Z0.06
G0 X0.8425 Y0.9464
G1 F2.0 Z-0.006
G1 F6.0 Y0.8804
G3 X0.9085 I0.033 J0.0
G1 Y0.9464
G3 X0.8425 I-0.033 J0.0
G0 Z0.06
G0 X0.9425
G1 F2.0 Z-0.006
G1 F6.0 Y0.8804
G3 X1.0085 I0.033 J0.0
G1 Y0.9464
G3 X0.9425 I-0.033 J0.0
G0 Z0.06
G0 X1.0425
G1 F2.0 Z-0.006
G1 F6.0 Y0.8804
G3 X1.1085 I0.033 J0.0
G1 Y0.9464
G3 X1.0425 I-0.033 J0.0
G0 Z0.06
G0 X1.1425
G1 F2.0 Z-0.006
G1 F6.0 Y0.8804
G3 X1.2085 I0.033 J0.0
G1 Y0.9464
G3 X1.1425 I-0.033 J0.0
G0 Z0.06
G0 X1.2425
G1 F2.0 Z-0.006
G1 F6.0 Y0.8804
G3 X1.3085 I0.033 J0.0
G1 Y0.9464
G3 X1.2425 I-0.033 J0.0
G0 Z0.06
G0 X1.3425
G1 F2.0 Z-0.006
G1 F6.0 Y0.8804
G3 X1.4085 I0.033 J0.0
G1 Y0.9464
G3 X1.3425 I-0.033 J0.0
G0 Z0.06
G0 X1.4425
G1 F2.0 Z-0.006
G1 F6.0 Y0.8804
G3 X1.5085 I0.033 J0.0
G1 Y0.9085
G1 X1.6816 Y0.972
G3 X1.6955 Y0.9601 I0.0389 J0.0314
G3 X1.7365 Y0.956 I0.025 J0.0433
G1 X1.8133 Y0.8554
G3 X1.8225 Y0.7704 I0.0092 J-0.042
G1 X1.9085
G3 Y0.8564 I0.0 J0.043
G1 X1.8528
G1 X1.762 Y0.9754
G3 X1.7705 Y1.0034 I-0.0415 J0.028
G3 X1.6955 Y1.0467 I-0.05 J0.0
G3 X1.6705 Y1.0021 I0.025 J-0.0433
G1 X1.5085 Y0.9426
G1 Y0.9464
G3 X1.4425 I-0.033 J0.0
G0 Z0.06
G0 X1.4709 Y1.1477
G1 F2.0 Z-0.006
G3 F6.0 X1.5085 Y1.1804 I0.0046 J0.0327
G1 Y1.1974
G1 X1.6939
G1 X1.9595 Y0.9318
G1 Y0.57
G1 X1.936 Y0.5465
G3 X1.9085 Y0.5564 I-0.0275 J-0.0331
G1 X1.8225
G3 Y0.4704 I0.0 J-0.043
G1 X1.9085
G3 X1.9514 Y0.5166 I0.0 J0.043
G1 X1.9868 Y0.5521
G3 X1.9915 Y0.5634 I-0.0113 J0.0113
G1 Y0.9384
G3 X1.9868 Y0.9497 I-0.016 J0.0
G1 X1.7118 Y1.2247
G3 X1.7005 Y1.2294 I-0.0113 J-0.0113
G1 X1.5085
G1 Y1.2464
G3 X1.4425 I-0.033 J0.0
G1 Y1.1804
G3 X1.4709 Y1.1477 I0.033 J0.0
G0 Z0.06
G0 X1.4067 Y1.1697
G1 F2.0 Z-0.006
G3 F6.0 X1.4085 Y1.1804 I-0.0312 J0.0107
G1 Y1.2464
G3 X1.4015 Y1.2668 I-0.033 J0.0
G1 X1.4321 Y1.2974
G1 X1.6687
G1 X2.0095 Y0.9469
G1 Y0.5354
G1 X1.9214 Y0.4544
G3 X1.9085 Y0.4564 I-0.0129 J-0.041
G1 X1.8225
G3 Y0.3704 I0.0 J-0.043
G1 X1.9085
G3 X1.9463 Y0.4338 I0.0 J0.043
G1 X2.0363 Y0.5166
G3 X2.0415 Y0.5284 I-0.0108 J0.0118
G1 Y0.9534
G3 X2.037 Y0.9646 I-0.016 J0.0
G1 X1.687 Y1.3246
G3 X1.6755 Y1.3294 I-0.0115 J-0.0112
G1 X1.4255
G3 X1.4142 Y1.3247 I0.0 J-0.016
G1 X1.368 Y1.2785
G3 X1.3425 Y1.2464 I0.0075 J-0.0321
G1 Y1.1804
G3 X1.4067 Y1.1697 I0.033 J0.0
G0 Z0.06
G0 X1.3084 Y1.1777
G1 F2.0 Z-0.006
G3 F6.0 X1.3085 Y1.1804 I-0.0329 J0.0027
G1 Y1.2464
G3 X1.2425 I-0.033 J0.0
G1 Y1.1804
G3 X1.3084 Y1.1777 I0.033 J0.0
G0 Z0.06
G0 X1.3165
G1 F2.0 Z-0.006
G1 F6.0 Y1.2546
G1 X1.3102 Y1.2697
G1 X1.2988 Y1.2812
G2 X1.2978 Y1.2816 I0.0025 J0.0076
G1 X1.2836 Y1.2874
G1 X1.2674
G1 X1.2532 Y1.2816
G2 X1.2522 Y1.2812 I-0.0035 J0.0072
G1 X1.2408 Y1.2697
G1 X1.2345 Y1.2546
G1 Y1.1723
G1 X1.2408 Y1.1572
G1 X1.2522 Y1.1457
G1 X1.2674 Y1.1394
G1 X1.2836
G1 X1.2988 Y1.1457
G1 X1.3102 Y1.1572
G1 X1.3165 Y1.1723
G1 Y1.1777
G0 Z0.06
G0 X1.2085 Y1.1798
G1 F2.0 Z-0.006
G3 F6.0 Y1.1804 I-0.033 J0.0006
G1 Y1.2464
G3 X1.2015 Y1.2668 I-0.033 J0.0
G1 X1.2821 Y1.3474
G1 X1.7031
G3 X1.7255 Y1.3201 I0.0474 J0.016
G3 X1.8005 Y1.3634 I0.025 J0.0433
G3 X1.7255 Y1.4067 I-0.05 J0.0
G3 X1.7031 Y1.3794 I0.025 J-0.0433
G1 X1.2755
G3 X1.2642 Y1.3747 I0.0 J-0.016
G1 X1.168 Y1.2785
G3 X1.1425 Y1.2464 I0.0075 J-0.0321
G1 Y1.1804
G3 X1.2085 Y1.1798 I0.033 J0.0
G0 Z0.06
G0 X1.2165 Y1.2546
G0 Z0.0565
G1 F2.0 Z-0.006
G0 Z0.06
G0 X1.5473 Y0.6227
G1 Z-0.006
G3 F6.0 X1.5455 Y0.6217 I0.0232 J-0.0443
G3 Y0.5351 I0.025 J-0.0433
G3 X1.6202 Y0.5732 I0.025 J0.0433
G1 X1.6739 Y0.5853
G3 X1.6955 Y0.5601 I0.0466 J0.0181
G3 X1.7705 Y0.6034 I0.025 J0.0433
G3 X1.6955 Y0.6467 I-0.05 J0.0
G3 X1.6726 Y0.6179 I0.025 J-0.0433
G1 X1.6132 Y0.6044
G3 X1.5473 Y0.6227 I-0.0427 J-0.026
G0 Z0.06
G0 X1.7795 Y0.6149
G1 F2.0 Z-0.006
G3 F6.0 X1.8225 Y0.5704 I0.043 J-0.0015
G1 X1.9085
G3 Y0.6564 I0.0 J0.043
G1 X1.8225
G3 X1.7795 Y0.6149 I0.0 J-0.043
G0 Z0.06
G0 X0.9225 Y0.3054
G1 F2.0 Z-0.006
G3 F6.0 X0.8505 Y0.3317 I-0.047 J-0.017
G3 X0.8281 Y0.3044 I0.025 J-0.0433
G1 X0.7479
G3 X0.6755 Y0.3317 I-0.0474 J-0.016
G3 Y0.2451 I0.025 J-0.0433
G3 X0.7479 Y0.2724 I0.025 J0.0433
G1 X0.8281
G3 X0.8505 Y0.2451 I0.0474 J0.016
G3 X0.9255 Y0.2884 I0.025 J0.0433
G3 X0.9225 Y0.3054 I-0.05 J0.0
G0 Z0.06
G0 X0.3041 Y1.5946
G1 F2.0 Z-0.006
G3 F6.0 X0.3285 Y1.6334 I-0.0186 J0.0388
G3 X0.3243 Y1.6519 I-0.043 J0.0
G1 X0.4061 Y1.7404
G3 X0.4255 Y1.7201 I0.0444 J0.023
G3 X0.5005 Y1.7634 I0.025 J0.0433
G3 X0.4255 Y1.8067 I-0.05 J0.0
G3 X0.4031 Y1.7792 I0.025 J-0.0433
G3 X0.3937 Y1.7743 I0.0024 J-0.0158
G1 X0.3008 Y1.6736
G3 X0.264 Y1.6706 I-0.0153 J-0.0402
G3 Y1.5962 I0.0215 J-0.0372
G3 X0.3041 Y1.5946 I0.0215 J0.0372
( texte )
M0
S1000
G0 Z0.06
G0 X1.1917 Y0.4684
G1 F2.0 Z-0.006
G1 F6.0 X1.2403 Y0.359
G1 X1.2889 Y0.4684
G1 X1.2984 Y0.3598
G1 X1.2889 Y0.4684
G1 X1.2403 Y0.359
G1 X1.1917 Y0.4684
G1 X1.1824 Y0.3598
G1 X1.1917 Y0.4684
G0 Z0.06
G0 X1.1899 Y0.3313
G1 F2.0 Z-0.006
G2 F6.0 X1.1986 Y0.3299 I-0.0004 J-0.0287
G2 X1.2061 Y0.325 I-0.006 J-0.0178
G2 X1.2092 Y0.3209 I-0.0144 J-0.0139
G2 X1.2113 Y0.3163 I-0.0239 J-0.0135
G2 X1.2127 Y0.3098 I-0.0305 J-0.0104
G2 X1.2131 Y0.3032 I-0.0513 J-0.0064
G2 X1.2128 Y0.2966 I-0.0523 J-0.0002
G2 X1.2113 Y0.2901 I-0.0317 J0.0038
G2 X1.2092 Y0.2855 I-0.0254 J0.0088
G2 X1.2061 Y0.2815 I-0.0172 J0.0099
G2 X1.1986 Y0.2768 I-0.0138 J0.0137
G2 X1.1893 Y0.2754 I-0.009 J0.0279
G2 X1.18 Y0.2768 I-0.0002 J0.0294
G2 X1.1725 Y0.2815 I0.0062 J0.0184
G2 X1.1694 Y0.2855 I0.0142 J0.0139
G2 X1.1673 Y0.2901 I0.0233 J0.0134
G2 X1.1659 Y0.2966 I0.0302 J0.0103
G2 X1.1655 Y0.3032 I0.0518 J0.0064
G2 X1.1659 Y0.3098 I0.0517 J0.0002
G2 X1.1673 Y0.3163 I0.032 J-0.0039
G2 X1.1694 Y0.3209 I0.0259 J-0.0088
G2 X1.1725 Y0.325 I0.0174 J-0.0099
G2 X1.18 Y0.3299 I0.0136 J-0.013
G2 X1.1893 Y0.3313 I0.0091 J-0.0272
G2 X1.1899 I0.0002 J-0.0287
G2 X1.1986 Y0.3299 I-0.0004 J-0.0287
G2 X1.2061 Y0.325 I-0.006 J-0.0178
G2 X1.2092 Y0.3209 I-0.0144 J-0.0139
G2 X1.2113 Y0.3163 I-0.0239 J-0.0135
G2 X1.2127 Y0.3098 I-0.0305 J-0.0104
G2 X1.2131 Y0.3032 I-0.0513 J-0.0064
G2 X1.2128 Y0.2966 I-0.0523 J-0.0002
G2 X1.2113 Y0.2901 I-0.0317 J0.0038
G2 X1.2092 Y0.2855 I-0.0254 J0.0088
G2 X1.2061 Y0.2815 I-0.0172 J0.0099
G2 X1.1986 Y0.2768 I-0.0138 J0.0137
G2 X1.1893 Y0.2754 I-0.009 J0.0279
G2 X1.18 Y0.2768 I-0.0002 J0.0294
G2 X1.1725 Y0.2815 I0.0062 J0.0184
G2 X1.1694 Y0.2855 I0.0142 J0.0139
G2 X1.1673 Y0.2901 I0.0233 J0.0134
G2 X1.1659 Y0.2966 I0.0302 J0.0103
G2 X1.1655 Y0.3032 I0.0518 J0.0064
G2 X1.1659 Y0.3098 I0.0517 J0.0002
G2 X1.1673 Y0.3163 I0.032 J-0.0039
G2 X1.1694 Y0.3209 I0.0259 J-0.0088
G2 X1.1725 Y0.325 I0.0174 J-0.0099
G2 X1.18 Y0.3299 I0.0136 J-0.013
G2 X1.1893 Y0.3313 I0.0091 J-0.0272
G2 X1.1899 I0.0002 J-0.0287
G0 Z0.06
G0 X1.2398 Y0.2758
G1 F2.0 Z-0.006
G1 F6.0 Y0.3299
G1 X1.257
G2 X1.2613 Y0.3297 I0.0002 J-0.0357
G2 X1.2655 Y0.3287 I-0.0022 J-0.02
G2 X1.2707 Y0.3256 I-0.0042 J-0.0132
G2 X1.2735 Y0.3212 I-0.0072 J-0.0074
G2 X1.2744 Y0.316 I-0.0198 J-0.0063
G2 X1.2738 Y0.3106 I-0.0184 J-0.0005
G2 X1.2712 Y0.3059 I-0.011 J0.0028
G2 X1.2662 Y0.3025 I-0.0101 J0.0094
G2 X1.2624 Y0.3014 I-0.0061 J0.0148
G2 X1.2584 Y0.3011 I-0.0038 J0.0259
G1 X1.2398
G1 X1.2584
G3 X1.2624 Y0.3014 I0.0001 J0.0255
G3 X1.2661 Y0.3025 I-0.0023 J0.0159
G3 X1.2711 Y0.3059 I-0.0051 J0.0128
G3 X1.2737 Y0.3106 I-0.0087 J0.0078
G3 X1.2744 Y0.316 I-0.0169 J0.0049
G3 X1.2735 Y0.3212 I-0.0208 J-0.0011
G3 X1.2707 Y0.3256 I-0.0098 J-0.003
G3 X1.2655 Y0.3287 I-0.0097 J-0.0104
G3 X1.2613 Y0.3297 I-0.0064 J-0.0187
G3 X1.257 Y0.3299 I-0.0041 J-0.0353
G1 X1.2398
G1 Y0.2758
G0 Z0.06
G0 X1.3011
G1 F2.0 Z-0.006
G1 F6.0 Y0.3296
G1 X1.336
G1 X1.3011
G1 Y0.2758
G1 X1.336
G1 X1.3011
G0 Z0.06
G0 Y0.3035
G1 F2.0 Z-0.006
G1 F6.0 X1.333
G1 X1.3011
G0 Z0.06
G0 X1.3624 Y0.2758
G1 F2.0 Z-0.006
G1 F6.0 Y0.3299
G1 X1.3821
G2 X1.3864 Y0.3297 I0.0002 J-0.0476
G2 X1.3906 Y0.329 I-0.002 J-0.025
G2 X1.3957 Y0.3266 I-0.0031 J-0.013
G2 X1.3983 Y0.3227 I-0.0053 J-0.0064
G2 X1.3993 Y0.3179 I-0.0167 J-0.0057
G2 X1.3987 Y0.3125 I-0.0197 J-0.0005
G2 X1.3962 Y0.3079 I-0.0106 J0.0027
G2 X1.3913 Y0.3046 I-0.0094 J0.0088
G2 X1.3875 Y0.3036 I-0.006 J0.0153
G2 X1.3837 Y0.3034 I-0.0037 J0.0266
G1 X1.3624
G1 X1.3837
G3 X1.3875 Y0.3036 I0.0001 J0.0261
G3 X1.3912 Y0.3046 I-0.0022 J0.0159
G3 X1.3961 Y0.3079 I-0.0048 J0.0124
G3 X1.3986 Y0.3125 I-0.0081 J0.0075
G3 X1.3993 Y0.3179 I-0.0182 J0.0048
G3 X1.3983 Y0.3227 I-0.0168 J-0.0008
G3 X1.3956 Y0.3266 I-0.008 J-0.0028
G3 X1.3932 Y0.3281 I-0.0069 J-0.0085
G3 X1.3905 Y0.329 I-0.0072 J-0.0162
G3 X1.3863 Y0.3297 I-0.0062 J-0.0242
G3 X1.3821 Y0.3299 I-0.004 J-0.0454
G1 X1.3624
G1 Y0.2758
G0 Z0.06
G0 X1.3847 Y0.3034
G1 F2.0 Z-0.006
G2 F6.0 X1.3897 Y0.3028 I0.0003 J-0.0208
G2 X1.3942 Y0.3006 I-0.0023 J-0.0104
G2 X1.3977 Y0.2935 I-0.0066 J-0.0077
G1 X1.399 Y0.2798
G3 X1.3994 Y0.2779 I0.0082 J0.0005
G3 X1.4009 Y0.2758 I0.0038 J0.0012
G2 X1.3994 Y0.2779 I0.0023 J0.0033
G2 X1.399 Y0.2798 I0.0079 J0.0025
G1 X1.3977 Y0.2935
G3 X1.3966 Y0.2974 I-0.0111 J-0.0008
G3 X1.3942 Y0.3006 I-0.0089 J-0.0043
G3 X1.3897 Y0.3028 I-0.0068 J-0.0082
G3 X1.3847 Y0.3034 I-0.0047 J-0.0203
G0 Z0.06
G0 X1.4408 Y0.3299
G1 F2.0 Z-0.006
G1 F6.0 X1.4624 Y0.2758
G1 X1.4408 Y0.3299
G1 X1.4194 Y0.2758
G1 X1.4408 Y0.3299
G0 Z0.06
G0 X1.4555 Y0.2928
G1 F2.0 Z-0.006
G1 F6.0 X1.4261
G1 X1.4555
G0 Z0.06
G0 X1.5001 Y0.3299
G1 F2.0 Z-0.006
G1 F6.0 X1.5197
G1 X1.4807
G1 X1.5001
G1 Y0.2758
G1 Y0.3299
G0 Z0.06
G0 X1.4829 Y0.359
G1 F2.0 Z-0.006
G1 F6.0 Y0.4669
G1 X1.5146
G1 X1.4509
G1 X1.4829
G1 Y0.359
G0 Z0.06
G0 X1.5438
G1 F2.0 Z-0.006
G1 F6.0 X1.5864 Y0.4669
G1 X1.6291 Y0.359
G1 X1.5864 Y0.4669
G1 X1.5438 Y0.359
G0 Z0.06
G0 X1.5528 Y0.33
G1 F2.0 Z-0.006
G2 F6.0 X1.5616 Y0.3313 I0.0085 J-0.0274
G2 X1.5709 Y0.3299 I0.0002 J-0.0287
G2 X1.5784 Y0.325 I-0.006 J-0.0178
G2 X1.5815 Y0.3209 I-0.0144 J-0.0139
G2 X1.5836 Y0.3163 I-0.0239 J-0.0135
G2 X1.585 Y0.3098 I-0.0305 J-0.0104
G2 X1.5854 Y0.3032 I-0.0513 J-0.0064
G2 X1.585 Y0.2966 I-0.0523 J-0.0002
G2 X1.5836 Y0.2901 I-0.0317 J0.0038
G2 X1.5815 Y0.2855 I-0.0254 J0.0088
G2 X1.5784 Y0.2815 I-0.0172 J0.0099
G2 X1.5709 Y0.2768 I-0.0138 J0.0137
G2 X1.5616 Y0.2754 I-0.009 J0.0279
G2 X1.5523 Y0.2768 I-0.0002 J0.0294
G2 X1.5447 Y0.2815 I0.0062 J0.0184
G2 X1.5417 Y0.2855 I0.0142 J0.0139
G2 X1.5396 Y0.2901 I0.0233 J0.0134
G2 X1.5381 Y0.2966 I0.0302 J0.0103
G2 X1.5378 Y0.3032 I0.0518 J0.0064
G2 X1.5381 Y0.3098 I0.0517 J0.0002
G2 X1.5396 Y0.3163 I0.032 J-0.0039
G2 X1.5417 Y0.3209 I0.0259 J-0.0088
G2 X1.5447 Y0.325 I0.0174 J-0.0099
G2 X1.5523 Y0.3299 I0.0136 J-0.013
G2 X1.5528 Y0.33 I0.0091 J-0.0272
G2 X1.5616 Y0.3313 I0.0085 J-0.0274
G2 X1.5709 Y0.3299 I0.0002 J-0.0287
G2 X1.5784 Y0.325 I-0.006 J-0.0178
G2 X1.5815 Y0.3209 I-0.0144 J-0.0139
G2 X1.5836 Y0.3163 I-0.0239 J-0.0135
G2 X1.585 Y0.3098 I-0.0305 J-0.0104
G2 X1.5854 Y0.3032 I-0.0513 J-0.0064
G2 X1.585 Y0.2966 I-0.0523 J-0.0002
G2 X1.5836 Y0.2901 I-0.0317 J0.0038
G2 X1.5815 Y0.2855 I-0.0254 J0.0088
G2 X1.5784 Y0.2815 I-0.0172 J0.0099
G2 X1.5709 Y0.2768 I-0.0138 J0.0137
G2 X1.5616 Y0.2754 I-0.009 J0.0279
G2 X1.5523 Y0.2768 I-0.0002 J0.0294
G2 X1.5447 Y0.2815 I0.0062 J0.0184
G2 X1.5417 Y0.2855 I0.0142 J0.0139
G2 X1.5396 Y0.2901 I0.0233 J0.0134
G2 X1.5381 Y0.2966 I0.0302 J0.0103
G2 X1.5378 Y0.3032 I0.0518 J0.0064
G2 X1.5381 Y0.3098 I0.0517 J0.0002
G2 X1.5396 Y0.3163 I0.032 J-0.0039
G2 X1.5417 Y0.3209 I0.0259 J-0.0088
G2 X1.5447 Y0.325 I0.0174 J-0.0099
G2 X1.5523 Y0.3299 I0.0136 J-0.013
G2 X1.5528 Y0.33 I0.0091 J-0.0272
G0 Z0.06
G0 X1.6121 Y0.2758
G1 F2.0 Z-0.006
G1 F6.0 Y0.3299
G1 X1.6318
G2 X1.636 Y0.3297 I0.0002 J-0.0476
G2 X1.6402 Y0.329 I-0.002 J-0.025
G2 X1.6453 Y0.3266 I-0.0031 J-0.013
G2 X1.6479 Y0.3227 I-0.0053 J-0.0064
G2 X1.6489 Y0.3179 I-0.0167 J-0.0057
G2 X1.6483 Y0.3125 I-0.0197 J-0.0005
G2 X1.6458 Y0.3079 I-0.0106 J0.0027
G2 X1.6409 Y0.3046 I-0.0094 J0.0088
G2 X1.6371 Y0.3036 I-0.006 J0.0153
G2 X1.6333 Y0.3034 I-0.0037 J0.0266
G1 X1.6121
G1 X1.6333
G3 X1.6371 Y0.3036 I0.0001 J0.0261
G3 X1.6408 Y0.3046 I-0.0022 J0.0159
G3 X1.6457 Y0.3079 I-0.0048 J0.0124
G3 X1.6482 Y0.3125 I-0.0081 J0.0075
G3 X1.6489 Y0.3179 I-0.0182 J0.0048
G3 X1.6479 Y0.3227 I-0.0168 J-0.0008
G3 X1.6452 Y0.3266 I-0.008 J-0.0028
G3 X1.6428 Y0.3281 I-0.0069 J-0.0085
G3 X1.6401 Y0.329 I-0.0072 J-0.0162
G3 X1.6359 Y0.3297 I-0.0062 J-0.0242
G3 X1.6318 Y0.3299 I-0.004 J-0.0454
G1 X1.6121
G1 Y0.2758
G0 Z0.06
G0 X1.6343 Y0.3034
G1 F2.0 Z-0.006
G2 F6.0 X1.6393 Y0.3028 I0.0003 J-0.0208
G2 X1.6438 Y0.3006 I-0.0023 J-0.0104
G2 X1.6473 Y0.2935 I-0.0066 J-0.0077
G1 X1.6486 Y0.2798
G3 X1.649 Y0.2779 I0.0082 J0.0005
G3 X1.6505 Y0.2758 I0.0038 J0.0012
G2 X1.649 Y0.2779 I0.0023 J0.0033
G2 X1.6486 Y0.2798 I0.0079 J0.0025
G1 X1.6473 Y0.2935
G3 X1.6463 Y0.2974 I-0.0111 J-0.0008
G3 X1.6438 Y0.3006 I-0.0089 J-0.0043
G3 X1.6393 Y0.3028 I-0.0068 J-0.0082
G3 X1.6343 Y0.3034 I-0.0047 J-0.0203
G0 Z0.06
G0 X1.7135 Y0.3279
G1 F2.0 Z-0.006
G1 F6.0 X1.7294
G1 Y0.274
G1 Y0.3279
G1 X1.7453
G1 X1.7135
G0 Z0.06
G0 X1.7648 Y0.3121
G1 F2.0 Z-0.006
G2 F6.0 X1.7689 Y0.3205 I0.0289 J-0.0089
G2 X1.775 Y0.3264 I0.0176 J-0.0123
G2 X1.7826 Y0.3286 I0.0076 J-0.012
G2 X1.7902 Y0.3264 I0.0 J-0.014
G2 X1.7964 Y0.3205 I-0.0114 J-0.0182
G2 X1.8006 Y0.3119 I-0.0242 J-0.0171
G2 X1.8021 Y0.3012 I-0.0343 J-0.0104
G2 X1.8006 Y0.2906 I-0.0358 J-0.0002
G2 X1.7964 Y0.2819 I-0.0289 J0.0086
G2 X1.7902 Y0.2761 I-0.0173 J0.0122
G2 X1.7826 Y0.274 I-0.0075 J0.0123
G2 X1.775 Y0.2761 I0.0 J0.0145
G2 X1.7689 Y0.2819 I0.0111 J0.018
G2 X1.7647 Y0.2906 I0.0253 J0.0175
G2 X1.7631 Y0.3012 I0.0343 J0.0104
G2 X1.7647 Y0.3119 I0.0358 J0.0002
G2 X1.7648 Y0.3121 I0.029 J-0.0086
G0 Z0.06
G0 X1.8239 Y0.3055
G1 F2.0 Z-0.006
G2 F6.0 X1.8252 Y0.3119 I0.0356 J-0.004
G2 X1.8294 Y0.3205 I0.029 J-0.0086
G2 X1.8356 Y0.3264 I0.0176 J-0.0123
G2 X1.8432 Y0.3286 I0.0076 J-0.012
G2 X1.8507 Y0.3264 I0.0 J-0.014
G2 X1.8569 Y0.3205 I-0.0114 J-0.0182
G2 X1.8611 Y0.3119 I-0.0242 J-0.0171
G2 X1.8627 Y0.3012 I-0.0343 J-0.0104
G2 X1.8611 Y0.2906 I-0.0358 J-0.0002
G2 X1.8569 Y0.2819 I-0.0289 J0.0086
G2 X1.8507 Y0.2761 I-0.0173 J0.0122
G2 X1.8432 Y0.274 I-0.0075 J0.0123
G2 X1.8356 Y0.2761 I0.0 J0.0145
G2 X1.8294 Y0.2819 I0.0111 J0.018
G2 X1.8252 Y0.2906 I0.0253 J0.0175
G2 X1.8237 Y0.3012 I0.0343 J0.0104
G2 X1.8239 Y0.3055 I0.0358 J0.0002
G0 Z0.06
G0 X1.6138 Y0.3976
G1 F2.0 Z-0.006
G1 F6.0 X1.5587
G1 X1.6138
G0 Z0.06
G0 X1.4146 Y0.3983
G1 F2.0 Z-0.006
G2 F6.0 X1.4128 Y0.381 I-0.0731 J-0.001
G2 X1.4068 Y0.3689 I-0.0274 J0.006
G2 X1.3954 Y0.3616 I-0.0196 J0.0182
G2 X1.3868 Y0.3597 I-0.0136 J0.0409
G2 X1.3779 Y0.3592 I-0.0085 J0.0719
G2 X1.3692 Y0.3597 I-0.0003 J0.0718
G2 X1.3606 Y0.3616 I0.0045 J0.0398
G2 X1.3501 Y0.369 I0.0075 J0.0219
G2 X1.3448 Y0.3813 I0.0238 J0.0175
G2 X1.3434 Y0.3983 I0.0919 J0.0161
G1 Y0.468
G1 Y0.3983
G3 X1.3448 Y0.3813 I0.0933 J-0.0009
G3 X1.3501 Y0.369 I0.0291 J0.0052
G3 X1.3606 Y0.3616 I0.018 J0.0145
G3 X1.3692 Y0.3597 I0.013 J0.0379
G3 X1.3779 Y0.3592 I0.0084 J0.0714
G3 X1.3868 Y0.3597 I0.0003 J0.0723
G3 X1.3954 Y0.3616 I-0.0049 J0.0428
G3 X1.4068 Y0.3689 I-0.0083 J0.0255
G3 X1.4128 Y0.381 I-0.0214 J0.0181
G3 X1.4146 Y0.3983 I-0.0713 J0.0163
G1 Y0.468
G1 Y0.3983
( trous07 )
M0
G0 Z0.06
( T2 : 0.027 )
T2 M6
M3 S1000
G0 X1.7205 Y0.6034
G98
G81 X1.7205 Y0.6034 Z-0.09 R0.06 F4.0
G81 X1.5705 Y0.5784 Z-0.09
G81 X1.4755 Y0.9134 Z-0.09
G81 X1.3755 Z-0.09
G81 X1.2755 Z-0.09
G81 X1.1755 Z-0.09
G81 X1.0755 Z-0.09
G81 X0.9755 Z-0.09
G81 X0.8755 Z-0.09
G81 X0.7755 Z-0.09
G81 X0.6755 Z-0.09
G81 X0.5755 Z-0.09
G81 X0.4755 Z-0.09
G81 X0.3755 Z-0.09
G81 X0.2755 Z-0.09
G81 X0.1755 Z-0.09
G81 Y0.7634 Z-0.09
G81 X0.3755 Z-0.09
G81 X0.4194 Y0.4634 Z-0.09
G81 X0.2816 Z-0.09
G81 X0.7005 Y0.4884 Z-0.09
G81 X0.8755 Z-0.09
G81 Y0.2884 Z-0.09
G81 X0.7005 Z-0.09
G81 X1.1705 Y0.5784 Z-0.09
G81 X1.1755 Y1.2134 Z-0.09
G81 X1.2755 Z-0.09
G81 X1.3755 Z-0.09
G81 X1.4755 Z-0.09
G81 X1.7505 Y1.3634 Z-0.09
G81 X1.7205 Y1.0034 Z-0.09
G81 X1.0755 Y1.2134 Z-0.09
G81 X0.9755 Z-0.09
G81 X0.8755 Z-0.09
G81 X0.7755 Z-0.09
G81 X0.6755 Z-0.09
G81 X0.5755 Z-0.09
G81 X0.4755 Z-0.09
G81 X0.3755 Z-0.09
G81 X0.2755 Z-0.09
G81 X0.1755 Z-0.09
G81 X0.4505 Y1.3634 Z-0.09
G81 X0.6255 Z-0.09
G81 Y1.5634 Z-0.09
G81 X0.4505 Y1.7634 Z-0.09
G81 X0.2855 Y1.6334 Z-0.09
G81 Y1.5334 Z-0.09
G80
( trous10 )
M0
G0 Z0.06
( T3 : 0.04 )
T3 M6
M3 S1000
G0 X1.8655 Y0.4134
G98
G81 X1.8655 Y0.4134 Z-0.09 R0.06 F4.0
G81 Y0.5134 Z-0.09
G81 Y0.6134 Z-0.09
G81 Y0.7134 Z-0.09
G81 Y0.8134 Z-0.09
G80
( contour )
M0
G0 Z0.125
( T4 : 0.12 )
T4 M6
M3 S1000
G0 X0.1005 Y0.1534
G0 Z0.0625
G1 F2.0 Z-0.02
G1 F6.0 X0.9412
G1 X0.9662 Z0.02
G1 X1.0862
G1 X1.1112 Z-0.02
G1 X2.0755
G3 X2.1355 Y0.2134 I0.0 J0.06
G1 Y1.0409
G1 Y1.0659 Z0.02
G1 Y1.1859
G1 Y1.2109 Z-0.02
G1 Y2.0884
G3 X2.0755 Y2.1484 I-0.06 J0.0
G1 X1.1629
G1 X1.1379 Z0.02
G1 X1.0179
G1 X0.9929 Z-0.02
G1 X0.1005
G3 X0.0405 Y2.0884 I0.0 J-0.06
G1 Y1.2609
G1 Y1.2359 Z0.02
G1 Y1.1159
G1 Y1.0909 Z-0.02
G1 Y0.2134
G0 Z0.125
G0 X0.1005 Y0.1534
G0 Z0.0425
G1 F2.0 Z-0.04
G1 F6.0 X0.9412
G1 X0.9662 Z0.02
G1 X1.0862
G1 X1.1112 Z-0.04
G1 X2.0755
G3 X2.1355 Y0.2134 I0.0 J0.06
G1 Y1.0409
G1 Y1.0659 Z0.02
G1 Y1.1859
G1 Y1.2109 Z-0.04
G1 Y2.0884
G3 X2.0755 Y2.1484 I-0.06 J0.0
G1 X1.1629
G1 X1.1379 Z0.02
G1 X1.0179
G1 X0.9929 Z-0.04
G1 X0.1005
G3 X0.0405 Y2.0884 I0.0 J-0.06
G1 Y1.2609
G1 Y1.2359 Z0.02
G1 Y1.1159
G1 Y1.0909 Z-0.04
G1 Y0.2134
G0 Z0.125
G0 X0.1005 Y0.1534
G0 Z0.0225
G1 F2.0 Z-0.06
G1 F6.0 X0.9412
G1 X0.9662 Z0.02
G1 X1.0862
G1 X1.1112 Z-0.06
G1 X2.0755
G3 X2.1355 Y0.2134 I0.0 J0.06
G1 Y1.0409
G1 Y1.0659 Z0.02
G1 Y1.1859
G1 Y1.2109 Z-0.06
G1 Y2.0884
G3 X2.0755 Y2.1484 I-0.06 J0.0
G1 X1.1629
G1 X1.1379 Z0.02
G1 X1.0179
G1 X0.9929 Z-0.06
G1 X0.1005
G3 X0.0405 Y2.0884 I0.0 J-0.06
G1 Y1.2609
G1 Y1.2359 Z0.02
G1 Y1.1159
G1 Y1.0909 Z-0.06
G1 Y0.2134
G0 Z0.125
G0 X0.1005 Y0.1534
G0 Z0.0025
G1 F2.0 Z-0.08
G1 F6.0 X0.9412
G1 X0.9662 Z0.02
G1 X1.0862
G1 X1.1112 Z-0.08
G1 X2.0755
G3 X2.1355 Y0.2134 I0.0 J0.06
G1 Y1.0409
G1 Y1.0659 Z0.02
G1 Y1.1859
G1 Y1.2109 Z-0.08
G1 Y2.0884
G3 X2.0755 Y2.1484 I-0.06 J0.0
G1 X1.1629
G1 X1.1379 Z0.02
G1 X1.0179
G1 X0.9929 Z-0.08
G1 X0.1005
G3 X0.0405 Y2.0884 I0.0 J-0.06
G1 Y1.2609
G1 Y1.2359 Z0.02
G1 Y1.1159
G1 Y1.0909 Z-0.08
G1 Y0.2134
G0 Z0.125
M5
M30
