( Made using CamBam - http://www.cambam.co.uk )
( scout_mk1.cmp 2/3/2015 9:32:40 PM )
( T1 : 0.2 )
( T2 : 0.2 )
( T3 : 0.7 )
G21 G90 G64 G40
G0 Z3.0
( T1 : 0.2 )
T1 M6
( isolation )
M0
G17
M3 S1000
G0 X6.998 Y26.4561
G0 Z1.325
G1 F50.0 Z-0.075
G1 F150.0 X5.8821 Y27.572
G1 X4.3039
G1 X3.188 Y26.4561
G1 Y24.8779
G1 X4.3039 Y23.762
G1 X5.8821
G1 X6.998 Y24.8779
G1 Y26.4561
G0 Z3.0
G0 X9.3307 Y23.8235
G0 Z1.325
G1 F50.0 Z-0.075
G3 F150.0 X9.538 Y21.7731 I0.8423 J-0.9505
G3 X11.443 Y22.873 I0.635 J1.0999
G3 X9.538 Y23.9729 I-1.27 J0.0
G3 X9.3307 Y23.8235 I0.635 J-1.0999
G0 Z3.0
G0 X12.5103 Y23.7345
G0 Z1.325
G1 F50.0 Z-0.075
G3 F150.0 X12.51 Y23.711 I0.8377 J-0.0235
G1 Y22.034
G3 X14.186 I0.838 J0.0
G1 Y23.711
G3 X12.5103 Y23.7345 I-0.838 J0.0
G0 Z3.0
G0 X15.05 Y23.7168
G0 Z1.325
G1 F50.0 Z-0.075
G3 F150.0 Y23.711 I0.838 J-0.0058
G1 Y22.034
G3 X16.726 I0.838 J0.0
G1 Y23.711
G3 X15.05 Y23.7168 I-0.838 J0.0
G0 Z3.0
G0 X17.59 Y23.7124
G0 Z1.325
G1 F50.0 Z-0.075
G3 F150.0 Y23.711 I0.838 J-0.0014
G1 Y22.034
G3 X19.266 I0.838 J0.0
G1 Y23.711
G3 X17.59 Y23.7124 I-0.838 J0.0
G0 Z3.0
G0 X20.13 Y23.7114
G0 Z1.325
G1 F50.0 Z-0.075
G3 F150.0 Y23.711 I0.838 J-0.0004
G1 Y22.034
G3 X21.806 I0.838 J0.0
G1 Y23.711
G3 X20.13 Y23.7114 I-0.838 J0.0
G0 Z3.0
G0 X22.67 Y23.7111
G0 Z1.325
G1 F50.0 Z-0.075
G1 F150.0 Y23.711
G1 Y22.034
G3 X24.346 I0.838 J0.0
G1 Y23.711
G3 X22.67 Y23.7111 I-0.838 J0.0
G0 Z3.0
G0 X25.21 Y23.711
G0 Z1.325
G1 F50.0 Z-0.075
G1 F150.0 Y22.034
G3 X25.6415 Y21.3012 I0.838 J0.0
G1 Y20.0319
G1 X25.5921 Y19.932
G1 X24.031
G1 Y17.432
G1 X26.825
G1 Y19.932
G1 X26.4545
G3 Y19.937 I-0.4065 J0.005
G1 Y21.3012
G3 X26.886 Y22.034 I-0.4065 J0.7328
G1 Y23.711
G3 X25.21 I-0.838 J0.0
G0 Z3.0
G0 X27.75
G0 Z1.325
G1 F50.0 Z-0.075
G1 F150.0 Y22.034
G3 X29.426 I0.838 J0.0
G1 Y23.711
G3 X28.9945 Y24.4438 I-0.838 J0.0
G1 Y26.048
G3 X28.8754 Y26.3354 I-0.4065 J0.0
G1 X26.9704 Y28.2404
G3 X26.683 Y28.3595 I-0.2874 J-0.2874
G1 X23.0414
G1 X22.6445 Y28.7564
G1 Y32.398
G3 X22.5254 Y32.6854 I-0.4065 J0.0
G1 X18.1995 Y37.0114
G1 Y48.1046
G1 X19.2314 Y49.1365
G1 X19.7105
G1 Y48.2855
G1 X22.2255
G1 Y50.8005
G1 X19.7105
G1 Y49.9495
G1 X19.063
G3 X18.7756 Y49.8304 I0.0 J-0.4065
G1 X17.5056 Y48.5604
G3 X17.3865 Y48.273 I0.2874 J-0.2874
G1 Y36.843
G3 X17.5056 Y36.5556 I0.4065 J0.0
G1 X21.8315 Y32.2296
G1 Y28.588
G3 X21.9506 Y28.3006 I0.4065 J0.0
G1 X22.5856 Y27.6656
G3 X22.873 Y27.5465 I0.2874 J0.2874
G1 X26.5146
G1 X28.1815 Y25.8796
G1 Y24.4438
G3 X27.75 Y23.711 I0.4065 J-0.7328
G0 Z3.0
G0 X30.29
G0 Z1.325
G1 F50.0 Z-0.075
G1 F150.0 Y22.034
G3 X30.7215 Y21.3012 I0.838 J0.0
G1 Y19.937
G3 Y19.932 I0.4065 J0.0
G1 X30.351
G1 Y17.8599
G1 X30.2056 Y17.7144
G3 X30.0865 Y17.427 I0.2874 J-0.2874
G1 Y12.078
G3 X30.2056 Y11.7906 I0.4065 J0.0
G1 X30.7215 Y11.2746
G1 Y9.436
G1 X29.985
G1 Y8.9535
G1 X27.1171
G3 X25.413 Y9.3679 I-1.0691 J-0.6855
G3 Y7.1681 I0.635 J-1.0999
G3 X27.3116 Y8.1405 I0.635 J1.0999
G1 X29.985
G1 Y7.658
G1 X32.271
G1 Y9.436
G1 X31.5345
G1 Y11.443
G3 X31.4154 Y11.7304 I-0.4065 J0.0
G1 X30.8995 Y12.2464
G1 Y17.2586
G1 X31.0729 Y17.432
G1 X33.145
G1 Y18.2755
G1 X33.2456
G1 X35.2856 Y16.2356
G3 X35.573 Y16.1165 I0.2874 J0.2874
G1 X39.383
G3 X39.6704 Y16.2356 I0.0 J0.4065
G1 X40.7247 Y17.2898
G3 X42.558 Y18.428 I0.5633 J1.1382
G3 X40.653 Y19.5279 I-1.27 J0.0
G3 X40.1498 Y17.8647 I0.635 J-1.0999
G1 X39.2146 Y16.9295
G1 X35.7414
G1 X33.7014 Y18.9694
G3 X33.414 Y19.0885 I-0.2874 J-0.2874
G1 X33.145
G1 Y19.932
G1 X31.5839
G1 X31.5345 Y20.0319
G1 Y21.3012
G3 X31.966 Y22.034 I-0.4065 J0.7328
G1 Y23.711
G3 X31.5345 Y24.4438 I-0.838 J0.0
G1 Y27.75
G1 X36.963
G3 X37.1065 Y28.0965 I0.0 J0.203
G1 X36.9611 Y28.242
G1 X36.9531 Y28.2613
G3 X36.9478 Y28.2741 I-0.1901 J-0.0713
G1 X36.8656 Y28.4723
G3 X36.6023 Y28.6341 I-0.2006 J-0.0313
G1 X36.4634 Y28.589
G1 X36.411 Y28.5806
G1 Y28.841
G3 X37.046 Y29.654 I-0.203 J0.813
G1 Y31.331
G3 X35.37 I-0.838 J0.0
G1 Y30.696
G1 X35.115
G1 Y31.024
G1 Y31.4169
G1 X35.142 Y31.5864
G1 X35.1951 Y31.75
G1 X35.2735 Y31.9035
G1 X35.3748 Y32.0427
G1 X35.4963 Y32.1642
G1 X35.6354 Y32.2653
G1 X35.7878 Y32.3428
G1 X35.9515 Y32.396
G1 X36.122 Y32.423
G1 X36.131
G3 X36.3187 Y32.7034 I0.0 J0.203
G1 X36.3161 Y32.7096
G3 X36.3065 Y32.7328 I-0.1921 J-0.0656
G1 X36.233 Y32.9112
G1 Y33.049
G1 Y33.454
G1 Y33.858
G1 Y34.263
G1 Y34.668
G1 Y35.073
G1 Y35.478
G1 Y35.883
G1 Y36.128
G3 X36.2292 Y36.1673 I-0.203 J0.0
G1 X36.221 Y36.2085
G1 X36.229 Y36.2477
G3 X36.233 Y36.288 I-0.199 J0.0403
G1 Y36.3292
G1 X36.249 Y36.3683
G3 X36.2602 Y36.4057 I-0.188 J0.0767
G1 X36.268 Y36.4456
G1 X36.2904 Y36.4781
G3 X36.3106 Y36.5155 I-0.1674 J0.1149
G1 X36.3262 Y36.5531
G1 X36.3555 Y36.5825
G3 X36.3813 Y36.614 I-0.1435 J0.1435
G1 X36.4035 Y36.6475
G1 X36.437 Y36.6697
G3 X36.4698 Y36.6967 I-0.112 J0.1693
G1 X36.4974 Y36.7248
G1 X36.5347 Y36.74
G3 X36.5706 Y36.7591 I-0.0767 J0.188
G1 X37.7566 Y37.5501
G3 X37.644 Y37.922 I-0.1126 J0.1689
G1 X37.4061
G1 X37.287 Y38.0411
G1 Y38.312
G1 Y38.717
G1 Y39.122
G1 Y39.527
G1 Y39.932
G1 Y40.337
G1 Y40.742
G1 Y41.147
G1 Y41.552
G1 Y41.956
G1 Y42.361
G1 Y42.766
G1 Y43.171
G1 Y43.576
G1 Y43.981
G1 Y44.386
G1 Y44.791
G1 Y45.196
G1 Y46.19
G3 X37.084 Y46.393 I-0.203 J0.0
G1 X36.544
G3 X36.4005 Y46.3335 I0.0 J-0.203
G1 X35.4065 Y45.3395
G1 X35.0015 Y44.9345
G1 X34.5965 Y44.5295
G1 X34.3365 Y44.2695
G3 X34.277 Y44.126 I0.1435 J-0.1435
G1 Y43.981
G1 Y43.576
G1 Y43.171
G1 Y42.766
G1 Y42.361
G1 Y41.956
G1 Y41.552
G1 Y41.147
G1 Y40.742
G1 Y40.337
G1 Y39.932
G1 Y39.527
G1 Y39.122
G1 Y38.717
G1 Y38.312
G1 Y36.288
G1 Y35.883
G1 Y35.478
G1 Y35.073
G1 Y34.668
G1 Y34.263
G1 Y33.858
G1 Y33.454
G1 Y33.049
G1 Y32.644
G1 Y32.278
G3 X34.3368 Y32.1342 I0.203 J0.0
G1 X34.5509 Y31.9209
G1 X34.6142 Y31.7674
G3 X34.6231 Y31.746 I0.1918 J0.0666
G1 X34.709 Y31.5378
G1 Y31.433
G1 Y31.024
G1 Y30.493
G1 Y29.553
G1 Y29.4472
G1 X34.558 Y29.0813
G3 X34.5548 Y29.0736 I0.186 J-0.0813
G1 X34.5508 Y29.0639
G1 X34.2581 Y28.7712
G1 X33.8748 Y28.613
G1 X33.4603
G1 X33.0779 Y28.7711
G1 X32.7851 Y29.064
G1 X32.7823 Y29.0706
G3 X32.7764 Y29.0848 I-0.1903 J-0.0706
G1 X32.626 Y29.4474
G1 Y29.809
G1 Y30.214
G1 Y30.619
G1 Y31.024
G1 Y31.429
G1 Y31.5376
G1 X32.7851 Y31.921
G1 X32.9985 Y32.1345
G3 X33.058 Y32.278 I-0.1435 J0.1435
G1 Y32.644
G1 Y33.049
G1 Y33.454
G1 Y33.858
G1 Y34.263
G1 Y34.668
G1 Y35.073
G1 Y35.478
G1 Y35.883
G1 Y36.288
G1 Y37.098
G1 Y37.503
G1 Y37.907
G1 Y38.312
G1 Y38.717
G1 Y39.122
G1 Y39.527
G1 Y39.932
G1 Y40.337
G1 Y40.742
G1 Y41.147
G1 Y41.552
G1 Y41.956
G1 Y42.361
G1 Y42.766
G1 Y43.171
G1 Y43.576
G1 Y43.981
G1 Y44.386
G1 Y44.5836
G1 X33.1512 Y44.8082
G1 X33.3507 Y45.0086
G1 X33.7871 Y45.445
G3 X33.811 Y45.4689 I-0.1311 J0.155
G1 X34.1921 Y45.85
G3 X34.216 Y45.8739 I-0.1311 J0.155
G1 X34.5971 Y46.255
G3 X34.621 Y46.2789 I-0.1311 J0.155
G1 X35.0021 Y46.66
G3 X35.026 Y46.6839 I-0.1311 J0.155
G1 X35.4071 Y47.065
G3 X35.431 Y47.0889 I-0.1311 J0.155
G1 X35.8121 Y47.47
G3 X35.836 Y47.4939 I-0.1311 J0.155
G1 X35.8618 Y47.5197
G1 X36.0861 Y47.612
G1 X37.084
G3 X37.287 Y47.815 I0.0 J0.203
G1 Y48.03
G1 Y48.075
G3 X37.259 Y48.1779 I-0.203 J0.0
G1 X37.253 Y48.1881
G1 X37.236 Y48.2517
G1 Y48.435
G1 Y48.84
G1 Y49.137
G1 X37.4905
G1 Y48.2855
G1 X40.0055
G1 Y49.137
G1 X40.259
G1 Y48.84
G1 Y48.435
G1 Y48.2517
G1 X40.242 Y48.1881
G1 X40.236 Y48.1779
G3 X40.208 Y48.075 I0.175 J-0.1029
G1 Y47.815
G3 X40.411 Y47.612 I0.203 J0.0
G1 X41.672
G3 X41.7498 Y47.6275 I0.0 J0.203
G1 X42.2644 Y47.841
G1 X42.8506
G1 X43.392 Y47.6169
G1 X43.807 Y47.2019
G1 X43.8274 Y47.1528
G3 X43.8363 Y47.1315 I0.1916 J0.0672
G1 X43.8486 Y47.102
G3 X44.036 Y46.977 I0.1874 J0.078
G1 X45.525
G3 X45.7124 Y47.102 I0.0 J0.203
G1 X45.754 Y47.202
G1 X46.1681 Y47.6169
G1 X46.7094 Y47.841
G1 X47.2956
G1 X47.837 Y47.6169
G1 X47.9725 Y47.4815
G1 X48.2519 Y47.202
G1 X48.2737 Y47.1494
G3 X48.2795 Y47.1354 I0.1903 J0.0706
G1 X48.476 Y46.6606
G1 Y46.41
G1 Y46.0744
G1 X48.3161 Y45.688
G3 X48.3074 Y45.6671 I0.1829 J-0.088
G1 X48.2519 Y45.5331
G1 X48.0666 Y45.3481
G3 X48.0492 Y45.3307 I0.1344 J-0.1521
G1 X47.837 Y45.1191
G1 X47.5073 Y44.982
G3 X47.4891 Y44.9744 I0.0687 J-0.191
G1 X47.2955 Y44.894
G1 X46.7095
G1 X46.5159 Y44.9744
G3 X46.4977 Y44.982 I-0.0869 J-0.1834
G1 X46.1681 Y45.119
G1 X45.9475 Y45.3395
G1 X45.754 Y45.5331
G1 X45.7124 Y45.633
G3 X45.525 Y45.758 I-0.1874 J-0.078
G1 X44.036
G3 X43.8486 Y45.633 I0.0 J-0.203
G1 X43.8071 Y45.5332
G1 X43.6216 Y45.3481
G3 X43.6042 Y45.3307 I0.1344 J-0.1521
G1 X43.392 Y45.1191
G1 X43.0623 Y44.982
G3 X43.0441 Y44.9744 I0.0687 J-0.191
G1 X42.8505 Y44.894
G1 X42.2645
G1 X42.0709 Y44.9744
G3 X42.0527 Y44.982 I-0.0869 J-0.1834
G1 X41.7231 Y45.119
G1 X41.309 Y45.5331
G1 X41.084 Y46.0745
G1 Y46.19
G3 X40.881 Y46.393 I-0.203 J0.0
G1 X40.411
G3 X40.208 Y46.19 I0.0 J-0.203
G1 Y45.275
G3 X40.411 Y45.072 I0.203 J0.0
G1 X40.7739
G1 X40.9982 Y44.9797
G1 X41.3305 Y44.6475
G1 X41.7355 Y44.2425
G1 X42.1405 Y43.8375
G1 X42.5455 Y43.4325
G1 X42.8745 Y43.1035
G1 X42.9505 Y43.0275
G1 X43.0747 Y42.9032
G1 X43.167 Y42.6789
G1 Y42.361
G1 Y41.956
G1 Y41.552
G1 Y41.147
G1 Y40.742
G1 Y40.337
G1 Y39.932
G1 Y39.527
G1 Y39.122
G1 Y38.717
G1 Y38.312
G1 Y37.907
G1 Y33.049
G1 Y32.489
G3 X43.4469 Y32.3011 I0.203 J0.0
G1 X43.62 Y32.372
G1 X44.0348
G1 X44.4181 Y32.2138
G1 X44.7108 Y31.9211
G1 X44.7742 Y31.7674
G3 X44.7831 Y31.746 I0.1918 J0.0666
G1 X44.869 Y31.5378
G1 Y29.4472
G1 X44.718 Y29.0813
G3 X44.7148 Y29.0736 I0.186 J-0.0813
G1 X44.7108 Y29.0639
G1 X44.4181 Y28.7712
G1 X44.0348 Y28.613
G1 X43.6204
G1 X43.4477 Y28.6845
G3 X43.167 Y28.497 I-0.0777 J-0.1875
G1 Y27.953
G3 X43.37 Y27.75 I0.203 J0.0
G1 X58.433
G3 X58.636 Y27.953 I0.0 J0.203
G1 Y33.049
G1 Y37.907
G1 Y38.312
G1 Y38.717
G1 Y39.122
G1 Y39.527
G1 Y39.932
G1 Y40.337
G1 Y40.742
G1 Y41.147
G1 Y41.552
G1 Y41.956
G1 Y42.361
G1 Y43.171
G1 Y43.576
G1 Y43.981
G1 Y44.386
G1 Y44.791
G1 Y45.196
G1 Y45.6
G1 Y46.41
G1 Y47.22
G1 Y47.625
G1 Y48.435
G1 Y48.84
G1 Y53.294
G1 Y53.698
G1 Y53.734
G3 X58.433 Y53.937 I-0.203 J0.0
G1 X40.237
G3 X40.1363 Y53.5577 I0.0 J-0.203
G1 X40.1615 Y53.5433
G3 X40.1619 Y53.543 I0.1315 J0.1547
G1 X40.2082 Y53.4967
G1 X40.2417 Y53.4381
G1 X40.259 Y53.3733
G1 Y53.294
G1 Y52.489
G1 X40.0055
G1 Y53.3405
G1 X37.4905
G1 Y52.489
G1 X37.236
G1 Y52.889
G1 Y53.294
G1 Y53.3733
G1 X37.2531 Y53.4374
G1 X37.2872 Y53.4962
G1 X37.335 Y53.5439
G1 X37.3603 Y53.5587
G3 X37.258 Y53.937 I-0.1023 J0.1753
G1 X31.674
G3 X31.471 Y53.734 I0.0 J-0.203
G1 Y53.294
G1 Y52.889
G1 Y52.079
G1 Y51.674
G1 Y51.269
G1 Y50.864
G1 Y50.459
G1 Y50.2681
G1 X31.4189 Y50.216
G1 X26.0111
G1 X25.959 Y50.2681
G1 Y50.459
G1 Y50.864
G1 Y51.269
G1 Y51.674
G1 Y52.079
G1 Y52.889
G1 Y53.294
G1 Y53.698
G1 Y53.734
G3 X25.756 Y53.937 I-0.203 J0.0
G1 X22.457
G3 X22.3563 Y53.5577 I0.0 J-0.203
G1 X22.3815 Y53.5433
G3 X22.3819 Y53.543 I0.1315 J0.1547
G1 X22.4282 Y53.4967
G1 X22.4617 Y53.4381
G1 X22.479 Y53.3733
G1 Y53.294
G1 Y52.889
G1 Y52.489
G1 X22.2255
G1 Y53.3405
G1 X19.7105
G1 Y52.489
G1 X19.456
G1 Y52.889
G1 Y53.294
G1 Y53.3733
G1 X19.4731 Y53.4374
G1 X19.5072 Y53.4962
G1 X19.555 Y53.5439
G1 X19.5803 Y53.5587
G3 X19.478 Y53.937 I-0.1023 J0.1753
G1 X2.934
G3 X2.731 Y53.734 I0.0 J-0.203
G1 Y53.294
G1 Y52.889
G1 Y52.079
G1 Y51.674
G1 Y51.269
G1 Y50.864
G1 Y50.459
G1 Y50.054
G1 Y49.649
G1 Y49.245
G1 Y48.03
G1 Y34.668
G1 Y34.263
G1 Y33.858
G1 Y33.454
G1 Y33.049
G1 Y32.644
G1 Y28.19
G1 Y27.953
G3 X2.934 Y27.75 I0.203 J0.0
G1 X4.11
G3 X4.2076 Y27.775 I0.0 J0.203
G1 X5.9784
G3 X6.076 Y27.75 I0.0976 J0.178
G1 X7.8615
G1 Y24.9464
G1 X6.1197 Y23.2046
G3 X4.839 Y23.2109 I-0.6457 J-1.0936
G3 Y21.0111 I0.635 J-1.0999
G3 X6.0373 Y20.9728 I0.635 J1.0999
G1 X6.5915 Y20.4186
G1 Y19.952
G1 X6.2089
G1 X5.093 Y18.8361
G1 Y17.2579
G1 X6.0835 Y16.2674
G1 Y14.872
G1 X5.7009
G1 X4.585 Y13.7561
G1 Y12.1779
G1 X5.7009 Y11.062
G1 X7.2791
G1 X7.5496 Y11.3325
G1 X9.6316 Y9.2506
G3 X9.7858 Y9.154 I0.2874 J0.2874
G3 X10.262 Y8.5923 I1.0222 J0.384
G3 X11.9 Y9.538 I0.546 J0.9457
G3 X10.262 Y10.4837 I-1.092 J0.0
G3 X9.8949 Y10.137 I0.546 J-0.9457
G1 X8.1245 Y11.9074
G1 X8.395 Y12.1779
G1 Y13.7561
G1 X7.2791 Y14.872
G1 X6.8965
G1 Y16.142
G1 X7.7871
G1 X8.903 Y17.2579
G1 Y18.8361
G1 X7.7871 Y19.952
G1 X7.4045
G1 Y20.587
G3 X7.2854 Y20.8744 I-0.4065 J0.0
G1 X6.6122 Y21.5477
G3 X6.744 Y22.111 I-1.1382 J0.5633
G3 X6.6516 Y22.5867 I-1.27 J0.0
G1 X8.5554 Y24.4906
G3 X8.6745 Y24.778 I-0.2874 J0.2874
G1 Y27.75
G1 X19.2915
G1 Y21.1364
G1 X19.1126 Y20.9575
G1 X16.741
G3 X16.4536 Y20.8384 I0.0 J-0.4065
G1 X13.0606 Y17.4454
G3 X12.9415 Y17.158 I0.2874 J-0.2874
G1 Y16.8758
G3 X12.382 Y16.7079 I0.0755 J-1.2678
G3 Y14.5081 I0.635 J-1.0999
G3 X14.287 Y15.608 I0.635 J1.0999
G3 X13.7545 Y16.6419 I-1.27 J0.0
G1 Y16.9896
G1 X16.9094 Y20.1445
G1 X19.281
G3 X19.5684 Y20.2636 I0.0 J0.4065
G1 X19.9854 Y20.6806
G3 X20.1045 Y20.968 I-0.2874 J0.2874
G1 Y27.75
G1 X21.723
G3 X21.8665 Y28.0965 I0.0 J0.203
G1 X21.7211 Y28.242
G1 X21.7131 Y28.2613
G3 X21.7078 Y28.2741 I-0.1901 J-0.0713
G1 X21.628 Y28.4664
G1 Y28.497
G3 X21.3473 Y28.6845 I-0.203 J0.0
G1 X21.1746 Y28.613
G1 X20.7603
G1 X20.3779 Y28.7711
G1 X20.0851 Y29.064
G1 X20.0823 Y29.0706
G3 X20.0764 Y29.0848 I-0.1903 J-0.0706
G1 X19.926 Y29.4474
G1 Y31.5376
G1 X20.0851 Y31.921
G1 X20.3779 Y32.2139
G1 X20.7603 Y32.372
G1 X20.91
G3 X21.0536 Y32.7185 I0.0 J0.203
G1 X20.9969 Y32.7752
G3 X20.9732 Y32.7989 I-0.1549 J-0.1312
G1 X20.5913 Y33.1809
G3 X20.5689 Y33.2033 I-0.1543 J-0.1319
G1 X20.1857 Y33.5866
G3 X20.1647 Y33.6076 I-0.1537 J-0.1326
G1 X19.781 Y33.9914
G3 X19.7615 Y34.0109 I-0.153 J-0.1334
G1 X19.3752 Y34.3973
G3 X19.3573 Y34.4152 I-0.1522 J-0.1343
G1 X18.9694 Y34.8033
G3 X18.9533 Y34.8193 I-0.1514 J-0.1353
G1 X18.5634 Y35.2093
G3 X18.5494 Y35.2234 I-0.1504 J-0.1363
G1 X18.1573 Y35.6156
G3 X18.1456 Y35.6272 I-0.1493 J-0.1376
G1 X17.7508 Y36.0221
G3 X17.7422 Y36.0308 I-0.1478 J-0.1391
G1 X17.3434 Y36.4296
G3 X17.3397 Y36.4334 I-0.1454 J-0.1416
G1 X17.2761 Y36.497
G1 X17.183 Y36.7214
G1 Y48.03
G1 Y48.3936
G1 X17.2762 Y48.6182
G1 X17.4757 Y48.8186
G1 X17.7585 Y49.1015
G1 X18.1511 Y49.494
G3 X18.175 Y49.5179 I-0.1311 J0.155
G1 X18.5561 Y49.899
G3 X18.58 Y49.9229 I-0.1311 J0.155
G1 X18.7168 Y50.0597
G1 X18.9411 Y50.152
G1 X19.304
G3 X19.507 Y50.355 I0.0 J0.203
G1 Y50.459
G1 Y50.615
G3 X19.479 Y50.7179 I-0.203 J0.0
G1 X19.473 Y50.7281
G1 X19.456 Y50.7917
G1 Y50.864
G1 Y51.269
G1 Y51.674
G1 Y51.677
G1 X19.7105
G1 Y50.8255
G1 X22.2255
G1 Y51.677
G1 X22.479
G1 Y51.674
G1 Y51.269
G1 Y50.864
G1 Y50.7917
G1 X22.462 Y50.7281
G1 X22.456 Y50.7179
G3 X22.428 Y50.615 I0.175 J-0.1029
G1 Y50.459
G1 Y49.649
G1 Y48.84
G1 Y48.435
G1 Y48.03
G1 Y47.625
G1 Y47.22
G1 Y46.815
G1 Y46.41
G1 Y46.005
G1 Y45.6
G1 Y45.275
G3 X22.631 Y45.072 I0.203 J0.0
G1 X22.9939
G1 X23.2182 Y44.9797
G1 X23.9555 Y44.2425
G1 X24.3605 Y43.8375
G1 X24.7655 Y43.4325
G1 X25.1705 Y43.0275
G1 X25.5755 Y42.6225
G1 X25.9805 Y42.2175
G1 X26.373 Y41.8249
G3 X26.3969 Y41.801 I0.155 J0.1311
G1 X26.7895 Y41.4085
G1 X27.1945 Y41.0035
G1 X27.5995 Y40.5985
G1 X28.0045 Y40.1935
G1 X28.4095 Y39.7885
G1 X28.8145 Y39.3835
G1 X29.2195 Y38.9785
G1 X29.6245 Y38.5735
G1 X30.0295 Y38.1685
G1 X30.422 Y37.7759
G3 X30.4459 Y37.752 I0.155 J0.1311
G1 X30.8385 Y37.3595
G1 X31.2435 Y36.9545
G1 X31.4445 Y36.7535
G1 X31.6447 Y36.5532
G1 X31.737 Y36.3289
G1 Y36.288
G1 Y35.883
G1 Y35.478
G1 Y35.073
G1 Y34.668
G1 Y34.263
G1 Y33.858
G1 Y33.454
G1 Y33.049
G1 Y32.644
G1 Y32.278
G3 X31.7968 Y32.1342 I0.203 J0.0
G1 X32.0109 Y31.9209
G1 X32.0742 Y31.7674
G3 X32.0831 Y31.746 I0.1918 J0.0666
G1 X32.169 Y31.5378
G1 Y31.429
G1 Y31.024
G1 Y30.619
G1 Y30.214
G1 Y29.809
G1 Y29.4472
G1 X32.018 Y29.0813
G3 X32.0148 Y29.0736 I0.186 J-0.0813
G1 X32.0108 Y29.0639
G1 X31.7181 Y28.7712
G1 X31.3348 Y28.613
G1 X30.9203
G1 X30.5379 Y28.7711
G1 X30.2451 Y29.064
G1 X30.2423 Y29.0706
G3 X30.2364 Y29.0848 I-0.1903 J-0.0706
G1 X30.086 Y29.4474
G1 Y29.809
G1 Y30.214
G1 Y30.619
G1 Y31.024
G1 Y31.429
G1 Y31.5376
G1 X30.2451 Y31.921
G1 X30.4585 Y32.1345
G3 X30.518 Y32.278 I-0.1435 J0.1435
G1 Y32.644
G1 Y33.049
G1 Y33.454
G1 Y33.858
G1 Y34.263
G1 Y34.668
G1 Y35.073
G1 Y35.478
G1 Y35.871
G3 X30.4585 Y36.0145 I-0.203 J0.0
G1 X30.4465 Y36.0265
G1 X30.0415 Y36.4315
G1 X29.2315 Y37.2415
G1 X28.8265 Y37.6465
G1 X28.4225 Y38.0505
G1 X28.0175 Y38.4555
G1 X27.6125 Y38.8605
G1 X27.2075 Y39.2655
G1 X26.8025 Y39.6705
G1 X26.3975 Y40.0755
G1 X25.9925 Y40.4805
G1 X25.5875 Y40.8855
G1 X25.1825 Y41.2905
G1 X24.7775 Y41.6955
G1 X24.3735 Y42.0995
G1 X23.9685 Y42.5045
G1 X23.5635 Y42.9095
G1 X23.1585 Y43.3145
G1 X22.7745 Y43.6985
G3 X22.428 Y43.555 I-0.1435 J-0.1435
G1 Y43.171
G1 Y42.766
G1 Y42.735
G3 X22.631 Y42.532 I0.203 J0.0
G1 X22.9939
G1 X23.2182 Y42.4397
G1 X23.4405 Y42.2175
G1 X23.833 Y41.8249
G3 X23.8569 Y41.801 I0.155 J0.1311
G1 X24.2495 Y41.4085
G1 X24.6545 Y41.0035
G1 X25.0595 Y40.5985
G1 X25.4645 Y40.1935
G1 X25.8695 Y39.7885
G1 X26.2745 Y39.3835
G1 X26.6795 Y38.9785
G1 X27.0845 Y38.5735
G1 X27.4895 Y38.1685
G1 X27.882 Y37.7759
G3 X27.9059 Y37.752 I0.155 J0.1311
G1 X28.2985 Y37.3595
G1 X28.7035 Y36.9545
G1 X28.9045 Y36.7535
G1 X29.1047 Y36.5532
G1 X29.197 Y36.3289
G1 Y36.288
G1 Y35.883
G1 Y35.478
G1 Y35.073
G1 Y34.668
G1 Y34.263
G1 Y33.858
G1 Y33.454
G1 Y33.049
G1 Y32.644
G1 Y32.278
G3 X29.2568 Y32.1342 I0.203 J0.0
G1 X29.4709 Y31.9209
G1 X29.5342 Y31.7674
G3 X29.5431 Y31.746 I0.1918 J0.0666
G1 X29.629 Y31.5378
G1 Y31.429
G1 Y31.024
G1 Y30.619
G1 Y30.214
G1 Y29.809
G1 Y29.4472
G1 X29.478 Y29.0813
G3 X29.4748 Y29.0736 I0.186 J-0.0813
G1 X29.4708 Y29.0639
G1 X29.1781 Y28.7712
G1 X28.7948 Y28.613
G1 X28.3803
G1 X27.9979 Y28.7711
G1 X27.7051 Y29.064
G1 X27.7023 Y29.0706
G3 X27.6964 Y29.0848 I-0.1903 J-0.0706
G1 X27.546 Y29.4474
G1 Y29.809
G1 Y30.214
G1 Y30.619
G1 Y31.024
G1 Y31.429
G1 Y31.5376
G1 X27.7051 Y31.921
G1 X27.9185 Y32.1345
G3 X27.978 Y32.278 I-0.1435 J0.1435
G1 Y32.644
G1 Y33.049
G1 Y33.454
G1 Y33.858
G1 Y34.263
G1 Y34.668
G1 Y35.073
G1 Y35.478
G1 Y35.871
G3 X27.9185 Y36.0145 I-0.203 J0.0
G1 X27.9065 Y36.0265
G1 X27.5015 Y36.4315
G1 X26.6915 Y37.2415
G1 X26.2865 Y37.6465
G1 X25.8825 Y38.0505
G1 X25.4775 Y38.4555
G1 X25.0725 Y38.8605
G1 X24.6675 Y39.2655
G1 X24.2625 Y39.6705
G1 X23.8575 Y40.0755
G1 X23.4525 Y40.4805
G1 X23.0475 Y40.8855
G1 X22.7745 Y41.1585
G3 X22.428 Y41.015 I-0.1435 J-0.1435
G1 Y40.742
G1 Y40.337
G1 Y40.195
G3 X22.631 Y39.992 I0.203 J0.0
G1 X22.9939
G1 X23.2182 Y39.8997
G1 X23.3295 Y39.7885
G1 X23.4185 Y39.6995
G1 X23.7345 Y39.3835
G1 X24.1395 Y38.9785
G1 X24.5445 Y38.5735
G1 X24.9495 Y38.1685
G1 X25.342 Y37.7759
G3 X25.3659 Y37.752 I0.155 J0.1311
G1 X25.7585 Y37.3595
G1 X26.1635 Y36.9545
G1 X26.5647 Y36.5532
G1 X26.657 Y36.3289
G1 Y36.288
G1 Y35.883
G1 Y35.478
G1 Y35.073
G1 Y34.668
G1 Y34.263
G1 Y33.858
G1 Y33.454
G1 Y33.049
G1 Y32.644
G1 Y32.278
G3 X26.7168 Y32.1342 I0.203 J0.0
G1 X26.9309 Y31.9209
G1 X26.9942 Y31.7674
G3 X27.0031 Y31.746 I0.1918 J0.0666
G1 X27.089 Y31.5378
G1 Y31.429
G1 Y31.024
G1 Y30.619
G1 Y30.214
G1 Y29.809
G1 Y29.4472
G1 X26.938 Y29.0813
G3 X26.9348 Y29.0736 I0.186 J-0.0813
G1 X26.9309 Y29.0641
G1 X26.7538 Y28.8879
G3 X26.8192 Y28.5565 I0.1432 J-0.1439
G1 X27.028 Y28.4699
G1 X27.4515 Y28.0465
G1 X27.6885 Y27.8095
G3 X27.832 Y27.75 I0.1435 J0.1435
G1 X30.7215
G1 Y24.4438
G3 X30.29 Y23.711 I0.4065 J-0.7328
G0 Z3.0
G0 X19.3108 Y29.0639
G0 Z1.325
G1 F50.0 Z-0.075
G1 F150.0 X19.3148 Y29.0736
G2 X19.318 Y29.0813 I0.1892 J-0.0736
G1 X19.469 Y29.4472
G1 Y31.5378
G1 X19.3831 Y31.746
G2 X19.3742 Y31.7674 I0.1829 J0.088
G1 X19.3108 Y31.9211
G1 X19.0181 Y32.2138
G1 X18.6348 Y32.372
G1 X18.2203
G1 X17.8379 Y32.2139
G1 X17.5451 Y31.921
G1 X17.386 Y31.5376
G1 Y29.4474
G1 X17.5364 Y29.0848
G2 X17.5423 Y29.0706 I-0.1844 J-0.0848
G1 X17.5451 Y29.064
G1 X17.8379 Y28.7711
G1 X18.2203 Y28.613
G1 X18.6348
G1 X19.0181 Y28.7712
G1 X19.3108 Y29.0639
G0 Z3.0
G0 X19.1247 Y29.1883
G0 Z1.325
G1 F50.0 Z-0.075
G3 F150.0 X19.266 Y29.654 I-0.6967 J0.4657
G1 Y31.331
G3 X17.59 I-0.838 J0.0
G1 Y29.654
G3 X19.1247 Y29.1883 I0.838 J0.0
G0 Z3.0
G0 X16.929 Y29.4472
G0 Z1.325
G1 F50.0 Z-0.075
G1 F150.0 Y31.5378
G1 X16.8431 Y31.746
G2 X16.8342 Y31.7674 I0.1829 J0.088
G1 X16.7708 Y31.9211
G1 X16.4781 Y32.2138
G1 X16.0948 Y32.372
G1 X15.6803
G1 X15.2979 Y32.2139
G1 X15.0051 Y31.921
G1 X14.846 Y31.5376
G1 Y29.4474
G1 X14.9964 Y29.0848
G2 X15.0023 Y29.0706 I-0.1844 J-0.0848
G1 X15.0051 Y29.064
G1 X15.2979 Y28.7711
G1 X15.6803 Y28.613
G1 X16.0948
G1 X16.4781 Y28.7712
G1 X16.7708 Y29.0639
G1 X16.7748 Y29.0736
G2 X16.778 Y29.0813 I0.1892 J-0.0736
G1 X16.929 Y29.4472
G0 Z3.0
G0 X16.7099 Y29.4907
G0 Z1.325
G1 F50.0 Z-0.075
G3 F150.0 X16.726 Y29.654 I-0.8219 J0.1633
G1 Y31.331
G3 X15.05 I-0.838 J0.0
G1 Y29.654
G3 X16.7099 Y29.4907 I0.838 J0.0
G0 Z3.0
G0 X14.389
G0 Z1.325
G1 F50.0 Z-0.075
G1 F150.0 Y31.5378
G1 X14.3031 Y31.746
G2 X14.2942 Y31.7674 I0.1829 J0.088
G1 X14.2308 Y31.9211
G1 X13.9381 Y32.2138
G1 X13.5548 Y32.372
G1 X13.1403
G1 X12.7579 Y32.2139
G1 X12.4651 Y31.921
G1 X12.306 Y31.5376
G1 Y29.4474
G1 X12.4564 Y29.0848
G2 X12.4623 Y29.0706 I-0.1844 J-0.0848
G1 X12.4651 Y29.064
G1 X12.7579 Y28.7711
G1 X13.1403 Y28.613
G1 X13.5548
G1 X13.9381 Y28.7712
G1 X14.2308 Y29.0639
G1 X14.2348 Y29.0736
G2 X14.238 Y29.0813 I0.1892 J-0.0736
G1 X14.389 Y29.4472
G1 Y29.4907
G0 Z3.0
G0 X14.1759 Y29.5242
G0 Z1.325
G1 F50.0 Z-0.075
G3 F150.0 X14.186 Y29.654 I-0.8279 J0.1298
G1 Y31.331
G3 X12.51 I-0.838 J0.0
G1 Y29.654
G3 X14.1759 Y29.5242 I0.838 J0.0
G0 Z3.0
G0 X9.2049 Y35.1091
G0 Z1.325
G1 F50.0 Z-0.075
G1 F150.0 X9.5688 Y35.4738
G1 X9.766 Y35.9503
G1 Y36.4657
G1 X9.5689 Y36.942
G1 X9.1765 Y37.3345
G2 Y37.6215 I0.1435 J0.1435
G1 X9.5689 Y38.014
G1 X9.766 Y38.4903
G1 Y39.0057
G1 X9.5689 Y39.482
G1 X9.1935 Y39.8575
G2 X9.2169 Y40.1646 I0.1435 J0.1435
G1 X9.3476 Y40.2607
G1 X9.4981 Y40.4103
G1 X9.5225 Y40.4441
G2 X9.5391 Y40.4671 I0.1725 J-0.1071
G1 X9.6223 Y40.5823
G1 X9.7189 Y40.7709
G1 X9.784 Y40.9723
G1 X9.7937 Y41.034
G1 X9.533
G2 X8.471 Y40.196 I-1.062 J0.254
G1 X6.286
G2 X5.224 Y41.034 I0.0 J1.092
G1 X4.9633
G1 X4.973 Y40.9727
G1 X5.0265 Y40.8094
G2 X5.0293 Y40.8009 I-0.1915 J-0.0674
G1 X5.0391 Y40.7709
G1 X5.1347 Y40.5823
G1 X5.2598 Y40.4103
G1 X5.4094 Y40.2607
G1 X5.5406 Y40.165
G2 X5.5644 Y39.8573 I-0.1196 J-0.164
G1 X5.1881 Y39.4819
G1 X5.0126 Y39.0579
G2 X5.0016 Y39.0313 I-0.1926 J0.0641
G1 X4.991 Y39.0057
G1 Y38.4903
G1 X5.1881 Y38.014
G1 X5.5805 Y37.6215
G2 Y37.3345 I-0.1435 J-0.1435
G1 X5.1881 Y36.942
G1 X4.991 Y36.4657
G1 Y35.9503
G1 X5.1507 Y35.5643
G2 X5.158 Y35.5467 I-0.1837 J-0.0863
G1 X5.1881 Y35.474
G1 X5.553 Y35.1091
G1 X6.0284 Y34.912
G1 X8.7287
G1 X9.2049 Y35.1091
G0 Z3.0
G0 X9.0775 Y35.2999
G0 Z1.325
G1 F50.0 Z-0.075
G3 F150.0 X8.471 Y37.3 I-0.6065 J0.9081
G1 X6.286
G3 Y35.116 I0.0 J-1.092
G1 X8.471
G3 X9.0775 Y35.2999 I0.0 J1.092
G0 Z3.0
G0 X8.6602 Y37.6725
G0 Z1.325
G1 F50.0 Z-0.075
G3 F150.0 X8.471 Y39.84 I-0.1892 J1.0755
G1 X6.286
G3 Y37.656 I0.0 J-1.092
G1 X8.471
G3 X8.6602 Y37.6725 I0.0 J1.092
G0 Z3.0
G0 X9.533 Y41.542
G0 Z1.325
G1 F50.0 Z-0.075
G1 F150.0 X9.7937
G1 X9.784 Y41.6036
G1 X9.7189 Y41.8041
G1 X9.6932 Y41.8544
G2 X9.6835 Y41.8736 I0.1758 J0.1016
G1 X9.6223 Y41.9937
G1 X9.4981 Y42.1648
G1 X9.4569 Y42.206
G2 X9.433 Y42.2299 I0.1311 J0.155
G1 X9.3477 Y42.3152
G1 X9.2176 Y42.4098
G2 X9.1933 Y42.7174 I0.1194 J0.1642
G1 X9.5688 Y43.0938
G1 X9.766 Y43.5703
G1 Y44.0857
G1 X9.5689 Y44.562
G1 X9.1765 Y44.9545
G2 Y45.2415 I0.1435 J0.1435
G1 X9.5689 Y45.634
G1 X9.766 Y46.1103
G1 Y46.6257
G1 X9.5689 Y47.102
G1 X9.205 Y47.4659
G1 X8.7287 Y47.663
G1 X6.0284
G1 X5.5529 Y47.4659
G1 X5.1881 Y47.1019
G1 X5.0416 Y46.748
G2 X5.0329 Y46.727 I-0.1916 J0.067
G1 X4.991 Y46.6257
G1 Y46.1103
G1 X5.1881 Y45.634
G1 X5.5805 Y45.2415
G2 Y44.9545 I-0.1435 J-0.1435
G1 X5.1881 Y44.562
G1 X5.088 Y44.32
G2 X5.0785 Y44.297 I-0.192 J0.066
G1 X4.991 Y44.0857
G1 Y43.5703
G1 X5.1881 Y43.094
G1 X5.5645 Y42.7175
G2 X5.5399 Y42.4094 I-0.1435 J-0.1435
G1 X5.4093 Y42.3151
G1 X5.32 Y42.2254
G2 X5.3055 Y42.2107 I-0.151 J0.1356
G1 X5.2598 Y42.1648
G1 X5.1347 Y41.9937
G1 X5.0391 Y41.8041
G1 X4.973 Y41.6032
G1 X4.9633 Y41.542
G1 X5.224
G2 X6.286 Y42.38 I1.062 J-0.254
G1 X8.471
G2 X9.533 Y41.542 I0.0 J-1.092
G0 Z3.0
G0 X8.9311 Y42.8377
G0 Z1.325
G1 F50.0 Z-0.075
G3 F150.0 X8.471 Y44.92 I-0.4601 J0.9903
G1 X6.286
G3 Y42.736 I0.0 J-1.092
G1 X8.471
G3 X8.9311 Y42.8377 I0.0 J1.092
G0 Z3.0
G0 X8.6121 Y45.2852
G0 Z1.325
G1 F50.0 Z-0.075
G3 F150.0 X8.471 Y47.46 I-0.1411 J1.0828
G1 X6.286
G3 Y45.276 I0.0 J-1.092
G1 X8.471
G3 X8.6121 Y45.2852 I0.0 J1.092
G0 Z3.0
G0 X37.236 Y49.949
G0 Z1.325
G1 F50.0 Z-0.075
G1 F150.0 X37.4905
G1 Y50.8005
G1 X38.342
G1 Y50.8255
G1 X37.4905
G1 Y51.677
G1 X37.236
G1 Y51.674
G1 Y51.269
G1 Y50.864
G1 Y50.459
G1 Y49.949
G0 Z3.0
G0 X39.154 Y50.8005
G0 Z1.325
G1 F50.0 Z-0.075
G1 F150.0 X40.0055
G1 Y49.949
G1 X40.259
G1 Y51.3662
G1 X40.0055 Y51.4169
G1 Y50.8255
G1 X39.154
G1 Y50.8005
G0 Z3.0
G0 X41.0596 Y51.1496
G0 Z1.325
G1 F50.0 Z-0.075
G1 F150.0 X41.1116 Y50.9563
G1 X41.1875 Y50.7721
G1 X41.2882 Y50.5989
G1 X41.4092 Y50.4399
G1 X41.5499 Y50.2992
G1 X41.7089 Y50.1782
G1 X41.8821 Y50.0775
G1 X42.0663 Y50.0016
G1 X42.26 Y49.9494
G1 X42.355 Y49.9367
G1 Y50.1943
G2 X41.923 Y50.3481 I0.203 J1.2537
G2 X41.3226 Y51.1535 I0.635 J1.0999
G1 X41.0521 Y51.2076
G1 X41.0596 Y51.1496
G0 Z3.0
G0 X41.2299 Y52.0012
G0 Z1.325
G1 F50.0 Z-0.075
G1 F150.0 X41.399 Y51.9673
G2 X41.923 Y52.5479 I1.159 J-0.5193
G2 X42.355 Y52.7017 I0.635 J-1.0999
G1 Y52.9583
G1 X42.2596 Y52.9455
G1 X42.0663 Y52.8943
G1 X41.8821 Y52.8176
G1 X41.7089 Y52.7178
G1 X41.5501 Y52.596
G1 X41.4092 Y52.4551
G1 X41.2882 Y52.2961
G1 X41.1875 Y52.1229
G1 X41.1444 Y52.0183
G1 X41.2299 Y52.0012
G0 Z3.0
G0 X42.761 Y52.7017
G0 Z1.325
G1 F50.0 Z-0.075
G2 F150.0 X43.7612 Y51.8545 I-0.203 J-1.2537
G1 X44.0266
G1 X44.0043 Y51.9387
G1 X43.9276 Y52.1229
G1 X43.8278 Y52.2961
G1 X43.706 Y52.4549
G1 X43.5649 Y52.596
G1 X43.4061 Y52.7178
G1 X43.2329 Y52.8176
G1 X43.0487 Y52.8943
G1 X42.8554 Y52.9455
G1 X42.761 Y52.9581
G1 Y52.7017
G0 Z3.0
G0 X43.7612 Y51.0415
G0 Z1.325
G1 F50.0 Z-0.075
G2 F150.0 X42.761 Y50.1943 I-1.2032 J0.4065
G1 Y49.9369
G1 X42.855 Y49.9494
G1 X43.0487 Y50.0016
G1 X43.2329 Y50.0775
G1 X43.4061 Y50.1782
G1 X43.5651 Y50.2992
G1 X43.706 Y50.4401
G1 X43.8091 Y50.5746
G2 X43.8211 Y50.5902 I0.1669 J-0.1156
G1 X43.8278 Y50.5989
G1 X43.9276 Y50.7721
G1 X44.0043 Y50.9563
G1 X44.0269 Y51.0415
G1 X43.7612
G0 Z3.0
G0 X45.5337
G0 Z1.325
G1 F50.0 Z-0.075
G1 F150.0 X45.5566 Y50.9563
G1 X45.6325 Y50.7721
G1 X45.7332 Y50.5989
G1 X45.8542 Y50.4399
G1 X45.9949 Y50.2992
G1 X46.1539 Y50.1782
G1 X46.3271 Y50.0775
G1 X46.5113 Y50.0016
G1 X46.705 Y49.9494
G1 X46.8 Y49.9367
G1 Y50.1943
G2 X46.368 Y50.3481 I0.203 J1.2537
G2 X45.7998 Y51.0415 I0.635 J1.0999
G1 X45.5337
G0 Z3.0
G0 X45.534 Y51.8545
G0 Z1.325
G1 F50.0 Z-0.075
G1 F150.0 X45.7998
G2 X46.368 Y52.5479 I1.2032 J-0.4065
G2 X46.8 Y52.7017 I0.635 J-1.0999
G1 Y52.9583
G1 X46.7046 Y52.9455
G1 X46.5113 Y52.8943
G1 X46.3271 Y52.8176
G1 X46.1539 Y52.7178
G1 X45.9951 Y52.596
G1 X45.8542 Y52.4551
G1 X45.7332 Y52.2961
G1 X45.6325 Y52.1229
G1 X45.5854 Y52.0085
G2 X45.5799 Y51.9951 I-0.1904 J0.0705
G1 X45.5566 Y51.9387
G1 X45.534 Y51.8545
G0 Z3.0
G0 X47.206 Y52.7017
G0 Z1.325
G1 F50.0 Z-0.075
G2 F150.0 X48.2567 Y51.651 I-0.203 J-1.2537
G1 X48.5131
G1 X48.5005 Y51.7454
G1 X48.4493 Y51.9387
G1 X48.3726 Y52.1229
G1 X48.2728 Y52.2961
G1 X48.151 Y52.4549
G1 X48.0099 Y52.596
G1 X47.8511 Y52.7178
G1 X47.6779 Y52.8176
G1 X47.4937 Y52.8943
G1 X47.3004 Y52.9455
G1 X47.206 Y52.9581
G1 Y52.7017
G0 Z3.0
G0 X48.2567 Y51.245
G0 Z1.325
G1 F50.0 Z-0.075
G2 F150.0 X47.206 Y50.1943 I-1.2537 J0.203
G1 Y49.9369
G1 X47.3 Y49.9494
G1 X47.4937 Y50.0016
G1 X47.6779 Y50.0775
G1 X47.8511 Y50.1782
G1 X48.0101 Y50.2992
G1 X48.151 Y50.4401
G1 X48.2541 Y50.5746
G2 X48.2661 Y50.5902 I0.1669 J-0.1156
G1 X48.2728 Y50.5989
G1 X48.3726 Y50.7721
G1 X48.4493 Y50.9563
G1 X48.5005 Y51.1496
G1 X48.5133 Y51.245
G1 X48.2567
G0 Z3.0
G0 X49.3041 Y37.681
G0 Z1.325
G1 F50.0 Z-0.075
G1 F150.0 X48.0985 Y36.4755
G2 X47.8115 I-0.1435 J0.1435
G1 X46.6059 Y37.681
G1 X44.8591
G1 X43.624 Y36.4459
G1 Y34.6991
G1 X44.7141 Y33.609
G2 X44.738 Y33.5851 I-0.1311 J-0.155
G1 X44.8591 Y33.464
G1 X46.6059
G1 X46.727 Y33.5851
G2 X46.7509 Y33.609 I0.155 J-0.1311
G1 X47.1435 Y34.0015
G1 X47.5485 Y34.4065
G1 X47.8115 Y34.6695
G2 X48.0985 I0.1435 J-0.1435
G1 X48.3615 Y34.4065
G1 X48.7665 Y34.0015
G1 X49.1591 Y33.609
G2 X49.183 Y33.5851 I-0.1311 J-0.155
G1 X49.3041 Y33.464
G1 X51.0509
G1 X51.172 Y33.5851
G2 X51.1959 Y33.609 I0.155 J-0.1311
G1 X52.286 Y34.6991
G1 Y36.4459
G1 X51.0509 Y37.681
G1 X49.3041
G0 Z3.0
G0 X49.3889 Y37.478
G0 Z1.325
G1 F50.0 Z-0.075
G1 F150.0 X48.273 Y36.3621
G1 Y34.7839
G1 X49.3889 Y33.668
G1 X50.9671
G1 X52.083 Y34.7839
G1 Y36.3621
G1 X50.9671 Y37.478
G1 X49.3889
G0 Z3.0
G0 X47.638 Y36.3621
G0 Z1.325
G1 F50.0 Z-0.075
G1 F150.0 X46.5221 Y37.478
G1 X44.9439
G1 X43.828 Y36.3621
G1 Y34.7839
G1 X44.9439 Y33.668
G1 X46.5221
G1 X47.638 Y34.7839
G1 Y36.3621
G0 Z3.0
G0 X49.3041 Y32.601
G0 Z1.325
G1 F50.0 Z-0.075
G1 F150.0 X48.069 Y31.3659
G1 Y29.6191
G1 X48.5331 Y29.155
G2 X48.557 Y29.1311 I-0.1311 J-0.155
G1 X48.9381 Y28.75
G2 X48.962 Y28.7261 I-0.1311 J-0.155
G1 X49.3041 Y28.384
G1 X51.0509
G1 X51.798 Y29.1311
G2 X51.8219 Y29.155 I0.155 J-0.1311
G1 X52.286 Y29.6191
G1 Y31.3659
G1 X51.0509 Y32.601
G1 X49.3041
G0 Z3.0
G0 X49.3889 Y32.398
G0 Z1.325
G1 F50.0 Z-0.075
G1 F150.0 X48.273 Y31.2821
G1 Y29.7039
G1 X49.3889 Y28.588
G1 X50.9671
G1 X52.083 Y29.7039
G1 Y31.2821
G1 X50.9671 Y32.398
G1 X49.3889
G0 Z3.0
G0 X47.3938 Y31.5747
G0 Z1.325
G1 F50.0 Z-0.075
G1 F150.0 X47.3231 Y31.746
G2 X47.3142 Y31.7674 I0.1829 J0.088
G1 X47.2508 Y31.9211
G1 X46.9581 Y32.2138
G1 X46.5748 Y32.372
G1 X46.1603
G1 X45.7779 Y32.2139
G1 X45.4851 Y31.921
G1 X45.326 Y31.5376
G1 Y29.4474
G1 X45.4764 Y29.0848
G2 X45.4823 Y29.0706 I-0.1844 J-0.0848
G1 X45.4851 Y29.064
G1 X45.7779 Y28.7711
G1 X46.1603 Y28.613
G1 X46.5748
G1 X46.9581 Y28.7712
G1 X47.2508 Y29.0639
G1 X47.2548 Y29.0736
G2 X47.258 Y29.0813 I0.1892 J-0.0736
G1 X47.409 Y29.4472
G1 Y31.5378
G1 X47.3938 Y31.5747
G0 Z3.0
G0 X47.1833 Y31.5247
G0 Z1.325
G1 F50.0 Z-0.075
G3 F150.0 X45.53 Y31.331 I-0.8153 J-0.1937
G1 Y29.654
G3 X47.206 I0.838 J0.0
G1 Y31.331
G3 X47.1833 Y31.5247 I-0.838 J0.0
G0 Z3.0
G0 X44.6646 Y31.3793
G0 Z1.325
G1 F50.0 Z-0.075
G3 F150.0 X42.99 Y31.331 I-0.8366 J-0.0483
G1 Y29.654
G3 X44.666 I0.838 J0.0
G1 Y31.331
G3 X44.6646 Y31.3793 I-0.838 J0.0
G0 Z3.0
G0 X42.9645
G0 Z1.325
G1 F50.0 Z-0.075
G1 F150.0 Y42.558
G3 X42.8454 Y42.8454 I-0.4065 J0.0
G1 X40.9404 Y44.7504
G3 X40.653 Y44.8695 I-0.2874 J-0.2874
G1 X40.0055
G1 Y45.7205
G1 X37.4905
G1 Y43.2055
G1 X40.0055
G1 Y44.0565
G1 X40.4846
G1 X42.1515 Y42.3896
G1 Y26.683
G3 X42.2706 Y26.3956 I0.4065 J0.0
G1 X43.4215 Y25.2446
G1 Y24.4438
G3 X42.99 Y23.711 I0.4065 J-0.7328
G1 Y22.034
G3 X44.666 I0.838 J0.0
G1 Y23.711
G3 X44.2345 Y24.4438 I-0.838 J0.0
G1 Y25.413
G3 X44.1154 Y25.7004 I-0.4065 J0.0
G1 X42.9645 Y26.8514
G1 Y31.3793
G0 Z3.0
G0 X42.1257 Y31.3551
G0 Z1.325
G1 F50.0 Z-0.075
G3 F150.0 X41.6945 Y32.0638 I-0.8377 J-0.0241
G1 Y41.288
G3 X41.5754 Y41.5754 I-0.4065 J0.0
G1 X40.9404 Y42.2104
G3 X40.653 Y42.3295 I-0.2874 J-0.2874
G1 X40.0055
G1 Y43.1805
G1 X37.4905
G1 Y40.6655
G1 X40.0055
G1 Y41.5165
G1 X40.4846
G1 X40.8815 Y41.1196
G1 Y32.0638
G3 X40.45 Y31.331 I0.4065 J-0.7328
G1 Y29.654
G3 X42.126 I0.838 J0.0
G1 Y31.331
G3 X42.1257 Y31.3551 I-0.838 J0.0
G0 Z3.0
G0 X39.586 Y31.337
G0 Z1.325
G1 F50.0 Z-0.075
G3 F150.0 X37.91 Y31.331 I-0.838 J-0.006
G1 Y29.654
G3 X39.586 I0.838 J0.0
G1 Y31.331
G3 Y31.337 I-0.838 J0.0
G0 Z3.0
G0 X37.8845
G0 Z1.325
G1 F50.0 Z-0.075
G1 F150.0 Y32.398
G3 X37.7654 Y32.6854 I-0.4065 J0.0
G1 X37.2495 Y33.2014
G1 Y35.9904
G1 X38.9735 Y37.1398
G3 X39.1545 Y37.478 I-0.2255 J0.3382
G1 Y38.1255
G1 X40.0055
G1 Y40.6405
G1 X37.4905
G1 Y38.1255
G1 X38.3415
G1 Y37.6956
G1 X36.6175 Y36.5462
G3 X36.4365 Y36.208 I0.2255 J-0.3382
G1 Y33.033
G3 X36.5556 Y32.7456 I0.4065 J0.0
G1 X37.0715 Y32.2296
G1 Y28.588
G3 X37.1906 Y28.3006 I0.4065 J0.0
G1 X40.8815 Y24.6096
G1 Y24.4438
G3 X40.45 Y23.711 I0.4065 J-0.7328
G1 Y22.034
G3 X42.126 I0.838 J0.0
G1 Y23.711
G3 X41.6945 Y24.4438 I-0.838 J0.0
G1 Y24.778
G3 X41.5754 Y25.0654 I-0.4065 J0.0
G1 X37.8845 Y28.7564
G1 Y31.337
G0 Z3.0
G0 X34.506 Y31.3322
G0 Z1.325
G1 F50.0 Z-0.075
G3 F150.0 X34.0745 Y32.0638 I-0.838 J-0.0012
G1 Y44.2946
G1 X36.3764 Y46.5965
G1 X37.4905
G1 Y45.7455
G1 X40.0055
G1 Y46.5965
G1 X41.3087
G3 X41.923 Y45.2681 I1.2493 J-0.2285
G3 X43.7612 Y45.9615 I0.635 J1.0999
G1 X45.7998
G3 X46.368 Y45.2681 I1.2032 J0.4065
G3 X48.273 Y46.368 I0.635 J1.0999
G3 X46.368 Y47.4679 I-1.27 J0.0
G3 X45.7998 Y46.7745 I0.635 J-1.0999
G1 X43.7612
G3 X41.923 Y47.4679 I-1.2032 J-0.4065
G3 X41.8312 Y47.4095 I0.635 J-1.0999
G1 X40.0055
G1 Y48.2605
G1 X37.4905
G1 Y47.4095
G1 X36.208
G3 X35.9206 Y47.2904 I0.0 J-0.4065
G1 X33.3806 Y44.7504
G3 X33.2615 Y44.463 I0.2874 J-0.2874
G1 Y32.0638
G3 X32.83 Y31.331 I0.4065 J-0.7328
G1 Y29.654
G3 X34.506 I0.838 J0.0
G1 Y31.331
G3 Y31.3322 I-0.838 J0.0
G0 Z3.0
G0 X31.966 Y31.3313
G0 Z1.325
G1 F50.0 Z-0.075
G3 F150.0 X31.5345 Y32.0638 I-0.838 J-0.0003
G1 Y36.208
G3 X31.4154 Y36.4954 I-0.4065 J0.0
G1 X23.1604 Y44.7504
G3 X22.873 Y44.8695 I-0.2874 J-0.2874
G1 X22.2255
G1 Y45.7205
G1 X19.7105
G1 Y43.2055
G1 X22.2255
G1 Y44.0565
G1 X22.7046
G1 X30.7215 Y36.0396
G1 Y32.0638
G3 X30.29 Y31.331 I0.4065 J-0.7328
G1 Y29.654
G3 X31.966 I0.838 J0.0
G1 Y31.331
G3 Y31.3313 I-0.838 J0.0
G0 Z3.0
G0 X29.426 Y31.3311
G0 Z1.325
G1 F50.0 Z-0.075
G3 F150.0 X28.9945 Y32.0638 I-0.838 J-0.0001
G1 Y36.208
G3 X28.8754 Y36.4954 I-0.4065 J0.0
G1 X23.1604 Y42.2104
G3 X22.873 Y42.3295 I-0.2874 J-0.2874
G1 X22.2255
G1 Y43.1805
G1 X19.7105
G1 Y40.6655
G1 X22.2255
G1 Y41.5165
G1 X22.7046
G1 X28.1815 Y36.0396
G1 Y32.0638
G3 X27.75 Y31.331 I0.4065 J-0.7328
G1 Y29.654
G3 X29.426 I0.838 J0.0
G1 Y31.331
G1 Y31.3311
G0 Z3.0
G0 X26.886 Y31.331
G0 Z1.325
G1 F50.0 Z-0.075
G3 F150.0 X26.4545 Y32.0638 I-0.838 J0.0
G1 Y36.208
G3 X26.3354 Y36.4954 I-0.4065 J0.0
G1 X23.1604 Y39.6704
G3 X22.873 Y39.7895 I-0.2874 J-0.2874
G1 X22.2255
G1 Y40.6405
G1 X19.7105
G1 Y38.1255
G1 X22.2255
G1 Y38.9765
G1 X22.7046
G1 X25.6415 Y36.0396
G1 Y32.0638
G3 X25.21 Y31.331 I0.4065 J-0.7328
G1 Y29.654
G3 X26.886 I0.838 J0.0
G1 Y31.331
G0 Z3.0
G0 X24.346
G0 Z1.325
G1 F50.0 Z-0.075
G3 F150.0 X23.9145 Y32.0638 I-0.838 J0.0
G1 Y33.033
G3 X23.7954 Y33.3204 I-0.4065 J0.0
G1 X19.4695 Y37.6464
G1 Y46.1996
G1 X19.7105 Y46.4406
G1 Y45.7455
G1 X22.2255
G1 Y48.2605
G1 X19.7105
G1 Y47.4095
G1 X19.698
G3 X19.4106 Y47.2904 I0.0 J-0.4065
G1 X18.7756 Y46.6554
G3 X18.6565 Y46.368 I0.2874 J-0.2874
G1 Y37.478
G3 X18.7756 Y37.1906 I0.4065 J0.0
G1 X23.1015 Y32.8646
G1 Y32.0638
G3 X22.67 Y31.331 I0.4065 J-0.7328
G1 Y29.654
G3 X24.346 I0.838 J0.0
G1 Y31.331
G0 Z3.0
G0 X21.806
G0 Z1.325
G1 F50.0 Z-0.075
G3 F150.0 X20.13 I-0.838 J0.0
G1 Y29.654
G3 X21.806 I0.838 J0.0
G1 Y31.331
G0 Z3.0
G0 X22.1951 Y19.8243
G0 Z1.325
G1 F50.0 Z-0.075
G3 F150.0 X21.603 Y19.6549 I0.0429 J-1.2693
G3 Y17.4551 I0.635 J-1.0999
G3 X23.508 Y18.555 I0.635 J1.0999
G3 X22.1951 Y19.8243 I-1.27 J0.0
G0 Z3.0
G0 X20.2004 Y16.6804
G0 Z1.325
G1 F50.0 Z-0.075
G3 F150.0 X18.885 Y16.7079 I-0.6804 J-1.0724
G3 Y14.5081 I0.635 J-1.0999
G3 X20.79 Y15.608 I0.635 J1.0999
G3 X20.2004 Y16.6804 I-1.27 J0.0
G0 Z3.0
G0 X22.0839 Y14.618
G0 Z1.325
G1 F50.0 Z-0.075
G1 F150.0 X20.968 Y13.5021
G1 Y11.9239
G1 X22.0839 Y10.808
G1 X23.6621
G1 X24.778 Y11.9239
G1 Y13.5021
G1 X23.6621 Y14.618
G1 X22.0839
G0 Z3.0
G0 X20.2662 Y12.1147
G0 Z1.325
G1 F50.0 Z-0.075
G3 F150.0 X18.885 Y12.1869 I-0.7462 J-1.0277
G3 Y9.9871 I0.635 J-1.0999
G3 X20.79 Y11.087 I0.635 J1.0999
G3 X20.2662 Y12.1147 I-1.27 J0.0
G0 Z3.0
G0 X16.8421 Y9.1062
G0 Z1.325
G1 F50.0 Z-0.075
G3 F150.0 X15.253 Y9.3679 I-0.9541 J-0.8382
G3 Y7.1681 I0.635 J-1.0999
G3 X16.4513 Y7.1298 I0.635 J1.0999
G1 X17.5056 Y6.0756
G3 X17.793 Y5.9565 I0.2874 J0.2874
G1 X26.683
G3 X26.9704 Y6.0756 I0.0 J0.4065
G1 X27.4864 Y6.5915
G1 X30.9594
G1 X31.229 Y6.3215
G1 Y4.559
G1 X32.245
G1 Y6.337
G1 X32.1435
G1 Y6.388
G3 X32.0247 Y6.6752 I-0.4065 J0.0
G1 X31.4157 Y7.2852
G3 X31.128 Y7.4045 I-0.2877 J-0.2872
G1 X27.318
G3 X27.0306 Y7.2854 I0.0 J-0.4065
G1 X26.5146 Y6.7695
G1 X17.9614
G1 X17.0262 Y7.7047
G3 X17.158 Y8.268 I-1.1382 J0.5633
G3 X16.8421 Y9.1062 I-1.27 J0.0
G0 Z3.0
G0 X14.1448 Y10.503
G0 Z1.325
G1 F50.0 Z-0.075
G3 F150.0 X14.287 Y11.087 I-1.1278 J0.584
G3 X12.382 Y12.1869 I-1.27 J0.0
G3 Y9.9871 I0.635 J-1.0999
G3 X14.1448 Y10.503 I0.635 J1.0999
G0 Z3.0
G0 X11.2828 Y12.0955
G0 Z1.325
G1 F50.0 Z-0.075
G3 F150.0 X11.443 Y12.713 I-1.1098 J0.6175
G3 X9.538 Y13.8129 I-1.27 J0.0
G3 Y11.6131 I0.635 J-1.0999
G3 X11.2828 Y12.0955 I0.635 J1.0999
G0 Z3.0
G0 X10.9093 Y8.0853
G0 Z1.325
G1 F50.0 Z-0.075
G3 F150.0 X10.262 Y7.9437 I-0.1013 J-1.0873
G3 Y6.0523 I0.546 J-0.9457
G3 X11.9 Y6.998 I0.546 J0.9457
G3 X10.9093 Y8.0853 I-1.092 J0.0
G0 Z3.0
G0 X10.8385 Y5.5496
G0 Z1.325
G1 F50.0 Z-0.075
G3 F150.0 X10.262 Y5.4037 I-0.0305 J-1.0916
G3 Y3.5123 I0.546 J-0.9457
G3 X11.9 Y4.458 I0.546 J0.9457
G3 X10.8385 Y5.5496 I-1.092 J0.0
G0 Z3.0
G0 X8.268
G0 Z1.325
G1 F50.0 Z-0.075
G1 F150.0 Y6.2631
G1 X7.1521 Y7.379
G1 X5.5739
G1 X4.458 Y6.2631
G1 Y4.6849
G1 X5.5739 Y3.569
G1 X7.1521
G1 X8.268 Y4.6849
G1 Y5.5496
G0 Z3.0
G0 X6.2185 Y8.3821
G0 Z1.325
G1 F50.0 Z-0.075
G3 F150.0 X6.744 Y9.411 I-0.7445 J1.0289
G3 X4.839 Y10.5109 I-1.27 J0.0
G3 Y8.3111 I0.635 J-1.0999
G3 X6.2185 Y8.3821 I0.635 J1.0999
G0 Z3.0
G0 X14.7112 Y4.9356
G0 Z1.325
G1 F50.0 Z-0.075
G3 F150.0 X15.253 Y3.3581 I1.1768 J-0.4776
G3 X17.158 Y4.458 I0.635 J1.0999
G3 X15.253 Y5.5579 I-1.27 J0.0
G3 X14.7112 Y4.9356 I0.635 J-1.0999
G0 Z3.0
G0 X24.7791 Y4.5115
G0 Z1.325
G1 F50.0 Z-0.075
G3 F150.0 X25.413 Y3.3581 I1.2689 J-0.0535
G3 X27.318 Y4.458 I0.635 J1.0999
G3 X27.2973 Y4.6865 I-1.27 J0.0
G1 X29.223
G3 X29.5104 Y4.8056 I0.0 J0.4065
G1 X29.7464 Y5.0415
G1 X29.985
G1 Y4.559
G1 X31.001
G1 Y6.337
G1 X29.985
G1 Y5.8545
G1 X29.578
G3 X29.2906 Y5.7354 I0.0 J-0.4065
G1 X29.0546 Y5.4995
G1 X26.7748
G3 X25.413 Y5.5579 I-0.7268 J-1.0415
G3 X24.7791 Y4.5115 I0.635 J-1.0999
G0 Z3.0
G0 X26.5289 Y10.808
G0 Z1.325
G1 F50.0 Z-0.075
G1 F150.0 X28.1071
G1 X29.223 Y11.9239
G1 Y13.5021
G1 X28.1071 Y14.618
G1 X26.5289
G1 X25.413 Y13.5021
G1 Y11.9239
G1 X26.5289 Y10.808
G0 Z3.0
G0 X31.128 Y12.5589
G0 Z1.325
G1 F50.0 Z-0.075
G1 F150.0 X32.2439 Y11.443
G1 X33.8221
G1 X34.938 Y12.5589
G1 Y14.1371
G1 X33.8221 Y15.253
G1 X32.2439
G1 X31.128 Y14.1371
G1 Y12.5589
G0 Z3.0
G0 X34.303 Y9.6921
G0 Z1.325
G1 F50.0 Z-0.075
G1 F150.0 Y8.1139
G1 X35.4189 Y6.998
G1 X36.9971
G1 X38.113 Y8.1139
G1 Y9.6921
G1 X36.9971 Y10.808
G1 X35.4189
G1 X34.303 Y9.6921
G0 Z3.0
G0 X37.375 Y12.459
G0 Z1.325
G1 F50.0 Z-0.075
G1 F150.0 X39.153
G1 Y13.1781
G1 X43.4804 Y17.5056
G3 X43.5995 Y17.793 I-0.2874 J0.2874
G1 Y19.063
G3 X43.4804 Y19.3504 I-0.4065 J0.0
G1 X42.2104 Y20.6204
G3 X41.923 Y20.7395 I-0.2874 J-0.2874
G1 X40.1864
G1 X39.4081 Y21.5178
G3 X39.586 Y22.034 I-0.6601 J0.5162
G1 Y23.711
G3 X37.91 I-0.838 J0.0
G1 Y22.034
G3 X38.5584 Y21.2177 I0.838 J0.0
G1 X39.7306 Y20.0456
G3 X40.018 Y19.9265 I0.2874 J0.2874
G1 X41.7546
G1 X42.7865 Y18.8946
G1 Y17.9614
G1 X39.0621 Y14.237
G1 X37.375
G1 Y12.459
G0 Z3.0
G0 X40.375
G0 Z1.325
G1 F50.0 Z-0.075
G1 F150.0 X42.153
G1 Y12.9415
G1 X42.558
G3 X42.8454 Y13.0606 I0.0 J0.4065
G1 X44.6688 Y14.8839
G3 X46.19 Y15.888 I0.4292 J1.0041
G3 X44.552 Y16.8337 I-1.092 J0.0
G3 X44.0939 Y15.4588 I0.546 J-0.9457
G1 X42.3896 Y13.7545
G1 X42.153
G1 Y14.237
G1 X40.375
G1 Y12.459
G0 Z3.0
G0 X40.5327 Y10.8023
G0 Z1.325
G1 F50.0 Z-0.075
G3 F150.0 X40.018 Y10.6379 I0.1203 J-1.2643
G3 Y8.4381 I0.635 J-1.0999
G3 X41.8562 Y9.1315 I0.635 J1.0999
G1 X43.828
G3 X44.1154 Y9.2506 I0.0 J0.4065
G1 X44.6314 Y9.7665
G1 X45.408
G1 Y9.665
G1 X45.7515
G1 Y9.411
G1 X45.408
G1 Y8.395
G1 X46.908
G1 Y9.411
G1 X46.5645
G1 Y9.665
G1 X46.908
G1 Y10.681
G1 X46.5645
G1 Y10.935
G1 X46.908
G1 Y11.0365
G1 X50.908
G1 Y10.935
G1 X52.408
G1 Y11.951
G1 X50.908
G1 Y11.8495
G1 X46.908
G1 Y11.951
G1 X46.5645
G1 Y13.6046
G1 X47.2904 Y14.3306
G3 X47.4095 Y14.618 I-0.2874 J0.2874
G1 Y16.523
G3 X47.2904 Y16.8104 I-0.4065 J0.0
G1 X46.1021 Y17.9988
G3 X46.19 Y18.428 I-1.0041 J0.4292
G3 X44.552 Y19.3737 I-1.092 J0.0
G3 Y17.4823 I0.546 J-0.9457
G3 X45.5272 Y17.4239 I0.546 J0.9457
G1 X46.5965 Y16.3546
G1 Y14.7864
G1 X45.8706 Y14.0604
G3 X45.7515 Y13.773 I0.2874 J-0.2874
G1 Y11.951
G1 X45.408
G1 Y10.935
G1 X45.7515
G1 Y10.681
G1 X45.408
G1 Y10.5795
G1 X44.463
G3 X44.1756 Y10.4604 I0.0 J-0.4065
G1 X43.6596 Y9.9445
G1 X41.8562
G3 X40.5327 Y10.8023 I-1.2032 J-0.4065
G0 Z3.0
G0 X43.795 Y7.5399
G0 Z1.325
G1 F50.0 Z-0.075
G1 F150.0 X41.5806 Y5.3255
G3 X40.018 Y5.5579 I-0.9276 J-0.8675
G3 Y3.3581 I0.635 J-1.0999
G3 X41.923 Y4.458 I0.635 J1.0999
G3 X41.9216 Y4.5168 I-1.27 J0.0
G1 X44.6314 Y7.2265
G1 X45.408
G1 Y7.125
G1 X46.0911
G1 X47.1406 Y6.0756
G3 X47.428 Y5.9565 I0.2874 J0.2874
G1 X52.718
G3 X53.0054 Y6.0756 I0.0 J0.4065
G1 X57.4504 Y10.5206
G3 X57.5695 Y10.808 I-0.2874 J0.2874
G1 Y14.0498
G3 X58.433 Y15.253 I-0.4065 J1.2032
G3 X56.528 Y16.3529 I-1.27 J0.0
G3 Y14.1531 I0.635 J-1.0999
G3 X56.7565 Y14.0498 I0.635 J1.0999
G1 Y10.9764
G1 X52.5496 Y6.7695
G1 X47.5964
G1 X46.908 Y7.4579
G1 Y8.141
G1 X45.408
G1 Y8.0395
G1 X44.463
G3 X44.1756 Y7.9204 I0.0 J-0.4065
G1 X43.795 Y7.5399
G0 Z3.0
G0 X50.908
G0 Z1.325
G1 F50.0 Z-0.075
G1 F150.0 Y7.125
G1 X52.408
G1 Y7.2265
G1 X52.718
G3 X53.0054 Y7.3456 I0.0 J0.4065
G1 X55.5454 Y9.8856
G3 X55.6645 Y10.173 I-0.2874 J0.2874
G1 Y23.3396
G1 X56.5997 Y24.2748
G3 X58.433 Y25.413 I0.5633 J1.1382
G3 X56.528 Y26.5129 I-1.27 J0.0
G3 X56.0248 Y24.8497 I0.635 J-1.0999
G1 X54.9706 Y23.7954
G3 X54.8515 Y23.508 I0.2874 J-0.2874
G1 Y10.3414
G1 X52.5496 Y8.0395
G1 X52.408
G1 Y8.141
G1 X50.908
G1 Y7.5399
G0 Z3.0
G0 Y8.395
G0 Z1.325
G1 F50.0 Z-0.075
G1 F150.0 X52.408
G1 Y8.4965
G1 X52.718
G3 X53.0054 Y8.6156 I0.0 J0.4065
G1 X53.6404 Y9.2506
G3 X53.7595 Y9.538 I-0.2874 J0.2874
G1 Y12.078
G3 X53.6404 Y12.3654 I-0.4065 J0.0
G1 X51.8545 Y14.1514
G1 Y16.3546
G1 X53.6404 Y18.1406
G3 X53.7595 Y18.428 I-0.2874 J0.2874
G1 Y24.2098
G3 X54.623 Y25.413 I-0.4065 J1.2032
G3 X52.718 Y26.5129 I-1.27 J0.0
G3 Y24.3131 I0.635 J-1.0999
G3 X52.9465 Y24.2098 I0.635 J1.0999
G1 Y18.5964
G1 X51.1606 Y16.8104
G3 X51.0415 Y16.523 I0.2874 J-0.2874
G1 Y13.983
G3 X51.1606 Y13.6956 I0.4065 J0.0
G1 X52.9465 Y11.9096
G1 Y9.7064
G1 X52.5496 Y9.3095
G1 X52.408
G1 Y9.411
G1 X50.908
G1 Y8.395
G0 Z3.0
G0 Y9.665
G0 Z1.325
G1 F50.0 Z-0.075
G1 F150.0 X52.408
G1 Y10.681
G1 X50.908
G1 Y9.665
G0 Z3.0
G0 X52.8439 Y14.0895
G0 Z1.325
G1 F50.0 Z-0.075
G3 F150.0 X54.623 Y15.253 I0.5091 J1.1635
G3 X52.718 Y16.3529 I-1.27 J0.0
G3 Y14.1531 I0.635 J-1.0999
G3 X52.8439 Y14.0895 I0.635 J1.0999
G0 Z3.0
G0 X50.92 Y16.7623
G0 Z1.325
G1 F50.0 Z-0.075
G3 F150.0 X51.448 Y17.793 I-0.742 J1.0307
G3 X49.543 Y18.8929 I-1.27 J0.0
G3 Y16.6931 I0.635 J-1.0999
G3 X50.92 Y16.7623 I0.635 J1.0999
G0 Z3.0
G0 X50.3311 Y21.6123
G0 Z1.325
G1 F50.0 Z-0.075
G3 F150.0 X51.448 Y22.873 I-0.1531 J1.2607
G3 X49.543 Y23.9729 I-1.27 J0.0
G3 Y21.7731 I0.635 J-1.0999
G3 X50.3311 Y21.6123 I0.635 J1.0999
G0 Z3.0
G0 X47.2013 Y21.9453
G0 Z1.325
G1 F50.0 Z-0.075
G3 F150.0 X47.206 Y22.034 I-0.8333 J0.0887
G1 Y23.711
G3 X45.53 I-0.838 J0.0
G1 Y22.034
G3 X47.2013 Y21.9453 I0.838 J0.0
G0 Z3.0
G0 X37.046 Y22.0272
G0 Z1.325
G1 F50.0 Z-0.075
G3 F150.0 Y22.034 I-0.838 J0.0068
G1 Y23.711
G3 X35.37 I-0.838 J0.0
G1 Y22.034
G3 X37.046 Y22.0272 I0.838 J0.0
G0 Z3.0
G0 X36.496 Y19.6649
G0 Z1.325
G1 F50.0 Z-0.075
G3 F150.0 X35.573 Y19.5279 I-0.288 J-1.2369
G3 Y17.3281 I0.635 J-1.0999
G3 X37.478 Y18.428 I0.635 J1.0999
G3 X36.496 Y19.6649 I-1.27 J0.0
G0 Z3.0
G0 X34.3104 Y21.4959
G0 Z1.325
G1 F50.0 Z-0.075
G3 F150.0 X34.506 Y22.034 I-0.6424 J0.5381
G1 Y23.711
G3 X32.83 I-0.838 J0.0
G1 Y22.034
G3 X34.3104 Y21.4959 I0.838 J0.0
G0 Z3.0
G0 X13.337 Y18.7215
G0 Z1.325
G1 F50.0 Z-0.075
G3 F150.0 X11.443 Y19.6549 I-1.259 J-0.1665
G3 Y17.4551 I0.635 J-1.0999
G3 X13.348 Y18.555 I0.635 J1.0999
G3 X13.337 Y18.7215 I-1.27 J0.0
( text )
M0
G0 Z3.0
( T2 : 0.2 )
T2 M6
M3 S1000
G0 X45.5548 Y43.716
G0 Z1.325
G1 F50.0 Z-0.075
G1 F150.0 X46.7882 Y40.9385
G1 X48.0235 Y43.716
G1 X48.2635 Y40.9571
G1 X48.0235 Y43.716
G1 X46.7882 Y40.9385
G1 X45.5548 Y43.716
G1 X45.3186 Y40.9571
G1 X45.5548 Y43.716
G0 Z3.0
G0 X45.327 Y39.1659
G0 Z1.325
G1 F50.0 Z-0.075
G3 F150.0 X45.336 Y39.0658 I0.5247 J-0.0031
G3 X45.3679 Y38.9706 I0.3586 J0.0671
G3 X45.4767 Y38.8385 I0.335 J0.1652
G3 X45.6367 Y38.7631 I0.2747 J0.3759
G3 X45.8311 Y38.7399 I0.1905 J0.7687
G3 X46.0181 Y38.7687 I0.0073 J0.5732
G3 X46.1604 Y38.8468 I-0.1509 J0.4435
G3 X46.2525 Y38.9575 I-0.2199 J0.2766
G3 X46.2869 Y39.0822 I-0.2519 J0.1366
G3 X46.2754 Y39.1956 I-0.4112 J0.0153
G3 X46.2293 Y39.2998 I-0.3245 J-0.0812
G3 X46.1458 Y39.3796 I-0.2107 J-0.1369
G3 X46.0376 Y39.4198 I-0.1736 J-0.3012
G1 X45.5707 Y39.5203
G2 X45.4862 Y39.5506 I0.0752 J0.3424
G2 X45.4154 Y39.6059 I0.1095 J0.2134
G2 X45.3716 Y39.7004 I0.1705 J0.1364
G2 X45.3614 Y39.804 I0.4667 J0.0981
G2 X45.3884 Y39.9314 I0.3093 J0.0011
G2 X45.4702 Y40.0384 I0.2758 J-0.1262
G2 X45.6042 Y40.111 I0.2639 J-0.3273
G2 X45.7856 Y40.1379 I0.1725 J-0.5368
G2 X45.9753 Y40.1137 I0.0066 J-0.705
G2 X46.1241 Y40.044 I-0.1178 J-0.4449
G2 X46.2209 Y39.9324 I-0.1779 J-0.2519
G2 X46.2525 Y39.7817 I-0.279 J-0.1372
G3 X46.2209 Y39.9324 I-0.3106 J0.0135
G3 X46.1241 Y40.044 I-0.2747 J-0.1403
G3 X45.9753 Y40.1137 I-0.2666 J-0.3751
G3 X45.7856 Y40.1379 I-0.1832 J-0.6807
G3 X45.6042 Y40.111 I-0.0089 J-0.5637
G3 X45.4702 Y40.0384 I0.1299 J-0.3998
G3 X45.3884 Y39.9314 I0.1939 J-0.2332
G3 X45.3614 Y39.804 I0.2823 J-0.1263
G3 X45.3754 Y39.6887 I0.4237 J-0.0073
G3 X45.4163 Y39.6059 I0.2328 J0.0636
G3 X45.4823 Y39.551 I0.1592 J0.1244
G3 X45.5707 Y39.5203 I0.1713 J0.3507
G1 X46.0376 Y39.4198
G2 X46.1446 Y39.379 I-0.0664 J-0.3341
G2 X46.2274 Y39.2998 I-0.1357 J-0.2249
G2 X46.2869 Y39.0822 I-0.2962 J-0.198
G2 X46.2525 Y38.9575 I-0.2863 J0.012
G2 X46.1604 Y38.8468 I-0.312 J0.1659
G2 X46.0181 Y38.7687 I-0.2932 J0.3654
G2 X45.8311 Y38.7399 I-0.1797 J0.5445
G2 X45.6367 Y38.7631 I-0.0039 J0.7919
G2 X45.4767 Y38.8385 I0.1147 J0.4512
G2 X45.3679 Y38.9706 I0.2262 J0.2973
G2 X45.336 Y39.0658 I0.3267 J0.1624
G2 X45.327 Y39.1659 I0.5157 J0.097
G0 Z3.0
G0 X47.7493 Y39.3377
G0 Z1.325
G1 F50.0 Z-0.075
G3 F150.0 X47.7758 Y39.1575 I1.2077 J0.0856
G3 X47.8226 Y39.023 I0.6659 J0.1564
G3 X47.9017 Y38.9045 I0.432 J0.2028
G3 X48.1031 Y38.7731 I0.3615 J0.334
G3 X48.3408 Y38.7362 I0.2271 J0.6777
G3 X48.5406 Y38.7607 I0.0079 J0.7612
G3 X48.7212 Y38.8496 I-0.1271 J0.486
G3 X48.8495 Y39.0132 I-0.2907 J0.3601
G3 X48.9119 Y39.2115 I-0.6996 J0.3291
G2 X48.8495 Y39.0132 I-0.7619 J0.1308
G2 X48.7212 Y38.8496 I-0.4189 J0.1965
G2 X48.5406 Y38.7607 I-0.3077 J0.397
G2 X48.3408 Y38.7362 I-0.1919 J0.7367
G2 X48.1031 Y38.7731 I-0.0106 J0.7147
G2 X47.9017 Y38.9045 I0.1601 J0.4655
G2 X47.8226 Y39.023 I0.3529 J0.3212
G2 X47.762 Y39.2266 I0.6833 J0.3145
G2 X47.7464 Y39.4384 I1.3154 J0.2034
G2 X47.776 Y39.7189 I1.2018 J0.015
G2 X47.8229 Y39.8531 I0.6662 J-0.1574
G2 X47.9017 Y39.9714 I0.4361 J-0.2052
G2 X48.1028 Y40.1042 I0.3632 J-0.3314
G2 X48.3408 Y40.1417 I0.2274 J-0.6697
G2 X48.5171 Y40.1226 I0.006 J-0.7708
G2 X48.6812 Y40.0551 I-0.1179 J-0.52
G2 X48.8051 Y39.938 I-0.2283 J-0.3654
G2 X48.8812 Y39.7854 I-0.4783 J-0.3339
G3 X48.8051 Y39.938 I-0.5544 J-0.1813
G3 X48.6812 Y40.0551 I-0.3522 J-0.2483
G3 X48.5171 Y40.1226 I-0.282 J-0.4526
G3 X48.3408 Y40.1417 I-0.1704 J-0.7518
G3 X48.1028 Y40.1042 I-0.0106 J-0.7072
G3 X47.9017 Y39.9714 I0.1621 J-0.4642
G3 X47.8229 Y39.8531 I0.3572 J-0.3235
G3 X47.7621 Y39.65 I0.6823 J-0.3149
G3 X47.7464 Y39.4384 I1.3047 J-0.2031
G3 X47.7493 Y39.3377 I1.2107 J-0.0151
G0 Z3.0
G0 X51.2159 Y41.9356
G0 Z1.325
G1 F50.0 Z-0.075
G2 F150.0 X51.1694 Y41.4966 I-1.8562 J-0.0254
G2 X51.0168 Y41.1878 I-0.6956 J0.1515
G2 X50.7285 Y41.0036 I-0.4984 J0.4625
G2 X50.5086 Y40.955 I-0.3449 J1.0391
G2 X50.2838 Y40.9422 I-0.2168 J1.8252
G2 X50.0618 Y40.9547 I-0.0087 J1.825
G2 X49.8448 Y41.0036 I0.1139 J1.0116
G2 X49.5769 Y41.1915 I0.1905 J0.5565
G2 X49.443 Y41.504 I0.6053 J0.4444
G2 X49.4076 Y41.9356 I2.3352 J0.4085
G1 Y43.7048
G1 Y41.9356
G3 X49.443 Y41.504 I2.3702 J-0.0231
G3 X49.5769 Y41.1915 I0.7392 J0.1318
G3 X49.8448 Y41.0036 I0.4584 J0.3686
G3 X50.0618 Y40.9547 I0.331 J0.9631
G3 X50.2838 Y40.9422 I0.2135 J1.8134
G3 X50.5086 Y40.955 I0.0081 J1.8375
G3 X50.7285 Y41.0036 I-0.1252 J1.0881
G3 X51.0168 Y41.1878 I-0.2101 J0.6467
G3 X51.1694 Y41.4966 I-0.5431 J0.4604
G3 X51.2159 Y41.9356 I-1.8098 J0.4137
G1 Y43.7048
G1 Y41.9356
G0 Z3.0
G0 X52.9497 Y43.6788
G0 Z1.325
G1 F50.0 Z-0.075
G1 F150.0 Y40.9385
G1 Y43.6788
G1 X53.7571
G1 X52.1386
G1 X52.9497
G0 Z3.0
G0 X55.5784
G0 Z1.325
G1 F50.0 Z-0.075
G1 F150.0 X56.6648 Y40.9385
G1 X55.5784 Y43.6788
G1 X54.4975 Y40.9385
G1 X55.5784 Y43.6788
G0 Z3.0
G0 X56.276 Y41.917
G0 Z1.325
G1 F50.0 Z-0.075
G1 F150.0 X54.877
G1 X56.276
G0 Z3.0
G0 X56.2961 Y40.1249
G0 Z1.325
G1 F50.0 Z-0.075
G1 F150.0 X56.7937
G1 X55.8031
G1 X56.2961
G1 Y38.751
G1 Y40.1249
G0 Z3.0
G0 X54.3492 Y39.1873
G0 Z1.325
G1 F50.0 Z-0.075
G2 F150.0 X54.3213 Y39.0217 I-0.4939 J-0.0019
G2 X54.2367 Y38.8822 I-0.3557 J0.1203
G2 X54.0888 Y38.7873 I-0.2858 J0.2829
G2 X53.9824 Y38.7604 I-0.1764 J0.473
G2 X53.873 Y38.7529 I-0.1061 J0.7474
G2 X53.6544 Y38.7882 I-0.0022 J0.6802
G2 X53.5018 Y38.8803 I0.1481 J0.4177
G2 X53.4125 Y39.0171 I0.2652 J0.2707
G2 X53.3837 Y39.1873 I0.4598 J0.1654
G1 Y40.1268
G1 Y39.1873
G3 X53.4125 Y39.0171 I0.4886 J-0.0048
G3 X53.5018 Y38.8803 I0.3545 J0.134
G3 X53.6544 Y38.7882 I0.3007 J0.3257
G3 X53.873 Y38.7529 I0.2164 J0.6449
G3 X53.9824 Y38.7604 I0.0034 J0.7542
G3 X54.0888 Y38.7873 I-0.07 J0.5
G3 X54.2367 Y38.8822 I-0.1379 J0.3777
G3 X54.3213 Y39.0217 I-0.271 J0.2599
G3 X54.3492 Y39.1873 I-0.4659 J0.1637
G1 Y40.1268
G1 Y39.1873
G0 Z3.0
G0 X54.1453 Y37.8274
G0 Z1.325
G1 F50.0 Z-0.075
G1 F150.0 Y36.4572
G1 Y37.8274
G1 X54.549
G1 X53.7398
G1 X54.1453
G0 Z3.0
G0 X55.0594 Y37.4767
G0 Z1.325
G1 F50.0 Z-0.075
G2 F150.0 X55.1462 Y37.6404 I0.717 J-0.2751
G2 X55.3034 Y37.7902 I0.447 J-0.3118
G2 X55.4959 Y37.846 I0.1925 J-0.3041
G2 X55.6885 Y37.7902 I0.001 J-0.3567
G2 X55.8457 Y37.6404 I-0.2898 J-0.4616
G2 X55.9527 Y37.42 I-0.6154 J-0.4348
G2 X55.9917 Y37.1502 I-0.871 J-0.2638
G2 X55.9527 Y36.8805 I-0.9101 J-0.0059
G2 X55.8457 Y36.6591 I-0.7349 J0.2186
G2 X55.6885 Y36.5112 I-0.4396 J0.3098
G2 X55.4959 Y36.4572 I-0.1912 J0.3118
G2 X55.3034 Y36.5112 I-0.0004 J0.369
G2 X55.1462 Y36.6591 I0.2824 J0.4577
G2 X55.0402 Y36.8805 I0.6431 J0.4441
G2 X55.0011 Y37.1502 I0.871 J0.2638
G2 X55.0402 Y37.42 I0.9101 J0.0059
G2 X55.0594 Y37.4767 I0.7363 J-0.2184
G0 Z3.0
G0 X56.5387 Y37.8293
G0 Z1.325
G1 F50.0 Z-0.075
G1 F150.0 X56.7349
G1 Y36.4572
G1 Y37.8293
G1 X56.5387
G0 Z3.0
G0 X51.7025 Y39.1608
G0 Z1.325
G1 F50.0 Z-0.075
G2 F150.0 X51.6884 Y39.1147 I-0.7808 J0.215
G2 X51.6354 Y38.9982 I-0.6461 J0.2236
G2 X51.5581 Y38.8961 I-0.438 J0.2511
G2 X51.3656 Y38.7762 I-0.3498 J0.3469
G2 X51.1303 Y38.7399 I-0.2299 J0.7097
G2 X50.8949 Y38.7762 I-0.0055 J0.746
G2 X50.7024 Y38.8961 I0.1573 J0.4669
G2 X50.6252 Y38.9982 I0.3608 J0.3532
G2 X50.5722 Y39.1147 I0.5928 J0.3399
G2 X50.5347 Y39.2793 I0.7665 J0.261
G2 X50.5247 Y39.4477 I1.3169 J0.1626
G2 X50.5348 Y39.6157 I1.3124 J0.0057
G2 X50.5722 Y39.7798 I0.8132 J-0.0989
G2 X50.625 Y39.8977 I0.6587 J-0.2248
G2 X50.7024 Y40.0012 I0.4431 J-0.2505
G2 X50.8949 Y40.124 I0.3462 J-0.3305
G2 X51.1303 Y40.1612 I0.23 J-0.6917
G2 X51.3656 Y40.124 I0.0054 J-0.7289
G2 X51.5581 Y40.0012 I-0.1536 J-0.4532
G2 X51.6355 Y39.8977 I-0.3658 J-0.3539
G2 X51.6884 Y39.7798 I-0.6059 J-0.3427
G2 X51.7257 Y39.6157 I-0.7758 J-0.263
G2 X51.7358 Y39.4477 I-1.3022 J-0.1623
G2 X51.7258 Y39.2793 I-1.3282 J-0.0058
G2 X51.7025 Y39.1608 I-0.8041 J0.0965
G2 X51.6884 Y39.1147 I-0.7808 J0.215
G2 X51.6354 Y38.9982 I-0.6461 J0.2236
G2 X51.5581 Y38.8961 I-0.438 J0.2511
G2 X51.3656 Y38.7762 I-0.3498 J0.3469
G2 X51.1303 Y38.7399 I-0.2299 J0.7097
G2 X50.8949 Y38.7762 I-0.0055 J0.746
G2 X50.7024 Y38.8961 I0.1573 J0.4669
G2 X50.6252 Y38.9982 I0.3608 J0.3532
G2 X50.5722 Y39.1147 I0.5928 J0.3399
G2 X50.5347 Y39.2793 I0.7665 J0.261
G2 X50.5247 Y39.4477 I1.3169 J0.1626
G2 X50.5348 Y39.6157 I1.3124 J0.0057
G2 X50.5722 Y39.7798 I0.8132 J-0.0989
G2 X50.625 Y39.8977 I0.6587 J-0.2248
G2 X50.7024 Y40.0012 I0.4431 J-0.2505
G2 X50.8949 Y40.124 I0.3462 J-0.3305
G2 X51.1303 Y40.1612 I0.23 J-0.6917
G2 X51.3656 Y40.124 I0.0054 J-0.7289
G2 X51.5581 Y40.0012 I-0.1536 J-0.4532
G2 X51.6355 Y39.8977 I-0.3658 J-0.3539
G2 X51.6884 Y39.7798 I-0.6059 J-0.3427
G2 X51.7257 Y39.6157 I-0.7758 J-0.263
G2 X51.7358 Y39.4477 I-1.3022 J-0.1623
G2 X51.7258 Y39.2793 I-1.3282 J-0.0058
G2 X51.7025 Y39.1608 I-0.8041 J0.0965
G0 Z3.0
G0 X56.189 Y30.0068
G0 Z1.325
G1 F50.0 Z-0.075
G1 F150.0 Y29.0273
G1 X56.5832 Y29.3723
G1 X56.189 Y29.0273
G1 X56.6807 Y28.6242
G1 X56.189 Y29.0273
G2 X56.1906 Y28.8226 I-15.0625 J-0.221
G1 Y28.7484
G1 Y28.6839
G2 X56.1898 Y28.6387 I-1.0275 J-0.0042
G2 X56.189 Y28.6242 I-0.6693 J0.0299
G1 Y30.0068
G0 Z3.0
G0 X55.6408 Y28.6186
G0 Z1.325
G1 F50.0 Z-0.075
G1 F150.0 Y29.145
G3 X55.6319 Y29.2326 I-0.3971 J0.0039
G3 X55.5973 Y29.3135 I-0.2199 J-0.0463
G3 X55.529 Y29.3628 I-0.1076 J-0.0771
G3 X55.4457 Y29.3748 I-0.0784 J-0.2495
G3 X55.3433 Y29.349 I-0.0026 J-0.2056
G3 X55.2643 Y29.2853 I0.1437 J-0.2591
G3 X55.2119 Y29.1998 I0.2279 J-0.1985
G3 X55.1918 Y29.112 I0.2487 J-0.1033
G2 X55.2119 Y29.1998 I0.2688 J-0.0154
G2 X55.2643 Y29.2853 I0.2803 J-0.1131
G2 X55.3433 Y29.349 I0.2227 J-0.1954
G2 X55.4457 Y29.3748 I0.0998 J-0.1798
G2 X55.529 Y29.3628 I0.0049 J-0.2614
G2 X55.5973 Y29.3135 I-0.0394 J-0.1264
G2 X55.6319 Y29.2326 I-0.1853 J-0.1272
G2 X55.6408 Y29.145 I-0.3884 J-0.0837
G1 Y28.6186
G0 Z3.0
G0 X55.1918
G0 Z1.325
G1 F50.0 Z-0.075
G1 F150.0 Y29.145
G3 X55.1829 Y29.2326 I-0.3971 J0.0039
G3 X55.1482 Y29.3135 I-0.2199 J-0.0463
G3 X55.0792 Y29.3629 I-0.1076 J-0.0774
G3 X54.9951 Y29.3748 I-0.0791 J-0.2565
G3 X54.8943 Y29.349 I-0.0019 J-0.2024
G3 X54.8153 Y29.2853 I0.1437 J-0.2591
G3 X54.7629 Y29.1998 I0.2279 J-0.1985
G3 X54.7427 Y29.112 I0.2487 J-0.1033
G2 X54.7629 Y29.1998 I0.2688 J-0.0154
G2 X54.8153 Y29.2853 I0.2803 J-0.1131
G2 X54.8943 Y29.349 I0.2227 J-0.1954
G2 X54.9951 Y29.3748 I0.0989 J-0.1766
G2 X55.0792 Y29.3629 I0.005 J-0.2684
G2 X55.1482 Y29.3135 I-0.0385 J-0.1268
G2 X55.1829 Y29.2326 I-0.1853 J-0.1272
G2 X55.1918 Y29.145 I-0.3884 J-0.0837
G1 Y28.6186
G0 Z3.0
G0 X54.7427
G0 Z1.325
G1 F50.0 Z-0.075
G1 F150.0 Y29.3651
G1 Y28.6186
G0 Z3.0
G0 X57.6945 Y29.8061
G0 Z1.325
G1 F50.0 Z-0.075
G1 F150.0 X57.5244
G1 X57.6945
G1 Y28.617
G1 Y29.8061
G0 Z3.0
G0 X46.0408 Y47.7258
G0 Z1.325
G1 F50.0 Z-0.075
G1 F150.0 Y48.1232
G1 X46.4352
G1 X46.0408
G1 Y48.5213
G1 Y48.1232
G1 X45.6449
G1 X46.0408
G1 Y47.7258
G0 Z3.0
G0 X42.1006 Y14.5356
G0 Z1.325
G1 F50.0 Z-0.075
G1 F150.0 X41.3103
G1 X42.1006
G0 Z3.0
G0 X27.8954 Y17.8807
G0 Z1.325
G1 F50.0 Z-0.075
G1 F150.0 X27.501
G1 Y18.2788
G1 Y17.8807
G1 X27.1051
G1 X27.501
G1 Y17.4833
G1 Y17.8807
G1 X27.8954
G0 Z3.0
G0 X13.5906 Y26.7076
G0 Z1.325
G1 F50.0 Z-0.075
G2 F150.0 X13.7662 Y26.689 I0.0101 J-0.7425
G2 X13.8897 Y26.628 I-0.0606 J-0.2783
G2 X13.9634 Y26.5126 I-0.185 J-0.1994
G2 X13.9828 Y26.4247 I-0.4157 J-0.138
G2 X13.988 Y26.3348 I-0.7301 J-0.0867
G2 X13.983 Y26.246 I-0.73 J-0.0035
G2 X13.9634 Y26.1592 I-0.4046 J0.0456
G2 X13.8882 Y26.052 I-0.2226 J0.0762
G2 X13.7632 Y25.9984 I-0.1777 J0.2421
G2 X13.5906 Y25.9843 I-0.1634 J0.9341
G1 X12.8829
G1 X13.5906
G3 X13.7632 Y25.9984 I0.0093 J0.9481
G3 X13.8882 Y26.052 I-0.0527 J0.2957
G3 X13.9634 Y26.1592 I-0.1474 J0.1833
G3 X13.983 Y26.246 I-0.3852 J0.1324
G3 X13.988 Y26.3348 I-0.7253 J0.0854
G3 X13.9828 Y26.4247 I-0.735 J0.0032
G3 X13.9634 Y26.5126 I-0.4352 J-0.0501
G3 X13.8897 Y26.628 I-0.2587 J-0.084
G3 X13.7662 Y26.689 I-0.1841 J-0.2172
G3 X13.5906 Y26.7076 I-0.1655 J-0.7239
G1 X12.8829
G1 X13.5906
G0 Z3.0
G0 X4.3136 Y35.5721
G0 Z1.325
G1 F50.0 Z-0.075
G1 F150.0 Y36.6697
G1 X4.1566
G1 X4.3136
G1 Y35.5721
( ref points )
M0
G0 Z3.0
( T3 : 0.7 )
T3 M6
M3 S1000
G0 X1.283 Y1.283
G98
G81 X1.283 Y1.283 Z-2.0 R3.0 F50.0
G81 Y55.893 Z-2.0
G81 X29.858 Z-2.0
G81 X60.338 Z-2.0
G81 Y1.283 Z-2.0
G80
G0 Z3.0
M5
M30
