( Made using CamBam - http://www.cambam.co.uk )
( scout_mk1.sol 2/3/2015 9:32:32 PM )
( T1 : 0.7 )
( T2 : 0.2 )
( T3 : 0.2 )
( T4 : 1.0 )
( T5 : 0.7 )
( T6 : 3.0 )
G21 G90 G64 G40
G0 Z3.0
( T1 : 0.7 )
T1 M6
( fake ref points )
M0
G17
M3 S1000
G0 X31.763 Y55.893
G98
G81 X31.763 Y55.893 Z-2.0 R3.0 F50.0
G81 X60.338 Z-2.0
G81 Y1.283 Z-2.0
G81 X1.283 Z-2.0
G81 Y55.893 Z-2.0
G80
( isolation )
M0
G0 Z3.0
( T2 : 0.2 )
T2 M6
M3 S1000
G0 X57.036 Y13.7561
G0 Z1.325
G1 F50.0 Z-0.075
G1 F150.0 X55.9201 Y14.872
G1 X54.3419
G1 X53.226 Y13.7561
G1 Y12.1779
G1 X54.3419 Y11.062
G1 X55.9201
G1 X57.036 Y12.1779
G1 Y13.7561
G0 Z3.0
G0 X57.5185
G0 Z1.325
G1 F50.0 Z-0.075
G1 F150.0 Y11.8365
G1 X56.5648 Y10.6103
G3 X55.512 Y10.5109 I-0.4178 J-1.1993
G3 Y8.3111 I0.635 J-1.0999
G3 X55.7405 Y8.2078 I0.635 J1.0999
G1 Y7.379
G1 X54.4689
G1 X53.353 Y6.2631
G1 Y4.6849
G1 X54.4689 Y3.569
G1 X56.0471
G1 X57.163 Y4.6849
G1 Y6.2631
G1 X56.5535 Y6.8726
G1 Y8.2078
G3 X57.417 Y9.411 I-0.4065 J1.2032
G3 X57.2066 Y10.1112 I-1.27 J0.0
G1 X58.2459 Y11.4474
G3 X58.3315 Y11.697 I-0.3209 J0.2496
G1 Y22.873
G3 X58.2528 Y23.1134 I-0.4065 J0.0
G1 X57.5825 Y24.0274
G1 X58.433 Y24.8779
G1 Y26.4561
G1 X57.5695 Y27.3196
G1 Y37.478
G3 X57.4504 Y37.7654 I-0.4065 J0.0
G1 X56.4252 Y38.7907
G3 X55.334 Y39.84 I-1.0912 J-0.0427
G1 X53.149
G3 X52.1355 Y39.1545 I0.0 J-1.092
G1 X52.083
G3 X51.7956 Y39.0354 I0.0 J-0.4065
G1 X49.8906 Y37.1304
G3 X49.7715 Y36.843 I0.2874 J-0.2874
G1 Y29.3914
G1 X46.1996 Y25.8195
G1 X39.5514
G1 X38.4004 Y26.9704
G3 X38.113 Y27.0895 I-0.2874 J-0.2874
G1 X29.3914
G1 X28.3595 Y28.1214
G1 Y28.9212
G3 X28.791 Y29.654 I-0.4065 J0.7328
G1 Y31.331
G3 X27.115 I-0.838 J0.0
G1 Y29.654
G3 X27.5465 Y28.9212 I0.838 J0.0
G1 Y28.1214
G1 X26.5146 Y27.0895
G1 X16.523
G3 X16.2356 Y26.9704 I0.0 J-0.4065
G1 X14.9656 Y25.7004
G3 X14.8465 Y25.413 I0.2874 J-0.2874
G1 Y24.4438
G3 X14.415 Y23.711 I0.4065 J-0.7328
G1 Y23.2795
G1 X12.6462
G3 X10.808 Y23.9729 I-1.2032 J-0.4065
G3 Y21.7731 I0.635 J-1.0999
G3 X12.6462 Y22.4665 I0.635 J1.0999
G1 X14.415
G1 Y22.034
G3 X16.091 I0.838 J0.0
G1 Y23.711
G3 X15.6595 Y24.4438 I-0.838 J0.0
G1 Y25.2446
G1 X16.6914 Y26.2765
G1 X26.683
G3 X26.9704 Y26.3956 I0.0 J0.4065
G1 X27.953 Y27.3781
G1 X28.9356 Y26.3956
G3 X29.223 Y26.2765 I0.2874 J0.2874
G1 X37.9446
G1 X38.9765 Y25.2446
G1 Y19.7582
G3 X38.748 Y19.6549 I0.4065 J-1.2032
G3 Y17.4551 I0.635 J-1.0999
G3 X40.653 Y18.555 I0.635 J1.0999
G3 X39.7895 Y19.7582 I-1.27 J0.0
G1 Y25.0065
G1 X46.368
G3 X46.6554 Y25.1256 I0.0 J0.4065
G1 X50.4654 Y28.9356
G3 X50.5845 Y29.223 I-0.2874 J0.2874
G1 Y36.6746
G1 X52.1714 Y38.2615
G3 X53.149 Y37.656 I0.9776 J0.4865
G1 X55.334
G3 X56.0982 Y37.9679 I0.0 J1.092
G1 X56.7565 Y37.3096
G1 Y27.572
G1 X55.7389
G1 X54.623 Y26.4561
G1 Y24.8779
G1 X55.7389 Y23.762
G1 X56.769
G1 X57.5185 Y22.7399
G1 Y13.7561
G0 Z3.0
G0 X55.4121 Y16.142
G0 Z1.325
G1 F50.0 Z-0.075
G1 F150.0 X56.528 Y17.2579
G1 Y18.8361
G1 X55.4121 Y19.952
G1 X53.8339
G1 X52.718 Y18.8361
G1 Y17.2579
G1 X53.8339 Y16.142
G1 X55.4121
G0 Z3.0
G0 X51.8545
G0 Z1.325
G1 F50.0 Z-0.075
G1 F150.0 Y17.158
G3 X51.6884 Y17.4858 I-0.4065 J0.0
G1 X50.7536 Y18.1713
G3 X50.813 Y18.555 I-1.2106 J0.3837
G3 X48.908 Y19.6549 I-1.27 J0.0
G3 Y17.4551 I0.635 J-1.0999
G3 X50.2729 Y17.5157 I0.635 J1.0999
G1 X51.0415 Y16.952
G1 Y13.9162
G3 X50.813 Y13.8129 I0.4065 J-1.2032
G3 X50.3098 Y12.1497 I0.635 J-1.0999
G1 X49.7633 Y11.6032
G3 X47.968 Y12.1869 I-1.1603 J-0.5162
G3 Y9.9871 I0.635 J-1.0999
G3 X49.8062 Y10.6805 I0.635 J1.0999
G1 X49.822
G3 X50.1094 Y10.7996 I0.0 J0.4065
G1 X50.8847 Y11.5748
G3 X52.718 Y12.713 I0.5633 J1.1382
G3 X51.8545 Y13.9162 I-1.27 J0.0
G1 Y16.142
G0 Z3.0
G0 X49.8562 Y15.8138
G0 Z1.325
G1 F50.0 Z-0.075
G3 F150.0 X47.968 Y16.7079 I-1.2532 J-0.2058
G3 Y14.5081 I0.635 J-1.0999
G3 X49.873 Y15.608 I0.635 J1.0999
G3 X49.8562 Y15.8138 I-1.27 J0.0
G0 Z3.0
G0 X47.1535 Y15.5469
G0 Z1.325
G1 F50.0 Z-0.075
G3 F150.0 X47.0364 Y15.7944 I-0.4045 J-0.0399
G1 X46.1395 Y16.6914
G1 Y21.3012
G3 X46.571 Y22.034 I-0.4065 J0.7328
G1 Y23.711
G3 X44.895 I-0.838 J0.0
G1 Y22.034
G3 X45.3265 Y21.3012 I0.838 J0.0
G1 Y16.523
G3 X45.4456 Y16.2356 I0.4065 J0.0
G1 X46.3425 Y15.3386
G1 Y9.792
G3 X46.4616 Y9.5046 I0.4065 J0.0
G1 X47.2315 Y8.7346
G1 Y6.5314
G1 X46.2963 Y5.5962
G3 X45.098 Y5.5579 I-0.5633 J-1.1382
G3 Y3.3581 I0.635 J-1.0999
G3 X47.003 Y4.458 I0.635 J1.0999
G3 X46.8712 Y5.0213 I-1.27 J0.0
G1 X47.8384 Y5.9885
G1 X49.8989 Y6.4006
G3 X50.267 Y6.0523 I0.9141 J0.5974
G3 X51.905 Y6.998 I0.546 J0.9457
G3 X50.267 Y7.9437 I-1.092 J0.0
G3 X49.7394 Y7.1978 I0.546 J-0.9457
G1 X48.0445 Y6.8589
G1 Y8.903
G3 X47.9254 Y9.1904 I-0.4065 J0.0
G1 X47.1555 Y9.9604
G1 Y15.507
G3 X47.1535 Y15.5469 I-0.4065 J0.0
G0 Z3.0
G0 X46.0732 Y14.8405
G0 Z1.325
G1 F50.0 Z-0.075
G3 F150.0 X46.0204 Y14.9054 I-0.3402 J-0.2225
G1 X43.5995 Y17.3264
G1 Y21.3012
G3 X44.031 Y22.034 I-0.4065 J0.7328
G1 Y23.711
G3 X42.355 I-0.838 J0.0
G1 Y22.034
G3 X42.7865 Y21.3012 I0.838 J0.0
G1 Y17.158
G3 X42.9056 Y16.8706 I0.4065 J0.0
G1 X45.3265 Y14.4496
G1 Y9.4712
G3 X45.098 Y9.3679 I0.4065 J-1.2032
G3 Y7.1681 I0.635 J-1.0999
G3 X47.003 Y8.268 I0.635 J1.0999
G3 X46.1395 Y9.4712 I-1.27 J0.0
G1 Y14.618
G3 X46.0732 Y14.8405 I-0.4065 J0.0
G0 Z3.0
G0 X43.3479 Y15.3671
G0 Z1.325
G1 F50.0 Z-0.075
G3 F150.0 X43.371 Y15.608 I-1.2469 J0.2409
G3 X41.466 Y16.7079 I-1.27 J0.0
G3 Y14.5081 I0.635 J-1.0999
G3 X43.3479 Y15.3671 I0.635 J1.0999
G0 Z3.0
G0 X41.3924 Y17.3226
G0 Z1.325
G1 F50.0 Z-0.075
G1 F150.0 X41.5754 Y17.5056
G3 X41.6945 Y17.793 I-0.2874 J0.2874
G1 Y19.698
G3 X41.5754 Y19.9854 I-0.4065 J0.0
G1 X41.0595 Y20.5014
G1 Y21.3012
G3 X41.491 Y22.034 I-0.4065 J0.7328
G1 Y23.711
G3 X39.815 I-0.838 J0.0
G1 Y22.034
G3 X40.2465 Y21.3012 I0.838 J0.0
G1 Y20.333
G3 X40.3656 Y20.0456 I0.4065 J0.0
G1 X40.8815 Y19.5296
G1 Y17.9614
G1 X38.4606 Y15.5404
G3 X38.3415 Y15.253 I0.2874 J-0.2874
G1 Y14.618
G1 X37.9589
G1 X36.843 Y13.5021
G1 Y11.9239
G1 X37.9589 Y10.808
G1 X39.5371
G1 X40.653 Y11.9239
G1 Y13.5021
G1 X39.5371 Y14.618
G1 X39.1545
G1 Y15.0846
G1 X41.3924 Y17.3226
G0 Z3.0
G0 X38.2174 Y20.4976
G0 Z1.325
G1 F50.0 Z-0.075
G1 F150.0 X38.4004 Y20.6806
G3 X38.5195 Y20.968 I-0.2874 J0.2874
G1 Y21.3012
G3 X38.951 Y22.034 I-0.4065 J0.7328
G1 Y23.711
G3 X37.275 I-0.838 J0.0
G1 Y22.034
G3 X37.7065 Y21.3012 I0.838 J0.0
G1 Y21.1364
G1 X34.0156 Y17.4454
G3 X33.8965 Y17.158 I0.2874 J-0.2874
G1 Y14.618
G1 X33.5139
G1 X32.398 Y13.5021
G1 Y11.9239
G1 X33.5139 Y10.808
G1 X35.0921
G1 X36.208 Y11.9239
G1 Y13.5021
G1 X35.0921 Y14.618
G1 X34.7095
G1 Y16.9896
G1 X38.2174 Y20.4976
G0 Z3.0
G0 X36.2976 Y21.613
G0 Z1.325
G1 F50.0 Z-0.075
G3 F150.0 X36.411 Y22.034 I-0.7246 J0.421
G1 Y23.711
G3 X34.735 I-0.838 J0.0
G1 Y22.034
G3 X36.2976 Y21.613 I0.838 J0.0
G0 Z3.0
G0 X33.8641 Y21.9268
G0 Z1.325
G1 F50.0 Z-0.075
G3 F150.0 X33.871 Y22.034 I-0.8311 J0.1072
G1 Y23.711
G3 X32.195 I-0.838 J0.0
G1 Y22.034
G3 X33.8641 Y21.9268 I0.838 J0.0
G0 Z3.0
G0 X31.3306 Y22.0074
G0 Z1.325
G1 F50.0 Z-0.075
G3 F150.0 X31.331 Y22.034 I-0.8376 J0.0266
G1 Y23.711
G3 X29.655 I-0.838 J0.0
G1 Y22.034
G3 X31.3306 Y22.0074 I0.838 J0.0
G0 Z3.0
G0 X28.791 Y22.0274
G0 Z1.325
G1 F50.0 Z-0.075
G3 F150.0 Y22.034 I-0.838 J0.0066
G1 Y23.711
G3 X27.115 I-0.838 J0.0
G1 Y22.034
G3 X27.5465 Y21.3012 I0.838 J0.0
G1 Y17.158
G3 X27.6656 Y16.8706 I0.4065 J0.0
G1 X28.1815 Y16.3546
G1 Y15.253
G1 X27.7989
G1 X26.683 Y14.1371
G1 Y12.5589
G1 X27.7989 Y11.443
G1 X29.3771
G1 X30.493 Y12.5589
G1 Y14.1371
G1 X29.3771 Y15.253
G1 X28.9945
G1 Y16.523
G3 X28.8754 Y16.8104 I-0.4065 J0.0
G1 X28.3595 Y17.3264
G1 Y21.3012
G3 X28.791 Y22.0274 I-0.4065 J0.7328
G0 Z3.0
G0 X26.251 Y22.0324
G0 Z1.325
G1 F50.0 Z-0.075
G3 F150.0 Y22.034 I-0.838 J0.0016
G1 Y23.711
G3 X24.575 I-0.838 J0.0
G1 Y22.034
G3 X25.0065 Y21.3012 I0.838 J0.0
G1 Y19.6312
G3 X24.778 Y19.5279 I0.4065 J-1.2032
G3 Y17.3281 I0.635 J-1.0999
G3 X25.0065 Y17.2248 I0.635 J1.0999
G1 Y10.808
G1 X24.6239
G1 X23.508 Y9.6921
G1 Y8.1139
G1 X23.7785 Y7.8434
G1 X21.5313 Y5.5962
G3 X20.333 Y5.5579 I-0.5633 J-1.1382
G3 Y3.3581 I0.635 J-1.0999
G3 X22.238 Y4.458 I0.635 J1.0999
G3 X22.1062 Y5.0213 I-1.27 J0.0
G1 X24.3114 Y7.2265
G1 X24.3954
G1 X24.6239 Y6.998
G1 X25.4731
G1 X28.3006 Y4.1706
G3 X28.588 Y4.0515 I0.2874 J0.2874
G1 X34.3698
G3 X34.938 Y3.3581 I1.2032 J0.4065
G3 X36.843 Y4.458 I0.635 J1.0999
G3 X34.938 Y5.5579 I-1.27 J0.0
G3 X34.3698 Y4.8645 I0.635 J-1.0999
G1 X28.7564
G1 X26.4125 Y7.2084
G1 X27.318 Y8.1139
G1 Y9.6921
G1 X26.2021 Y10.808
G1 X25.8195
G1 Y17.2248
G3 X26.683 Y18.428 I-0.4065 J1.2032
G3 X25.8195 Y19.6312 I-1.27 J0.0
G1 Y21.3012
G3 X26.251 Y22.0324 I-0.4065 J0.7328
G0 Z3.0
G0 X23.711 Y22.0336
G0 Z1.325
G1 F50.0 Z-0.075
G3 F150.0 Y22.034 I-0.838 J0.0004
G1 Y23.711
G3 X22.035 I-0.838 J0.0
G1 Y22.034
G3 X23.711 Y22.0336 I0.838 J0.0
G0 Z3.0
G0 X21.171 Y22.0339
G0 Z1.325
G1 F50.0 Z-0.075
G3 F150.0 Y22.034 I-0.838 J0.0001
G1 Y23.711
G3 X19.495 I-0.838 J0.0
G1 Y22.034
G3 X21.171 Y22.0339 I0.838 J0.0
G0 Z3.0
G0 X20.6205 Y19.665
G0 Z1.325
G1 F50.0 Z-0.075
G3 F150.0 X19.698 Y19.5279 I-0.2875 J-1.237
G3 X19.1298 Y18.8345 I0.635 J-1.0999
G1 X17.5365
G3 X15.977 Y19.3737 I-1.0135 J-0.4065
G3 X15.4552 Y18.1995 I0.546 J-0.9457
G1 X12.6462
G3 X10.808 Y18.8929 I-1.2032 J-0.4065
G3 Y16.6931 I0.635 J-1.0999
G3 X12.6462 Y17.3865 I0.635 J1.0999
G1 X15.888
G3 X16.0751 Y17.4321 I0.0 J0.4065
G3 X17.5365 Y18.0215 I0.4479 J0.9959
G1 X19.1298
G3 X19.698 Y17.3281 I1.2032 J0.4065
G3 X21.603 Y18.428 I0.635 J1.0999
G3 X20.6205 Y19.665 I-1.27 J0.0
G0 Z3.0
G0 X18.4353 Y21.4958
G0 Z1.325
G1 F50.0 Z-0.075
G3 F150.0 X18.631 Y22.034 I-0.6423 J0.5382
G1 Y23.711
G3 X16.955 I-0.838 J0.0
G1 Y22.034
G3 X18.4353 Y21.4958 I0.838 J0.0
G0 Z3.0
G0 X16.8755 Y16.9216
G0 Z1.325
G1 F50.0 Z-0.075
G3 F150.0 X15.977 Y16.8337 I-0.3525 J-1.0336
G3 Y14.9423 I0.546 J-0.9457
G3 X17.615 Y15.888 I0.546 J0.9457
G3 X16.8755 Y16.9216 I-1.092 J0.0
G0 Z3.0
G0 X20.3523 Y10.6488
G0 Z1.325
G1 F50.0 Z-0.075
G3 F150.0 X20.333 Y10.6379 I0.6157 J-1.1108
G3 Y8.4381 I0.635 J-1.0999
G3 X22.238 Y9.538 I0.635 J1.0999
G3 X20.3523 Y10.6488 I-1.27 J0.0
G0 Z3.0
G0 X9.4548 Y14.8008
G0 Z1.325
G1 F50.0 Z-0.075
G3 F150.0 X9.538 Y15.253 I-1.1868 J0.4522
G3 X7.633 Y16.3529 I-1.27 J0.0
G3 X7.0648 Y15.6595 I0.635 J-1.0999
G1 X5.6612
G3 X3.823 Y16.3529 I-1.2032 J-0.4065
G3 Y14.1531 I0.635 J-1.0999
G3 X5.6612 Y14.8465 I0.635 J1.0999
G1 X7.0648
G3 X7.633 Y14.1531 I1.2032 J0.4065
G3 X9.4548 Y14.8008 I0.635 J1.0999
G0 Z3.0
G0 X8.4091 Y24.1509
G0 Z1.325
G1 F50.0 Z-0.075
G3 F150.0 X9.538 Y25.413 I-0.1411 J1.2621
G3 X8.6745 Y26.6162 I-1.27 J0.0
G1 Y36.0396
G1 X10.3414 Y37.7065
G1 X17.6246
G1 X22.5856 Y32.7456
G3 X22.873 Y32.6265 I0.2874 J0.2874
G1 X38.5796
G1 X39.817 Y31.3891
G3 X39.815 Y31.331 I0.836 J-0.0581
G1 Y29.654
G3 X41.491 I0.838 J0.0
G1 Y31.331
G3 X40.2763 Y32.0796 I-0.838 J0.0
G1 X39.0354 Y33.3204
G3 X38.748 Y33.4395 I-0.2874 J-0.2874
G1 X23.0414
G1 X18.0804 Y38.4004
G3 X17.793 Y38.5195 I-0.2874 J-0.2874
G1 X10.173
G3 X9.8856 Y38.4004 I0.0 J-0.4065
G1 X7.9806 Y36.4954
G3 X7.8615 Y36.208 I0.2874 J-0.2874
G1 Y26.6162
G3 X7.633 Y26.5129 I0.4065 J-1.2032
G3 Y24.3131 I0.635 J-1.0999
G3 X8.4091 Y24.1509 I0.635 J1.0999
G0 Z3.0
G0 X5.6678 Y25.0266
G0 Z1.325
G1 F50.0 Z-0.075
G3 F150.0 X5.728 Y25.413 I-1.2098 J0.3864
G3 X4.8645 Y26.6162 I-1.27 J0.0
G1 Y33.4996
G1 X10.3414 Y38.9765
G1 X17.6246
G1 X22.5856 Y34.0156
G3 X22.873 Y33.8965 I0.2874 J0.2874
G1 X39.8496
G1 X42.357 Y31.3891
G3 X42.355 Y31.331 I0.836 J-0.0581
G1 Y29.654
G3 X44.031 I0.838 J0.0
G1 Y31.331
G3 X42.8163 Y32.0796 I-0.838 J0.0
G1 X40.3054 Y34.5904
G3 X40.018 Y34.7095 I-0.2874 J-0.2874
G1 X23.0414
G1 X18.0804 Y39.6704
G3 X17.793 Y39.7895 I-0.2874 J-0.2874
G1 X10.173
G3 X9.8856 Y39.6704 I0.0 J-0.4065
G1 X4.1706 Y33.9554
G3 X4.0515 Y33.668 I0.2874 J-0.2874
G1 Y26.6162
G3 X3.823 Y26.5129 I0.4065 J-1.2032
G3 Y24.3131 I0.635 J-1.0999
G3 X5.6678 Y25.0266 I0.635 J1.0999
G0 Z3.0
G0 X3.7604 Y27.786
G0 Z1.325
G1 F50.0 Z-0.075
G3 F150.0 X3.848 Y27.953 I-0.1154 J0.167
G1 Y28.19
G1 Y28.595
G1 Y29.0
G1 Y29.404
G1 Y29.809
G1 Y30.214
G1 Y30.619
G1 Y31.024
G1 Y31.429
G1 Y31.834
G1 Y32.239
G1 Y32.644
G1 Y33.049
G1 Y33.454
G1 Y33.7886
G1 X3.9412 Y34.0132
G1 X4.0384 Y34.1108
G3 X4.0567 Y34.1293 I-0.1344 J0.1522
G1 X4.1407 Y34.2136
G1 X4.4401 Y34.513
G3 X4.464 Y34.5369 I-0.1311 J0.155
G1 X4.8451 Y34.918
G3 X4.869 Y34.9419 I-0.1311 J0.155
G1 X5.2501 Y35.323
G3 X5.274 Y35.3469 I-0.1311 J0.155
G1 X5.6665 Y35.7395
G1 X6.0715 Y36.1445
G1 X6.4765 Y36.5495
G1 X6.8815 Y36.9545
G1 X7.2865 Y37.3595
G1 X7.6791 Y37.752
G3 X7.703 Y37.7759 I-0.1311 J0.155
G1 X8.0841 Y38.157
G3 X8.108 Y38.1809 I-0.1311 J0.155
G1 X8.4891 Y38.562
G3 X8.513 Y38.5859 I-0.1311 J0.155
G1 X8.8941 Y38.967
G3 X8.918 Y38.9909 I-0.1311 J0.155
G1 X9.2991 Y39.372
G3 X9.323 Y39.3959 I-0.1311 J0.155
G1 X9.7155 Y39.7885
G1 X9.8268 Y39.8997
G1 X10.0511 Y39.992
G1 X17.9139
G1 X18.1382 Y39.8997
G1 X18.2495 Y39.7885
G1 X18.3384 Y39.6995
G1 X20.2645 Y37.773
G3 X20.2829 Y37.7546 I0.1525 J0.134
G1 X23.0654 Y34.9715
G3 X23.209 Y34.912 I0.1436 J0.1435
G1 X40.1389
G1 X40.3632 Y34.8197
G1 X40.5635 Y34.6195
G1 X40.6585 Y34.5245
G1 X41.0635 Y34.1195
G1 X41.456 Y33.7269
G3 X41.4799 Y33.703 I0.155 J0.1311
G1 X41.8725 Y33.3105
G1 X42.2775 Y32.9055
G1 X42.6825 Y32.5005
G1 X42.7655 Y32.4175
G3 X42.9826 Y32.3718 I0.1435 J0.1435
G1 X42.9831 Y32.372
G1 X43.3998
G1 X43.7831 Y32.2138
G1 X44.0758 Y31.9211
G1 X44.1392 Y31.7674
G3 X44.1481 Y31.746 I0.1918 J0.0666
G1 X44.234 Y31.5378
G1 Y31.429
G1 Y31.024
G1 Y30.619
G1 Y30.214
G1 Y29.809
G1 Y29.4472
G1 X44.083 Y29.0813
G3 X44.0798 Y29.0736 I0.186 J-0.0813
G1 X44.0758 Y29.0639
G1 X43.7831 Y28.7712
G1 X43.3998 Y28.613
G1 X42.9853
G1 X42.6029 Y28.7711
G1 X42.3101 Y29.064
G1 X42.3073 Y29.0706
G3 X42.3014 Y29.0848 I-0.1903 J-0.0706
G1 X42.151 Y29.4474
G1 Y29.809
G1 Y30.214
G1 Y30.619
G1 Y31.024
G1 Y31.223
G3 X42.0915 Y31.3665 I-0.203 J0.0
G1 X42.0405 Y31.4175
G3 X41.694 Y31.274 I-0.1435 J-0.1435
G1 Y31.024
G1 Y30.619
G1 Y30.214
G1 Y29.809
G1 Y29.4472
G1 X41.543 Y29.0813
G3 X41.5398 Y29.0736 I0.186 J-0.0813
G1 X41.5358 Y29.0639
G1 X41.2431 Y28.7712
G1 X40.8598 Y28.613
G1 X40.4453
G1 X40.0629 Y28.7711
G1 X39.7701 Y29.064
G1 X39.7673 Y29.0706
G3 X39.7614 Y29.0848 I-0.1903 J-0.0706
G1 X39.611 Y29.4474
G1 Y29.809
G1 Y30.214
G1 Y30.619
G1 Y31.024
G1 Y31.223
G3 X39.5515 Y31.3665 I-0.203 J0.0
G1 X39.5005 Y31.4175
G3 X39.154 Y31.274 I-0.1435 J-0.1435
G1 Y31.024
G1 Y30.619
G1 Y30.214
G1 Y29.809
G1 Y29.4472
G1 X39.003 Y29.0813
G3 X38.9998 Y29.0736 I0.186 J-0.0813
G1 X38.9958 Y29.0639
G1 X38.7031 Y28.7712
G1 X38.3198 Y28.613
G1 X37.9053
G1 X37.5229 Y28.7711
G1 X37.2301 Y29.064
G1 X37.2273 Y29.0706
G3 X37.2214 Y29.0848 I-0.1903 J-0.0706
G1 X37.071 Y29.4474
G1 Y29.809
G1 Y30.214
G1 Y30.619
G1 Y31.024
G1 Y31.429
G1 Y31.5376
G1 X37.2301 Y31.921
G1 X37.3855 Y32.0765
G3 X37.242 Y32.423 I-0.1435 J0.1435
G1 X36.444
G3 X36.3005 Y32.0765 I0.0 J-0.203
G1 X36.4558 Y31.9211
G1 X36.5192 Y31.7674
G3 X36.5281 Y31.746 I0.1918 J0.0666
G1 X36.614 Y31.5378
G1 Y31.429
G1 Y31.024
G1 Y30.619
G1 Y30.214
G1 Y29.809
G1 Y29.4472
G1 X36.463 Y29.0813
G3 X36.4598 Y29.0736 I0.186 J-0.0813
G1 X36.4558 Y29.0639
G1 X36.1631 Y28.7712
G1 X35.7798 Y28.613
G1 X35.3653
G1 X34.9829 Y28.7711
G1 X34.6901 Y29.064
G1 X34.6873 Y29.0706
G3 X34.6814 Y29.0848 I-0.1903 J-0.0706
G1 X34.531 Y29.4474
G1 Y29.809
G1 Y30.214
G1 Y30.619
G1 Y31.024
G1 Y31.429
G1 Y31.5376
G1 X34.6901 Y31.921
G1 X34.8455 Y32.0765
G3 X34.702 Y32.423 I-0.1435 J0.1435
G1 X33.904
G3 X33.7605 Y32.0765 I0.0 J-0.203
G1 X33.9158 Y31.9211
G1 X33.9792 Y31.7674
G3 X33.9881 Y31.746 I0.1918 J0.0666
G1 X34.074 Y31.5378
G1 Y31.429
G1 Y31.024
G1 Y30.619
G1 Y30.214
G1 Y29.809
G1 Y29.4472
G1 X33.923 Y29.0813
G3 X33.9198 Y29.0736 I0.186 J-0.0813
G1 X33.9158 Y29.0639
G1 X33.6231 Y28.7712
G1 X33.2398 Y28.613
G1 X32.8253
G1 X32.4429 Y28.7711
G1 X32.1501 Y29.064
G1 X32.1473 Y29.0706
G3 X32.1414 Y29.0848 I-0.1903 J-0.0706
G1 X31.991 Y29.4474
G1 Y29.809
G1 Y30.214
G1 Y30.619
G1 Y31.024
G1 Y31.429
G1 Y31.5376
G1 X32.1501 Y31.921
G1 X32.3055 Y32.0765
G3 X32.162 Y32.423 I-0.1435 J0.1435
G1 X31.364
G3 X31.2205 Y32.0765 I0.0 J-0.203
G1 X31.3758 Y31.9211
G1 X31.4392 Y31.7674
G3 X31.4481 Y31.746 I0.1918 J0.0666
G1 X31.534 Y31.5378
G1 Y31.429
G1 Y31.024
G1 Y30.619
G1 Y30.214
G1 Y29.809
G1 Y29.4472
G1 X31.383 Y29.0813
G3 X31.3798 Y29.0736 I0.186 J-0.0813
G1 X31.3758 Y29.0639
G1 X31.0831 Y28.7712
G1 X30.6998 Y28.613
G1 X30.2853
G1 X29.9029 Y28.7711
G1 X29.6101 Y29.064
G1 X29.6073 Y29.0706
G3 X29.6014 Y29.0848 I-0.1903 J-0.0706
G1 X29.451 Y29.4474
G1 Y29.809
G1 Y30.214
G1 Y30.619
G1 Y31.024
G1 Y31.429
G1 Y31.5376
G1 X29.6101 Y31.921
G1 X29.7655 Y32.0765
G3 X29.622 Y32.423 I-0.1435 J0.1435
G1 X28.824
G3 X28.6805 Y32.0765 I0.0 J-0.203
G1 X28.8358 Y31.9211
G1 X28.8992 Y31.7674
G3 X28.9081 Y31.746 I0.1918 J0.0666
G1 X28.994 Y31.5378
G1 Y31.429
G1 Y31.024
G1 Y30.619
G1 Y30.214
G1 Y29.809
G1 Y29.4472
G1 X28.843 Y29.0813
G3 X28.8398 Y29.0736 I0.186 J-0.0813
G1 X28.8359 Y29.0641
G1 X28.6218 Y28.8508
G3 X28.562 Y28.707 I0.1432 J-0.1438
G1 Y28.289
G3 X28.6217 Y28.1452 I0.203 J0.0
G1 X28.9587 Y27.8092
G3 X29.102 Y27.75 I0.1433 J0.1438
G1 X47.758
G3 X47.9015 Y27.8095 I0.0 J0.203
G1 X48.3585 Y28.2665
G3 X48.215 Y28.613 I-0.1435 J0.1435
G1 X48.0653
G1 X47.6829 Y28.7711
G1 X47.3901 Y29.064
G1 X47.3873 Y29.0706
G3 X47.3814 Y29.0848 I-0.1903 J-0.0706
G1 X47.231 Y29.4474
G1 Y29.809
G1 Y30.214
G1 Y30.619
G1 Y31.024
G1 Y31.429
G1 Y31.5376
G1 X47.3901 Y31.921
G1 X47.6035 Y32.1345
G3 X47.663 Y32.278 I-0.1435 J0.1435
G1 Y32.644
G1 Y33.049
G1 Y33.454
G1 Y33.858
G1 Y34.263
G1 Y34.668
G1 Y35.073
G1 Y35.478
G1 Y35.883
G1 Y36.288
G1 Y36.693
G1 Y37.098
G1 Y37.503
G1 Y37.907
G1 Y38.312
G1 Y38.717
G1 Y39.122
G1 Y39.527
G1 Y39.932
G1 Y40.337
G1 Y40.595
G3 X47.3165 Y40.7386 I-0.203 J0.0
G1 X47.068 Y40.4904
G3 X47.0477 Y40.4701 I0.133 J-0.1534
G1 X46.659 Y40.0818
G3 X46.6464 Y40.0692 I0.137 J-0.1498
G1 X46.4015 Y39.8246
G3 X46.342 Y39.681 I0.1435 J-0.1436
G1 Y39.527
G1 Y39.122
G1 Y38.717
G1 Y38.312
G1 Y37.907
G1 Y37.503
G1 Y37.098
G1 Y36.693
G1 Y36.288
G1 Y35.883
G1 Y35.478
G1 Y35.073
G1 Y34.668
G1 Y34.263
G1 Y33.858
G1 Y33.454
G1 Y33.049
G1 Y32.644
G1 Y32.278
G3 X46.4018 Y32.1342 I0.203 J0.0
G1 X46.6159 Y31.9209
G1 X46.6792 Y31.7674
G3 X46.6881 Y31.746 I0.1918 J0.0666
G1 X46.774 Y31.5378
G1 Y31.429
G1 Y31.024
G1 Y30.619
G1 Y30.214
G1 Y29.809
G1 Y29.4472
G1 X46.623 Y29.0813
G3 X46.6198 Y29.0736 I0.186 J-0.0813
G1 X46.6158 Y29.0639
G1 X46.3231 Y28.7712
G1 X45.9398 Y28.613
G1 X45.5253
G1 X45.1429 Y28.7711
G1 X44.8501 Y29.064
G1 X44.8473 Y29.0706
G3 X44.8414 Y29.0848 I-0.1903 J-0.0706
G1 X44.691 Y29.4474
G1 Y29.809
G1 Y30.214
G1 Y30.619
G1 Y31.024
G1 Y31.429
G1 Y31.5376
G1 X44.8501 Y31.921
G1 X45.0635 Y32.1345
G3 X45.123 Y32.278 I-0.1435 J0.1435
G1 Y32.644
G1 Y33.049
G1 Y33.454
G1 Y33.858
G1 Y34.263
G1 Y34.668
G1 Y37.907
G1 Y39.932
G1 Y40.1386
G1 X45.2161 Y40.363
G1 X46.6655 Y41.8125
G1 X47.0705 Y42.2175
G1 X47.4755 Y42.6225
G1 X47.8805 Y43.0275
G1 X48.2855 Y43.4325
G1 X51.5375 Y46.6845
G3 X51.5379 Y46.6848 I-0.1435 J0.1435
G1 X51.7371 Y46.8849
G1 X51.9295 Y46.9644
G3 X52.0395 Y47.0741 I-0.0775 J0.1876
G1 X52.051 Y47.1018
G1 X52.4159 Y47.4659
G1 X52.8914 Y47.663
G1 X55.5917
G1 X56.068 Y47.4659
G1 X56.4319 Y47.102
G1 X56.629 Y46.6257
G1 Y46.41
G1 Y46.1103
G1 X56.4319 Y45.634
G1 X56.1375 Y45.3395
G1 X56.0395 Y45.2415
G3 Y44.9545 I0.1435 J-0.1435
G1 X56.3465 Y44.6475
G1 X56.4319 Y44.562
G1 X56.629 Y44.0857
G1 Y43.981
G1 Y43.576
G1 Y43.5703
G1 X56.4318 Y43.0938
G1 X56.0563 Y42.7174
G3 X56.0806 Y42.4098 I0.1437 J-0.1434
G1 X56.2107 Y42.3152
G1 X56.296 Y42.2299
G3 X56.3199 Y42.206 I0.155 J0.1311
G1 X56.3611 Y42.1648
G1 X56.4853 Y41.9937
G1 X56.5465 Y41.8736
G3 X56.5562 Y41.8544 I0.1855 J0.0824
G1 X56.5819 Y41.8041
G1 X56.647 Y41.6036
G1 X56.6567 Y41.542
G1 X56.396
G3 X55.334 Y42.38 I-1.062 J-0.254
G1 X53.149
G3 X52.087 Y41.542 I0.0 J-1.092
G1 X51.8263
G1 X51.836 Y41.6032
G1 X51.9021 Y41.8041
G1 X51.9977 Y41.9937
G1 X52.1228 Y42.1648
G1 X52.1685 Y42.2107
G3 X52.183 Y42.2254 I-0.1365 J0.1503
G1 X52.2723 Y42.3151
G1 X52.4029 Y42.4094
G3 X52.4275 Y42.7175 I-0.1189 J0.1646
G1 X52.2355 Y42.9095
G1 X52.0509 Y43.0942
G3 X51.864 Y43.218 I-0.1869 J-0.0792
G1 X51.784
G3 X51.6405 Y43.1585 I0.0 J-0.203
G1 X49.3675 Y40.8855
G1 X48.9415 Y40.4595
G3 X48.882 Y40.316 I0.1435 J-0.1435
G1 Y39.527
G1 Y39.122
G1 Y38.717
G1 Y38.312
G1 Y37.907
G1 Y37.098
G1 Y36.693
G1 Y36.288
G1 Y35.883
G1 Y35.478
G1 Y35.073
G1 Y34.668
G1 Y34.263
G1 Y33.858
G1 Y33.454
G1 Y33.049
G1 Y32.644
G1 Y32.278
G3 X48.9418 Y32.1342 I0.203 J0.0
G1 X49.1558 Y31.921
G1 X49.1772 Y31.8688
G3 X49.568 Y31.946 I0.1878 J0.0772
G1 Y32.644
G1 Y33.049
G1 Y33.454
G1 Y33.858
G1 Y34.263
G1 Y34.668
G1 Y35.073
G1 Y35.478
G1 Y35.883
G1 Y36.288
G1 Y36.693
G1 Y36.9636
G1 X49.5905 Y37.0179
G3 X49.5925 Y37.0226 I-0.1865 J0.0801
G1 X49.6611 Y37.188
G1 X50.2365 Y37.7635
G1 X50.6415 Y38.1685
G1 X51.0465 Y38.5735
G1 X51.4515 Y38.9785
G1 X51.5375 Y39.0645
G3 X51.5379 Y39.0648 I-0.1435 J0.1435
G1 X51.7371 Y39.2649
G1 X51.9137 Y39.3379
G3 X51.9212 Y39.341 I-0.0737 J0.1891
G1 X51.9295 Y39.3444
G3 X52.0395 Y39.4541 I-0.0775 J0.1876
G1 X52.051 Y39.4818
G1 X52.4274 Y39.8573
G3 X52.4036 Y40.165 I-0.1434 J0.1437
G1 X52.2724 Y40.2607
G1 X52.1228 Y40.4103
G1 X51.9977 Y40.5823
G1 X51.9021 Y40.7709
G1 X51.8923 Y40.8009
G3 X51.8895 Y40.8094 I-0.1943 J-0.0589
G1 X51.836 Y40.9727
G1 X51.8263 Y41.034
G1 X52.087
G3 X53.149 Y40.196 I1.062 J0.254
G1 X55.334
G3 X56.396 Y41.034 I0.0 J1.092
G1 X56.6567
G1 X56.647 Y40.9723
G1 X56.5819 Y40.7709
G1 X56.4853 Y40.5823
G1 X56.4021 Y40.4671
G3 X56.3855 Y40.4441 I0.1559 J-0.1301
G1 X56.3611 Y40.4103
G1 X56.2106 Y40.2607
G1 X56.0799 Y40.1646
G3 X56.0565 Y39.8575 I0.1201 J-0.1636
G1 X56.1255 Y39.7885
G1 X56.4319 Y39.482
G1 X56.629 Y39.0057
G1 Y38.957
G3 X56.6885 Y38.8134 I0.203 J0.0
G1 X57.4795 Y38.0234
G1 X57.6786 Y37.8243
G3 X57.6833 Y37.8145 I0.1854 J0.0827
G1 X57.772 Y37.5989
G1 Y37.503
G1 Y37.098
G1 Y36.693
G1 Y36.288
G1 Y35.883
G1 Y35.478
G1 Y35.073
G1 Y34.668
G1 Y34.263
G1 Y33.858
G1 Y33.454
G1 Y33.049
G1 Y32.644
G1 Y32.239
G1 Y31.834
G1 Y31.429
G1 Y31.024
G1 Y30.619
G1 Y30.214
G1 Y29.809
G1 Y29.404
G1 Y29.0
G1 Y28.595
G1 Y28.19
G1 Y27.953
G3 X57.975 Y27.75 I0.203 J0.0
G1 X58.687
G3 X58.89 Y27.953 I0.0 J0.203
G1 Y28.19
G1 Y28.595
G1 Y29.0
G1 Y29.404
G1 Y29.809
G1 Y30.214
G1 Y30.619
G1 Y31.024
G1 Y31.429
G1 Y31.834
G1 Y32.239
G1 Y32.644
G1 Y33.049
G1 Y33.454
G1 Y33.858
G1 Y34.263
G1 Y34.668
G1 Y35.073
G1 Y35.478
G1 Y35.883
G1 Y36.288
G1 Y36.693
G1 Y37.098
G1 Y37.503
G1 Y37.907
G1 Y39.932
G1 Y40.337
G1 Y41.956
G1 Y42.361
G1 Y43.576
G1 Y43.981
G1 Y44.791
G1 Y45.196
G1 Y46.41
G1 Y48.435
G1 Y48.84
G1 Y49.245
G1 Y49.649
G1 Y53.294
G1 Y53.698
G1 Y53.734
G3 X58.687 Y53.937 I-0.203 J0.0
G1 X3.188
G3 X2.985 Y53.734 I0.0 J-0.203
G1 Y53.698
G1 Y53.294
G1 Y49.649
G1 Y49.245
G1 Y48.84
G1 Y48.435
G1 Y43.576
G1 Y43.171
G1 Y42.766
G1 Y42.361
G1 Y41.956
G1 Y39.932
G1 Y39.527
G1 Y39.122
G1 Y38.717
G1 Y38.312
G1 Y37.907
G1 Y37.503
G1 Y37.098
G1 Y36.693
G1 Y36.288
G1 Y35.883
G1 Y35.478
G1 Y35.073
G1 Y34.668
G1 Y34.263
G1 Y33.454
G1 Y33.049
G1 Y32.644
G1 Y32.239
G1 Y31.834
G1 Y31.429
G1 Y31.024
G1 Y30.619
G1 Y30.214
G1 Y29.809
G1 Y29.404
G1 Y29.0
G1 Y28.595
G1 Y28.19
G1 Y27.953
G3 X3.188 Y27.75 I0.203 J0.0
G1 X3.645
G3 X3.7604 Y27.786 I0.0 J0.203
G0 Z3.0
G0 X13.7831 Y45.119
G0 Z1.325
G1 F50.0 Z-0.075
G1 F150.0 X14.1127 Y44.982
G2 X14.1309 Y44.9744 I-0.0687 J-0.191
G1 X14.3245 Y44.894
G1 X14.9105
G1 X15.1041 Y44.9744
G2 X15.1223 Y44.982 I0.0869 J-0.1834
G1 X15.452 Y45.1191
G1 X15.6642 Y45.3307
G2 X15.6816 Y45.3481 I0.1518 J-0.1347
G1 X15.8669 Y45.5331
G1 X15.9224 Y45.6671
G2 X15.9311 Y45.688 I0.1916 J-0.0671
G1 X16.091 Y46.0744
G1 Y46.6606
G1 X15.8945 Y47.1354
G2 X15.8887 Y47.1494 I0.1845 J0.0846
G1 X15.8669 Y47.202
G1 X15.452 Y47.6169
G1 X14.9106 Y47.841
G1 X14.3244
G1 X13.7831 Y47.6169
G1 X13.3691 Y47.202
G1 X13.1818 Y46.7514
G2 X13.1701 Y46.7232 I-0.1928 J0.0636
G1 X13.144 Y46.6605
G1 Y46.0745
G1 X13.369 Y45.5331
G1 X13.7831 Y45.119
G0 Z3.0
G0 X13.9122 Y45.3122
G0 Z1.325
G1 F50.0 Z-0.075
G3 F150.0 X13.983 Y45.2681 I0.7058 J1.0558
G3 X15.888 Y46.368 I0.635 J1.0999
G3 X13.983 Y47.4679 I-1.27 J0.0
G3 X13.9122 Y45.3122 I0.635 J-1.0999
G0 Z3.0
G0 X17.589 Y46.0745
G0 Z1.325
G1 F50.0 Z-0.075
G1 F150.0 X17.814 Y45.5331
G1 X18.2281 Y45.119
G1 X18.5577 Y44.982
G2 X18.5759 Y44.9744 I-0.0687 J-0.191
G1 X18.7695 Y44.894
G1 X19.3555
G1 X19.5491 Y44.9744
G2 X19.5673 Y44.982 I0.0869 J-0.1834
G1 X19.897 Y45.1191
G1 X20.1092 Y45.3307
G2 X20.1266 Y45.3481 I0.1518 J-0.1347
G1 X20.3119 Y45.5331
G1 X20.3674 Y45.6671
G2 X20.3761 Y45.688 I0.1916 J-0.0671
G1 X20.536 Y46.0744
G1 Y46.6606
G1 X20.3395 Y47.1354
G2 X20.3337 Y47.1494 I0.1845 J0.0846
G1 X20.3119 Y47.202
G1 X19.897 Y47.6169
G1 X19.3556 Y47.841
G1 X18.7694
G1 X18.2281 Y47.6169
G1 X17.8141 Y47.202
G1 X17.6268 Y46.7514
G2 X17.6151 Y46.7232 I-0.1928 J0.0636
G1 X17.589 Y46.6605
G1 Y46.0745
G0 Z3.0
G0 X17.8175 Y46.12
G0 Z1.325
G1 F50.0 Z-0.075
G3 F150.0 X18.428 Y45.2681 I1.2455 J0.248
G3 X20.333 Y46.368 I0.635 J1.0999
G3 X18.428 Y47.4679 I-1.27 J0.0
G3 X17.8175 Y46.12 I0.635 J-1.0999
G0 Z3.0
G0 X18.765 Y49.9494
G0 Z1.325
G1 F50.0 Z-0.075
G1 F150.0 X18.86 Y49.9367
G1 Y50.1943
G2 X18.428 Y50.3481 I0.203 J1.2537
G2 X17.8093 Y51.245 I0.635 J1.0999
G1 X17.5522
G1 X17.5646 Y51.1496
G1 X17.6166 Y50.9563
G1 X17.6925 Y50.7721
G1 X17.7932 Y50.5989
G1 X17.9142 Y50.4399
G1 X18.0549 Y50.2992
G1 X18.2139 Y50.1782
G1 X18.3871 Y50.0775
G1 X18.5713 Y50.0016
G1 X18.765 Y49.9494
G0 Z3.0
G0 X19.266
G0 Z1.325
G1 F50.0 Z-0.075
G1 F150.0 Y49.9369
G1 X19.36 Y49.9494
G1 X19.5537 Y50.0016
G1 X19.7379 Y50.0775
G1 X19.9111 Y50.1782
G1 X20.0701 Y50.2992
G1 X20.211 Y50.4401
G1 X20.3141 Y50.5746
G2 X20.3261 Y50.5902 I0.1669 J-0.1156
G1 X20.3328 Y50.5989
G1 X20.4326 Y50.7721
G1 X20.5093 Y50.9563
G1 X20.5605 Y51.1496
G1 X20.5733 Y51.245
G1 X20.3167
G2 X19.266 Y50.1943 I-1.2537 J0.203
G1 Y49.9494
G0 Z3.0
G0 X20.3167 Y51.651
G0 Z1.325
G1 F50.0 Z-0.075
G1 F150.0 X20.5731
G1 X20.5605 Y51.7454
G1 X20.5093 Y51.9387
G1 X20.4326 Y52.1229
G1 X20.3328 Y52.2961
G1 X20.211 Y52.4549
G1 X20.0699 Y52.596
G1 X19.9111 Y52.7178
G1 X19.7379 Y52.8176
G1 X19.5537 Y52.8943
G1 X19.3604 Y52.9455
G1 X19.266 Y52.9581
G1 Y52.7017
G2 X20.3167 Y51.651 I-0.203 J-1.2537
G0 Z3.0
G0 X18.86 Y52.7017
G0 Z1.325
G1 F50.0 Z-0.075
G1 F150.0 Y52.9583
G1 X18.7646 Y52.9455
G1 X18.5713 Y52.8943
G1 X18.3871 Y52.8176
G1 X18.2139 Y52.7178
G1 X18.0551 Y52.596
G1 X17.9142 Y52.4551
G1 X17.7932 Y52.2961
G1 X17.6925 Y52.1229
G1 X17.6454 Y52.0085
G2 X17.6399 Y51.9951 I-0.1904 J0.0705
G1 X17.6166 Y51.9387
G1 X17.5646 Y51.7454
G1 X17.5523 Y51.651
G1 X17.8093
G2 X18.428 Y52.5479 I1.2537 J-0.203
G2 X18.86 Y52.7017 I0.635 J-1.0999
G0 Z3.0
G0 X16.0643 Y51.9387
G0 Z1.325
G1 F50.0 Z-0.075
G1 F150.0 X15.9876 Y52.1229
G1 X15.8878 Y52.2961
G1 X15.766 Y52.4549
G1 X15.6249 Y52.596
G1 X15.4661 Y52.7178
G1 X15.2929 Y52.8176
G1 X15.1087 Y52.8943
G1 X14.9154 Y52.9455
G1 X14.821 Y52.9581
G1 Y52.7017
G2 X15.8717 Y51.651 I-0.203 J-1.2537
G1 X16.1281
G1 X16.1155 Y51.7454
G1 X16.0643 Y51.9387
G0 Z3.0
G0 Y51.245
G0 Z1.325
G1 F50.0 Z-0.075
G1 F150.0 X15.8717
G2 X14.821 Y50.1943 I-1.2537 J0.203
G1 Y49.9369
G1 X14.915 Y49.9494
G1 X15.1087 Y50.0016
G1 X15.2929 Y50.0775
G1 X15.4661 Y50.1782
G1 X15.6251 Y50.2992
G1 X15.766 Y50.4401
G1 X15.8691 Y50.5746
G2 X15.8811 Y50.5902 I0.1669 J-0.1156
G1 X15.8878 Y50.5989
G1 X15.9876 Y50.7721
G1 X16.0643 Y50.9563
G1 X16.1155 Y51.1496
G1 X16.1283 Y51.245
G1 X16.0643
G0 Z3.0
G0 X14.415 Y50.1943
G0 Z1.325
G1 F50.0 Z-0.075
G2 F150.0 X13.983 Y50.3481 I0.203 J1.2537
G2 X13.3643 Y51.245 I0.635 J1.0999
G1 X13.1072
G1 X13.1196 Y51.1496
G1 X13.1716 Y50.9563
G1 X13.2475 Y50.7721
G1 X13.3482 Y50.5989
G1 X13.4692 Y50.4399
G1 X13.6099 Y50.2992
G1 X13.7689 Y50.1782
G1 X13.9421 Y50.0775
G1 X14.1263 Y50.0016
G1 X14.32 Y49.9494
G1 X14.415 Y49.9367
G1 Y50.1943
G0 Z3.0
G0 X13.3643 Y51.651
G0 Z1.325
G1 F50.0 Z-0.075
G2 F150.0 X13.983 Y52.5479 I1.2537 J-0.203
G2 X14.415 Y52.7017 I0.635 J-1.0999
G1 Y52.9583
G1 X14.3196 Y52.9455
G1 X14.1263 Y52.8943
G1 X13.9421 Y52.8176
G1 X13.7689 Y52.7178
G1 X13.6101 Y52.596
G1 X13.4692 Y52.4551
G1 X13.3482 Y52.2961
G1 X13.2475 Y52.1229
G1 X13.2004 Y52.0085
G2 X13.1949 Y51.9951 I-0.1904 J0.0705
G1 X13.1716 Y51.9387
G1 X13.1196 Y51.7454
G1 X13.1073 Y51.651
G1 X13.3643
G0 Z3.0
G0 X12.2321 Y37.478
G0 Z1.325
G1 F50.0 Z-0.075
G1 F150.0 X10.6539
G1 X9.538 Y36.3621
G1 Y34.7839
G1 X10.6539 Y33.668
G1 X12.2321
G1 X12.5026 Y33.9385
G1 X13.6956 Y32.7456
G3 X13.983 Y32.6265 I0.2874 J0.2874
G1 X15.7196
G1 X16.957 Y31.3891
G3 X16.955 Y31.331 I0.836 J-0.0581
G1 Y29.654
G3 X18.631 I0.838 J0.0
G1 Y31.331
G3 X17.4163 Y32.0796 I-0.838 J0.0
G1 X16.1754 Y33.3204
G3 X15.888 Y33.4395 I-0.2874 J-0.2874
G1 X14.1514
G1 X13.0775 Y34.5134
G1 X13.348 Y34.7839
G1 Y36.3621
G1 X12.2321 Y37.478
G0 Z3.0
G0 X13.983 Y36.3621
G0 Z1.325
G1 F50.0 Z-0.075
G1 F150.0 Y34.7839
G1 X15.0989 Y33.668
G1 X16.6771
G1 X17.793 Y34.7839
G1 Y35.1665
G1 X18.2596
G1 X22.037 Y31.3891
G3 X22.035 Y31.331 I0.836 J-0.0581
G1 Y29.654
G3 X23.711 I0.838 J0.0
G1 Y31.331
G3 X22.4963 Y32.0796 I-0.838 J0.0
G1 X18.7154 Y35.8604
G3 X18.428 Y35.9795 I-0.2874 J-0.2874
G1 X17.793
G1 Y36.3621
G1 X16.6771 Y37.478
G1 X15.0989
G1 X13.983 Y36.3621
G0 Z3.0
G0 X12.2321 Y32.398
G0 Z1.325
G1 F50.0 Z-0.075
G1 F150.0 X10.6539
G1 X9.538 Y31.2821
G1 Y29.7039
G1 X10.6539 Y28.588
G1 X12.2321
G1 X13.348 Y29.7039
G1 Y30.0865
G1 X14.415
G1 Y29.654
G3 X16.091 I0.838 J0.0
G1 Y31.331
G3 X14.415 I-0.838 J0.0
G1 Y30.8995
G1 X13.348
G1 Y31.2821
G1 X12.2321 Y32.398
G0 Z3.0
G0 X19.5022 Y31.4404
G0 Z1.325
G1 F50.0 Z-0.075
G3 F150.0 X19.495 Y31.331 I0.8308 J-0.1094
G1 Y29.654
G3 X21.171 I0.838 J0.0
G1 Y31.331
G3 X19.5022 Y31.4404 I-0.838 J0.0
G0 Z3.0
G0 X25.616 Y28.841
G0 Z1.325
G1 F50.0 Z-0.075
G1 F150.0 Y28.5806
G1 X25.6684 Y28.589
G1 X25.832 Y28.6421
G1 X25.9858 Y28.7207
G1 X26.0301 Y28.7527
G2 X26.0487 Y28.7661 I0.1279 J-0.1577
G1 X26.1247 Y28.8209
G1 X26.246 Y28.943
G1 X26.3473 Y29.0824
G1 X26.3483 Y29.0843
G2 X26.356 Y29.0995 I0.1847 J-0.0843
G1 X26.4248 Y29.2348
G1 X26.478 Y29.3985
G1 X26.505 Y29.569
G1 Y30.29
G1 X26.251
G1 Y29.654
G2 X25.616 Y28.841 I-0.838 J0.0
G0 Z3.0
G0 Y27.75
G0 Z1.325
G1 F50.0 Z-0.075
G1 F150.0 X26.803
G3 X26.9463 Y27.8092 I0.0 J0.203
G1 X27.2833 Y28.1452
G3 X27.343 Y28.289 I-0.1433 J0.1438
G1 Y28.707
G3 X27.2835 Y28.8505 I-0.203 J0.0
G1 X27.0701 Y29.064
G1 X27.0673 Y29.0706
G3 X27.0614 Y29.0848 I-0.1903 J-0.0706
G1 X26.911 Y29.4474
G1 Y29.553
G1 Y30.493
G1 Y31.024
G1 Y31.433
G1 Y31.5376
G1 X27.0701 Y31.921
G1 X27.2255 Y32.0765
G3 X27.082 Y32.423 I-0.1435 J0.1435
G1 X26.356
G3 X26.2125 Y32.0765 I0.0 J-0.203
G1 X26.2462 Y32.0427
G1 X26.3472 Y31.9038
G1 X26.4248 Y31.7504
G1 X26.478 Y31.5864
G1 X26.505 Y31.4169
G1 Y31.024
G1 Y30.696
G1 X26.251
G1 Y31.331
G3 X24.575 I-0.838 J0.0
G1 Y30.696
G1 X24.32
G1 Y31.024
G1 Y31.4169
G1 X24.347 Y31.5864
G1 X24.4001 Y31.75
G1 X24.4785 Y31.9035
G1 X24.5798 Y32.0427
G1 X24.6135 Y32.0765
G3 X24.47 Y32.423 I-0.1435 J0.1435
G1 X23.744
G3 X23.6005 Y32.0765 I0.0 J-0.203
G1 X23.7558 Y31.9211
G1 X23.8192 Y31.7674
G3 X23.8281 Y31.746 I0.1918 J0.0666
G1 X23.914 Y31.5378
G1 Y31.433
G1 Y31.024
G1 Y30.493
G1 Y29.553
G1 Y29.4472
G1 X23.763 Y29.0813
G3 X23.7598 Y29.0736 I0.186 J-0.0813
G1 X23.7558 Y29.0639
G1 X23.4631 Y28.7712
G1 X23.0798 Y28.613
G1 X22.6653
G1 X22.2829 Y28.7711
G1 X21.9901 Y29.064
G1 X21.9873 Y29.0706
G3 X21.9814 Y29.0848 I-0.1903 J-0.0706
G1 X21.831 Y29.4474
G1 Y29.809
G1 Y30.214
G1 Y30.619
G1 Y31.024
G1 Y31.223
G3 X21.7715 Y31.3665 I-0.203 J0.0
G1 X21.7205 Y31.4175
G3 X21.374 Y31.274 I-0.1435 J-0.1435
G1 Y31.024
G1 Y30.619
G1 Y30.214
G1 Y29.809
G1 Y29.4472
G1 X21.223 Y29.0813
G3 X21.2198 Y29.0736 I0.186 J-0.0813
G1 X21.2158 Y29.0639
G1 X20.9231 Y28.7712
G1 X20.5398 Y28.613
G1 X20.1253
G1 X19.7429 Y28.7711
G1 X19.4501 Y29.064
G1 X19.4473 Y29.0706
G3 X19.4414 Y29.0848 I-0.1903 J-0.0706
G1 X19.291 Y29.4474
G1 Y29.809
G1 Y30.214
G1 Y30.619
G1 Y31.024
G1 Y31.429
G1 Y31.5376
G1 X19.4501 Y31.921
G1 X19.7429 Y32.2139
G1 X20.1253 Y32.372
G1 X20.275
G3 X20.4186 Y32.7185 I0.0 J0.203
G1 X20.3619 Y32.7753
G3 X20.3383 Y32.7988 I-0.1549 J-0.1313
G1 X19.9557 Y33.1816
G3 X19.9347 Y33.2026 I-0.1537 J-0.1326
G1 X19.5494 Y33.5881
G3 X19.5312 Y33.6063 I-0.1524 J-0.1341
G1 X19.1438 Y33.9939
G3 X19.129 Y34.0087 I-0.1508 J-0.1359
G1 X18.7367 Y34.4012
G3 X18.7263 Y34.4116 I-0.1487 J-0.1382
G1 X18.3426 Y34.7955
G3 X18.0035 Y34.7066 I-0.1436 J-0.1435
G1 X17.7035 Y34.4065
G1 X17.2985 Y34.0015
G1 X16.9059 Y33.609
G3 X16.882 Y33.5851 I0.1311 J-0.155
G1 X16.7531 Y33.4561
G3 X16.6655 Y33.1175 I0.0559 J-0.1951
G1 X16.8775 Y32.9055
G1 X17.2825 Y32.5005
G1 X17.3655 Y32.4175
G3 X17.5826 Y32.3718 I0.1435 J0.1435
G1 X17.5831 Y32.372
G1 X17.9998
G1 X18.3831 Y32.2138
G1 X18.6758 Y31.9211
G1 X18.7392 Y31.7674
G3 X18.7481 Y31.746 I0.1918 J0.0666
G1 X18.834 Y31.5378
G1 Y31.429
G1 Y31.024
G1 Y30.619
G1 Y30.214
G1 Y29.809
G1 Y29.4472
G1 X18.683 Y29.0813
G3 X18.6798 Y29.0736 I0.186 J-0.0813
G1 X18.6758 Y29.0639
G1 X18.3831 Y28.7712
G1 X17.9998 Y28.613
G1 X17.5853
G1 X17.2029 Y28.7711
G1 X16.9101 Y29.064
G1 X16.9073 Y29.0706
G3 X16.9014 Y29.0848 I-0.1903 J-0.0706
G1 X16.751 Y29.4474
G1 Y29.809
G1 Y30.214
G1 Y30.619
G1 Y31.024
G1 Y31.223
G3 X16.6915 Y31.3665 I-0.203 J0.0
G1 X16.6405 Y31.4175
G3 X16.294 Y31.274 I-0.1435 J-0.1435
G1 Y31.024
G1 Y30.619
G1 Y30.214
G1 Y29.809
G1 Y29.4472
G1 X16.143 Y29.0813
G3 X16.1398 Y29.0736 I0.186 J-0.0813
G1 X16.1358 Y29.0639
G1 X15.8431 Y28.7712
G1 X15.4598 Y28.613
G1 X15.0453
G1 X14.6629 Y28.7711
G1 X14.3701 Y29.064
G1 X14.3673 Y29.0706
G3 X14.3614 Y29.0848 I-0.1903 J-0.0706
G1 X14.211 Y29.4474
G1 Y29.68
G3 X14.008 Y29.883 I-0.203 J0.0
G1 X13.754
G3 X13.551 Y29.68 I0.0 J-0.203
G1 Y29.6191
G1 X13.0869 Y29.155
G3 X13.063 Y29.1311 I0.1311 J-0.155
G1 X12.3159 Y28.384
G1 X10.5691
G1 X10.227 Y28.7261
G3 X10.2031 Y28.75 I-0.155 J-0.1311
G1 X9.822 Y29.1311
G3 X9.7981 Y29.155 I-0.155 J-0.1311
G1 X9.4055 Y29.5475
G1 X9.334 Y29.6191
G1 Y29.809
G1 Y30.214
G1 Y30.619
G1 Y31.024
G1 Y31.3659
G1 X9.6585 Y31.6905
G1 X10.0635 Y32.0955
G1 X10.4685 Y32.5005
G1 X10.5691 Y32.601
G1 X12.3159
G1 X13.551 Y31.3659
G1 Y31.305
G3 X13.754 Y31.102 I0.203 J0.0
G1 X14.008
G3 X14.211 Y31.305 I0.0 J0.203
G1 Y31.5376
G1 X14.3701 Y31.921
G1 X14.5255 Y32.0765
G3 X14.382 Y32.423 I-0.1435 J0.1435
G1 X13.8614
G1 X13.637 Y32.5161
G1 X12.9605 Y33.1925
G1 X12.6455 Y33.5075
G3 X12.3578 Y33.5068 I-0.1435 J-0.1435
G1 X12.3153 Y33.464
G1 X10.5691
G1 X10.448 Y33.5851
G3 X10.4241 Y33.609 I-0.155 J-0.1311
G1 X10.0315 Y34.0015
G1 X9.6265 Y34.4065
G1 X9.334 Y34.6991
G1 Y35.073
G1 Y35.478
G1 Y35.883
G1 Y35.922
G3 X8.986 Y36.0641 I-0.203 J0.0
G1 X8.9578 Y36.0354
G3 X8.937 Y36.0141 I0.1342 J-0.1524
G1 X8.936 Y36.0131
G3 X8.878 Y35.871 I0.145 J-0.1421
G1 Y35.478
G1 Y35.073
G1 Y34.263
G1 Y33.858
G1 Y33.454
G1 Y33.049
G1 Y32.644
G1 Y32.239
G1 Y31.834
G1 Y31.024
G1 Y30.619
G1 Y30.214
G1 Y29.809
G1 Y29.404
G1 Y29.0
G1 Y28.595
G1 Y27.953
G3 X9.081 Y27.75 I0.203 J0.0
G1 X25.616
G0 Z3.0
G0 X29.7124 Y29.3492
G0 Z1.325
G1 F50.0 Z-0.075
G3 F150.0 X31.331 Y29.654 I0.7806 J0.3048
G1 Y31.331
G3 X29.655 I-0.838 J0.0
G1 Y29.654
G3 X29.7124 Y29.3492 I0.838 J0.0
G0 Z3.0
G0 X32.1985 Y29.5774
G0 Z1.325
G1 F50.0 Z-0.075
G3 F150.0 X33.871 Y29.654 I0.8345 J0.0766
G1 Y31.331
G3 X32.195 I-0.838 J0.0
G1 Y29.654
G3 X32.1985 Y29.5774 I0.838 J0.0
G0 Z3.0
G0 X34.7352 Y29.635
G0 Z1.325
G1 F50.0 Z-0.075
G3 F150.0 X36.411 Y29.654 I0.8378 J0.019
G1 Y31.331
G3 X34.735 I-0.838 J0.0
G1 Y29.654
G3 X34.7352 Y29.635 I0.838 J0.0
G0 Z3.0
G0 X37.275 Y29.6493
G0 Z1.325
G1 F50.0 Z-0.075
G3 F150.0 X38.951 Y29.654 I0.838 J0.0047
G1 Y31.331
G3 X37.275 I-0.838 J0.0
G1 Y29.654
G3 Y29.6493 I0.838 J0.0
G0 Z3.0
G0 X44.895 Y29.6535
G0 Z1.325
G1 F50.0 Z-0.075
G3 F150.0 X46.571 Y29.654 I0.838 J0.0005
G1 Y31.331
G3 X46.1395 Y32.0638 I-0.838 J0.0
G1 Y39.8496
G1 X52.1714 Y45.8815
G3 X53.149 Y45.276 I0.9776 J0.4865
G1 X55.334
G3 Y47.46 I0.0 J1.092
G1 X53.149
G3 X52.1355 Y46.7745 I0.0 J-1.092
G1 X52.083
G3 X51.7956 Y46.6554 I0.0 J-0.4065
G1 X45.4456 Y40.3054
G3 X45.3265 Y40.018 I0.2874 J-0.2874
G1 Y32.0638
G3 X44.895 Y31.331 I0.4065 J-0.7328
G1 Y29.654
G3 Y29.6535 I0.838 J0.0
G0 Z3.0
G0 X47.435 Y29.6539
G0 Z1.325
G1 F50.0 Z-0.075
G3 F150.0 X49.111 Y29.654 I0.838 J0.0001
G1 Y31.331
G3 X48.6795 Y32.0638 I-0.838 J0.0
G1 Y40.4846
G1 X51.6164 Y43.4215
G1 X52.1355
G3 X53.149 Y42.736 I1.0135 J0.4065
G1 X55.334
G3 Y44.92 I0.0 J1.092
G1 X53.149
G3 X52.1355 Y44.2345 I0.0 J-1.092
G1 X51.448
G3 X51.1606 Y44.1154 I0.0 J-0.4065
G1 X47.9856 Y40.9404
G3 X47.8665 Y40.653 I0.2874 J-0.2874
G1 Y32.0638
G3 X47.435 Y31.331 I0.4065 J-0.7328
G1 Y29.654
G3 Y29.6539 I0.838 J0.0
G0 Z3.0
G0 X51.0415
G0 Z1.325
G1 F50.0 Z-0.075
G1 F150.0 Y24.0762
G3 X50.813 Y23.9729 I0.4065 J-1.2032
G3 X50.2448 Y23.2795 I0.635 J-1.0999
G1 X49.111
G1 Y23.711
G3 X47.435 I-0.838 J0.0
G1 Y22.034
G3 X49.111 I0.838 J0.0
G1 Y22.4665
G1 X50.2448
G3 X50.813 Y21.7731 I1.2032 J0.4065
G3 X52.718 Y22.873 I0.635 J1.0999
G3 X51.8545 Y24.0762 I-1.27 J0.0
G1 Y30.774
G1 X54.1289 Y35.116
G1 X55.334
G3 Y37.3 I0.0 J1.092
G1 X53.149
G3 Y35.116 I0.0 J-1.092
G1 X53.2111
G1 X51.0879 Y31.0626
G3 X51.0415 Y30.874 I0.3601 J-0.1886
G1 Y29.6539
G0 Z3.0
G0 X55.4351 Y23.1627
G0 Z1.325
G1 F50.0 Z-0.075
G3 F150.0 X55.512 Y21.0111 I0.7119 J-1.0517
G3 X57.417 Y22.111 I0.635 J1.0999
G3 X55.512 Y23.2109 I-1.27 J0.0
G3 X55.4351 Y23.1627 I0.635 J-1.0999
G0 Z3.0
G0 X51.1638 Y10.5721
G0 Z1.325
G1 F50.0 Z-0.075
G3 F150.0 X50.267 Y10.4837 I-0.3508 J-1.0341
G3 Y8.5923 I0.546 J-0.9457
G3 X51.905 Y9.538 I0.546 J0.9457
G3 X51.1638 Y10.5721 I-1.092 J0.0
G0 Z3.0
G0 X50.8756 Y5.5482
G0 Z1.325
G1 F50.0 Z-0.075
G3 F150.0 X50.267 Y5.4037 I-0.0626 J-1.0902
G3 Y3.5123 I0.546 J-0.9457
G3 X51.905 Y4.458 I0.546 J0.9457
G3 X50.8756 Y5.5482 I-1.092 J0.0
G0 Z3.0
G0 X43.1749 Y10.4091
G0 Z1.325
G1 F50.0 Z-0.075
G3 F150.0 X43.371 Y11.087 I-1.0739 J0.6779
G3 X41.466 Y12.1869 I-1.27 J0.0
G3 Y9.9871 I0.635 J-1.0999
G3 X43.1749 Y10.4091 I0.635 J1.0999
G0 Z3.0
G0 X36.7954 Y8.6123
G0 Z1.325
G1 F50.0 Z-0.075
G3 F150.0 X34.938 Y9.3679 I-1.2224 J-0.3443
G3 Y7.1681 I0.635 J-1.0999
G3 X36.843 Y8.268 I0.635 J1.0999
G3 X36.7954 Y8.6123 I-1.27 J0.0
( text )
M0
G0 Z3.0
( T3 : 0.2 )
T3 M6
M3 S1000
G0 X27.8419 Y47.9612
G0 Z1.325
G1 F50.0 Z-0.075
G1 F150.0 X29.0753 Y45.1837
G1 X30.3106 Y47.9612
G1 X30.5506 Y45.2023
G1 X30.3106 Y47.9612
G1 X29.0753 Y45.1837
G1 X27.8419 Y47.9612
G1 X27.6056 Y45.2023
G1 X27.8419 Y47.9612
G0 Z3.0
G0 X27.6141 Y43.4111
G0 Z1.325
G1 F50.0 Z-0.075
G3 F150.0 X27.6231 Y43.3111 I0.5247 J-0.0031
G3 X27.655 Y43.2158 I0.3586 J0.0671
G3 X27.7638 Y43.0837 I0.335 J0.1652
G3 X27.9238 Y43.0084 I0.2747 J0.3759
G3 X28.1182 Y42.9851 I0.1905 J0.7687
G3 X28.3052 Y43.014 I0.0073 J0.5732
G3 X28.4475 Y43.0921 I-0.1509 J0.4435
G3 X28.5396 Y43.2028 I-0.2199 J0.2766
G3 X28.574 Y43.3274 I-0.2519 J0.1366
G3 X28.5624 Y43.4408 I-0.4112 J0.0153
G3 X28.5163 Y43.5451 I-0.3245 J-0.0812
G3 X28.4329 Y43.6248 I-0.2107 J-0.1369
G3 X28.3247 Y43.6651 I-0.1736 J-0.3012
G1 X27.8578 Y43.7655
G2 X27.7732 Y43.7959 I0.0752 J0.3424
G2 X27.7024 Y43.8511 I0.1095 J0.2134
G2 X27.6586 Y43.9456 I0.1705 J0.1364
G2 X27.6485 Y44.0492 I0.4667 J0.0981
G2 X27.6754 Y44.1767 I0.3093 J0.0011
G2 X27.7573 Y44.2837 I0.2758 J-0.1262
G2 X27.8912 Y44.3562 I0.2639 J-0.3273
G2 X28.0726 Y44.3832 I0.1725 J-0.5368
G2 X28.2624 Y44.359 I0.0066 J-0.705
G2 X28.4112 Y44.2892 I-0.1178 J-0.4449
G2 X28.508 Y44.1776 I-0.1779 J-0.2519
G2 X28.5396 Y44.0269 I-0.279 J-0.1372
G3 X28.508 Y44.1776 I-0.3106 J0.0135
G3 X28.4112 Y44.2892 I-0.2747 J-0.1403
G3 X28.2624 Y44.359 I-0.2666 J-0.3751
G3 X28.0726 Y44.3832 I-0.1832 J-0.6807
G3 X27.8912 Y44.3562 I-0.0089 J-0.5637
G3 X27.7573 Y44.2837 I0.1299 J-0.3998
G3 X27.6754 Y44.1767 I0.1939 J-0.2332
G3 X27.6485 Y44.0492 I0.2823 J-0.1263
G3 X27.6624 Y43.9339 I0.4237 J-0.0073
G3 X27.7034 Y43.8511 I0.2328 J0.0636
G3 X27.7694 Y43.7962 I0.1592 J0.1244
G3 X27.8578 Y43.7655 I0.1713 J0.3507
G1 X28.3247 Y43.6651
G2 X28.4317 Y43.6242 I-0.0664 J-0.3341
G2 X28.5145 Y43.5451 I-0.1357 J-0.2249
G2 X28.574 Y43.3274 I-0.2962 J-0.198
G2 X28.5396 Y43.2028 I-0.2863 J0.012
G2 X28.4475 Y43.0921 I-0.312 J0.1659
G2 X28.3052 Y43.014 I-0.2932 J0.3654
G2 X28.1182 Y42.9851 I-0.1797 J0.5445
G2 X27.9238 Y43.0084 I-0.0039 J0.7919
G2 X27.7638 Y43.0837 I0.1147 J0.4512
G2 X27.655 Y43.2158 I0.2262 J0.2973
G2 X27.6231 Y43.3111 I0.3267 J0.1624
G2 X27.6141 Y43.4111 I0.5157 J0.097
G0 Z3.0
G0 X30.0364 Y43.5829
G0 Z1.325
G1 F50.0 Z-0.075
G3 F150.0 X30.0629 Y43.4027 I1.2077 J0.0856
G3 X30.1097 Y43.2682 I0.6659 J0.1564
G3 X30.1888 Y43.1498 I0.432 J0.2028
G3 X30.3902 Y43.0184 I0.3615 J0.334
G3 X30.6278 Y42.9814 I0.2271 J0.6777
G3 X30.8277 Y43.0059 I0.0079 J0.7612
G3 X31.0083 Y43.0949 I-0.1271 J0.486
G3 X31.1366 Y43.2584 I-0.2907 J0.3601
G3 X31.199 Y43.4567 I-0.6996 J0.3291
G2 X31.1366 Y43.2584 I-0.7619 J0.1308
G2 X31.0083 Y43.0949 I-0.4189 J0.1965
G2 X30.8277 Y43.0059 I-0.3077 J0.397
G2 X30.6278 Y42.9814 I-0.1919 J0.7367
G2 X30.3902 Y43.0184 I-0.0106 J0.7147
G2 X30.1888 Y43.1498 I0.1601 J0.4655
G2 X30.1097 Y43.2682 I0.3529 J0.3212
G2 X30.049 Y43.4718 I0.6833 J0.3145
G2 X30.0334 Y43.6837 I1.3154 J0.2034
G2 X30.063 Y43.9642 I1.2018 J0.015
G2 X30.1099 Y44.0984 I0.6662 J-0.1574
G2 X30.1888 Y44.2167 I0.4361 J-0.2052
G2 X30.3898 Y44.3494 I0.3632 J-0.3314
G2 X30.6278 Y44.3869 I0.2274 J-0.6697
G2 X30.8042 Y44.3679 I0.006 J-0.7708
G2 X30.9683 Y44.3004 I-0.1179 J-0.52
G2 X31.0921 Y44.1832 I-0.2283 J-0.3654
G2 X31.1683 Y44.0306 I-0.4783 J-0.3339
G3 X31.0921 Y44.1832 I-0.5544 J-0.1813
G3 X30.9683 Y44.3004 I-0.3522 J-0.2483
G3 X30.8042 Y44.3679 I-0.282 J-0.4526
G3 X30.6278 Y44.3869 I-0.1704 J-0.7518
G3 X30.3898 Y44.3494 I-0.0106 J-0.7072
G3 X30.1888 Y44.2167 I0.1621 J-0.4642
G3 X30.1099 Y44.0984 I0.3572 J-0.3235
G3 X30.0491 Y43.8952 I0.6823 J-0.3149
G3 X30.0334 Y43.6837 I1.3047 J-0.2031
G3 X30.0364 Y43.5829 I1.2107 J-0.0151
G0 Z3.0
G0 X33.5029 Y46.1809
G0 Z1.325
G1 F50.0 Z-0.075
G2 F150.0 X33.4564 Y45.7418 I-1.8562 J-0.0254
G2 X33.3039 Y45.433 I-0.6956 J0.1515
G2 X33.0155 Y45.2488 I-0.4984 J0.4625
G2 X32.7957 Y45.2002 I-0.3449 J1.0391
G2 X32.5709 Y45.1874 I-0.2168 J1.8252
G2 X32.3488 Y45.1999 I-0.0087 J1.825
G2 X32.1319 Y45.2488 I0.1139 J1.0116
G2 X31.864 Y45.4367 I0.1905 J0.5565
G2 X31.73 Y45.7493 I0.6053 J0.4444
G2 X31.6947 Y46.1809 I2.3352 J0.4085
G1 Y47.9501
G1 Y46.1809
G3 X31.73 Y45.7493 I2.3702 J-0.0231
G3 X31.864 Y45.4367 I0.7392 J0.1318
G3 X32.1319 Y45.2488 I0.4584 J0.3686
G3 X32.3488 Y45.1999 I0.331 J0.9631
G3 X32.5709 Y45.1874 I0.2135 J1.8134
G3 X32.7957 Y45.2002 I0.0081 J1.8375
G3 X33.0155 Y45.2488 I-0.1252 J1.0881
G3 X33.3039 Y45.433 I-0.2101 J0.6467
G3 X33.4564 Y45.7418 I-0.5431 J0.4604
G3 X33.5029 Y46.1809 I-1.8098 J0.4137
G1 Y47.9501
G1 Y46.1809
G0 Z3.0
G0 X35.2368 Y47.924
G0 Z1.325
G1 F50.0 Z-0.075
G1 F150.0 Y45.1837
G1 Y47.924
G1 X36.0442
G1 X34.4257
G1 X35.2368
G0 Z3.0
G0 X37.8655
G0 Z1.325
G1 F50.0 Z-0.075
G1 F150.0 X38.9519 Y45.1837
G1 X37.8655 Y47.924
G1 X36.7846 Y45.1837
G1 X37.8655 Y47.924
G0 Z3.0
G0 X38.5631 Y46.1623
G0 Z1.325
G1 F50.0 Z-0.075
G1 F150.0 X37.1641
G1 X38.5631
G0 Z3.0
G0 X38.5832 Y44.3702
G0 Z1.325
G1 F50.0 Z-0.075
G1 F150.0 X39.0808
G1 X38.0902
G1 X38.5832
G1 Y42.9963
G1 Y44.3702
G0 Z3.0
G0 X36.6363 Y43.4325
G0 Z1.325
G1 F50.0 Z-0.075
G2 F150.0 X36.6084 Y43.267 I-0.4939 J-0.0019
G2 X36.5237 Y43.1274 I-0.3557 J0.1203
G2 X36.3758 Y43.0326 I-0.2858 J0.2829
G2 X36.2695 Y43.0056 I-0.1764 J0.473
G2 X36.16 Y42.9982 I-0.1061 J0.7474
G2 X35.9415 Y43.0335 I-0.0022 J0.6802
G2 X35.7889 Y43.1256 I0.1481 J0.4177
G2 X35.6996 Y43.2623 I0.2652 J0.2707
G2 X35.6708 Y43.4325 I0.4598 J0.1654
G1 Y44.372
G1 Y43.4325
G3 X35.6996 Y43.2623 I0.4886 J-0.0048
G3 X35.7889 Y43.1256 I0.3545 J0.134
G3 X35.9415 Y43.0335 I0.3007 J0.3257
G3 X36.16 Y42.9982 I0.2164 J0.6449
G3 X36.2695 Y43.0056 I0.0034 J0.7542
G3 X36.3758 Y43.0326 I-0.07 J0.5
G3 X36.5237 Y43.1274 I-0.1379 J0.3777
G3 X36.6084 Y43.267 I-0.271 J0.2599
G3 X36.6363 Y43.4325 I-0.4659 J0.1637
G1 Y44.372
G1 Y43.4325
G0 Z3.0
G0 X36.4324 Y42.0726
G0 Z1.325
G1 F50.0 Z-0.075
G1 F150.0 Y40.7025
G1 Y42.0726
G1 X36.8361
G1 X36.0268
G1 X36.4324
G0 Z3.0
G0 X37.3465 Y41.7219
G0 Z1.325
G1 F50.0 Z-0.075
G2 F150.0 X37.4333 Y41.8857 I0.717 J-0.2751
G2 X37.5905 Y42.0354 I0.447 J-0.3118
G2 X37.783 Y42.0912 I0.1925 J-0.3041
G2 X37.9755 Y42.0354 I0.001 J-0.3567
G2 X38.1327 Y41.8857 I-0.2898 J-0.4616
G2 X38.2397 Y41.6652 I-0.6154 J-0.4348
G2 X38.2788 Y41.3955 I-0.871 J-0.2638
G2 X38.2397 Y41.1257 I-0.9101 J-0.0059
G2 X38.1327 Y40.9043 I-0.7349 J0.2186
G2 X37.9755 Y40.7564 I-0.4396 J0.3098
G2 X37.783 Y40.7025 I-0.1912 J0.3118
G2 X37.5905 Y40.7564 I-0.0004 J0.369
G2 X37.4333 Y40.9043 I0.2824 J0.4577
G2 X37.3272 Y41.1257 I0.6431 J0.4441
G2 X37.2881 Y41.3955 I0.871 J0.2638
G2 X37.3272 Y41.6652 I0.9101 J0.0059
G2 X37.3465 Y41.7219 I0.7363 J-0.2184
G0 Z3.0
G0 X38.8257 Y42.0745
G0 Z1.325
G1 F50.0 Z-0.075
G1 F150.0 X39.022
G1 Y40.7025
G1 Y42.0745
G1 X38.8257
G0 Z3.0
G0 X33.9896 Y43.4061
G0 Z1.325
G1 F50.0 Z-0.075
G2 F150.0 X33.9754 Y43.36 I-0.7808 J0.215
G2 X33.9224 Y43.2435 I-0.6461 J0.2236
G2 X33.8452 Y43.1414 I-0.438 J0.2511
G2 X33.6527 Y43.0214 I-0.3498 J0.3469
G2 X33.4173 Y42.9851 I-0.2299 J0.7097
G2 X33.182 Y43.0214 I-0.0055 J0.746
G2 X32.9894 Y43.1414 I0.1573 J0.4669
G2 X32.9122 Y43.2435 I0.3608 J0.3532
G2 X32.8592 Y43.36 I0.5928 J0.3399
G2 X32.8218 Y43.5245 I0.7665 J0.261
G2 X32.8118 Y43.693 I1.3169 J0.1626
G2 X32.8219 Y43.861 I1.3124 J0.0057
G2 X32.8592 Y44.0251 I0.8132 J-0.0989
G2 X32.9121 Y44.1429 I0.6587 J-0.2248
G2 X32.9894 Y44.2464 I0.4431 J-0.2505
G2 X33.182 Y44.3692 I0.3462 J-0.3305
G2 X33.4173 Y44.4064 I0.23 J-0.6917
G2 X33.6527 Y44.3692 I0.0054 J-0.7289
G2 X33.8452 Y44.2464 I-0.1536 J-0.4532
G2 X33.9225 Y44.1429 I-0.3658 J-0.3539
G2 X33.9754 Y44.0251 I-0.6059 J-0.3427
G2 X34.0128 Y43.861 I-0.7758 J-0.263
G2 X34.0229 Y43.693 I-1.3022 J-0.1623
G2 X34.0129 Y43.5245 I-1.3282 J-0.0058
G2 X33.9896 Y43.4061 I-0.8041 J0.0965
G2 X33.9754 Y43.36 I-0.7808 J0.215
G2 X33.9224 Y43.2435 I-0.6461 J0.2236
G2 X33.8452 Y43.1414 I-0.438 J0.2511
G2 X33.6527 Y43.0214 I-0.3498 J0.3469
G2 X33.4173 Y42.9851 I-0.2299 J0.7097
G2 X33.182 Y43.0214 I-0.0055 J0.746
G2 X32.9894 Y43.1414 I0.1573 J0.4669
G2 X32.9122 Y43.2435 I0.3608 J0.3532
G2 X32.8592 Y43.36 I0.5928 J0.3399
G2 X32.8218 Y43.5245 I0.7665 J0.261
G2 X32.8118 Y43.693 I1.3169 J0.1626
G2 X32.8219 Y43.861 I1.3124 J0.0057
G2 X32.8592 Y44.0251 I0.8132 J-0.0989
G2 X32.9121 Y44.1429 I0.6587 J-0.2248
G2 X32.9894 Y44.2464 I0.4431 J-0.2505
G2 X33.182 Y44.3692 I0.3462 J-0.3305
G2 X33.4173 Y44.4064 I0.23 J-0.6917
G2 X33.6527 Y44.3692 I0.0054 J-0.7289
G2 X33.8452 Y44.2464 I-0.1536 J-0.4532
G2 X33.9225 Y44.1429 I-0.3658 J-0.3539
G2 X33.9754 Y44.0251 I-0.6059 J-0.3427
G2 X34.0128 Y43.861 I-0.7758 J-0.263
G2 X34.0229 Y43.693 I-1.3022 J-0.1623
G2 X34.0129 Y43.5245 I-1.3282 J-0.0058
G2 X33.9896 Y43.4061 I-0.8041 J0.0965
G0 Z3.0
G0 X52.7665 Y48.7469
G0 Z1.325
G1 F50.0 Z-0.075
G1 F150.0 Y49.4934
G1 Y48.7469
G0 Z3.0
G0 X53.2155
G0 Z1.325
G1 F50.0 Z-0.075
G1 F150.0 Y49.2733
G3 X53.2066 Y49.3609 I-0.3971 J0.0039
G3 X53.172 Y49.4418 I-0.2199 J-0.0463
G3 X53.1029 Y49.4912 I-0.1076 J-0.0774
G3 X53.0188 Y49.5031 I-0.0791 J-0.2565
G3 X52.9181 Y49.4773 I-0.0019 J-0.2024
G3 X52.8391 Y49.4136 I0.1437 J-0.2591
G3 X52.7867 Y49.3282 I0.2279 J-0.1985
G3 X52.7665 Y49.2403 I0.2487 J-0.1033
G2 X52.7867 Y49.3282 I0.2688 J-0.0154
G2 X52.8391 Y49.4136 I0.2803 J-0.1131
G2 X52.9181 Y49.4773 I0.2227 J-0.1954
G2 X53.0188 Y49.5031 I0.0989 J-0.1766
G2 X53.1029 Y49.4912 I0.005 J-0.2684
G2 X53.172 Y49.4418 I-0.0385 J-0.1268
G2 X53.2066 Y49.3609 I-0.1853 J-0.1272
G2 X53.2155 Y49.2733 I-0.3884 J-0.0837
G1 Y48.7469
G0 Z3.0
G0 X53.6646
G0 Z1.325
G1 F50.0 Z-0.075
G1 F150.0 Y49.2733
G3 X53.6557 Y49.3609 I-0.3971 J0.0039
G3 X53.621 Y49.4418 I-0.2199 J-0.0463
G3 X53.5528 Y49.4911 I-0.1076 J-0.0771
G3 X53.4695 Y49.5031 I-0.0784 J-0.2495
G3 X53.3671 Y49.4773 I-0.0026 J-0.2056
G3 X53.2881 Y49.4136 I0.1437 J-0.2591
G3 X53.2357 Y49.3282 I0.2279 J-0.1985
G3 X53.2155 Y49.2403 I0.2487 J-0.1033
G2 X53.2357 Y49.3282 I0.2688 J-0.0154
G2 X53.2881 Y49.4136 I0.2803 J-0.1131
G2 X53.3671 Y49.4773 I0.2227 J-0.1954
G2 X53.4695 Y49.5031 I0.0998 J-0.1798
G2 X53.5528 Y49.4911 I0.0049 J-0.2614
G2 X53.621 Y49.4418 I-0.0394 J-0.1264
G2 X53.6557 Y49.3609 I-0.1853 J-0.1272
G2 X53.6646 Y49.2733 I-0.3884 J-0.0837
G1 Y48.7469
G0 Z3.0
G0 X54.2127 Y48.7526
G0 Z1.325
G1 F50.0 Z-0.075
G1 F150.0 Y50.1351
G1 Y49.1556
G1 X54.6069 Y49.5007
G1 X54.2127 Y49.1556
G1 X54.7045 Y48.7526
G1 X54.2127 Y49.1556
G2 X54.2144 Y48.9509 I-15.0625 J-0.221
G1 Y48.8767
G1 Y48.8122
G2 X54.2135 Y48.7671 I-1.0275 J-0.0042
G2 X54.2127 Y48.7526 I-0.6693 J0.0299
G0 Z3.0
G0 X55.7183 Y49.9344
G0 Z1.325
G1 F50.0 Z-0.075
G1 F150.0 X55.5482
G1 X55.7183
G1 Y48.7453
G1 Y49.9344
( points07 )
M0
G0 Z3.0
( T5 : 0.7 )
T5 M6
M3 S1000
G0 X50.813 Y4.458
G98
G81 X50.813 Y4.458 Z-2.0 R3.0 F300.0
G81 Y6.998 Z-2.0
G81 Y9.538 Z-2.0
G81 X51.448 Y12.713 Z-2.0
G81 X49.543 Y18.555 Z-2.0
G81 X48.273 Y22.873 Z-2.0
G81 X45.733 Z-2.0
G81 X43.193 Z-2.0
G81 X40.653 Z-2.0
G81 X38.113 Z-2.0
G81 X35.573 Z-2.0
G81 X33.033 Z-2.0
G81 X30.493 Z-2.0
G81 X27.953 Z-2.0
G81 X25.413 Z-2.0
G81 X22.873 Z-2.0
G81 X20.333 Z-2.0
G81 X17.793 Z-2.0
G81 X15.253 Z-2.0
G81 X11.443 Z-2.0
G81 X8.268 Y25.413 Z-2.0
G81 X4.458 Z-2.0
G81 Y15.253 Z-2.0
G81 X8.268 Z-2.0
G81 X11.443 Y17.793 Z-2.0
G81 X16.523 Y18.428 Z-2.0
G81 Y15.888 Z-2.0
G81 X20.333 Y18.428 Z-2.0
G81 X25.413 Z-2.0
G81 X20.968 Y9.538 Z-2.0
G81 Y4.458 Z-2.0
G81 X35.573 Z-2.0
G81 Y8.268 Z-2.0
G81 X45.733 Z-2.0
G81 Y4.458 Z-2.0
G81 X39.383 Y18.555 Z-2.0
G81 X38.113 Y30.493 Z-2.0
G81 X35.573 Z-2.0
G81 X33.033 Z-2.0
G81 X30.493 Z-2.0
G81 X27.953 Z-2.0
G81 X25.413 Z-2.0
G81 X22.873 Z-2.0
G81 X20.333 Z-2.0
G81 X17.793 Z-2.0
G81 X15.253 Z-2.0
G81 X14.618 Y46.368 Z-2.0
G81 X19.063 Z-2.0
G81 Y51.448 Z-2.0
G81 X14.618 Z-2.0
G81 X40.653 Y30.493 Z-2.0
G81 X43.193 Z-2.0
G81 X45.733 Z-2.0
G81 X48.273 Z-2.0
G81 X51.448 Y22.873 Z-2.0
G80
( points10 )
M0
G0 Z3.0
( T4 : 1.0 )
T4 M6
M3 S1000
G0 X56.528 Y25.667
G98
G81 X56.528 Y25.667 Z-2.0 R3.0 F300.0
G81 X56.147 Y22.111 Z-2.0
G81 X54.623 Y18.047 Z-2.0
G81 X55.131 Y12.967 Z-2.0
G81 X56.147 Y9.411 Z-2.0
G81 X55.258 Y5.474 Z-2.0
G81 X48.603 Y11.087 Z-2.0
G81 Y15.608 Z-2.0
G81 X42.101 Z-2.0
G81 X38.748 Y12.713 Z-2.0
G81 X42.101 Y11.087 Z-2.0
G81 X34.303 Y12.713 Z-2.0
G81 X28.588 Y13.348 Z-2.0
G81 X25.413 Y8.903 Z-2.0
G81 X11.443 Y30.493 Z-2.0
G81 Y35.573 Z-2.0
G81 X15.888 Z-2.0
G81 X54.242 Y36.208 Z-2.0
G81 Y38.748 Z-2.0
G81 Y41.288 Z-2.0
G81 Y43.828 Z-2.0
G81 Y46.368 Z-2.0
G80
( Contour1 )
M0
G0 Z3.0
( T6 : 3.0 )
T6 M6
M3 S1000
G0 X2.553 Y1.053
G0 Z1.0
G1 F50.0 Z-0.5
G1 F150.0 X27.4405
G1 X28.0405 Z0.5
G1 X31.0405
G1 X31.6405 Z-0.5
G1 X59.068
G3 X60.568 Y2.553 I0.0 J1.5
G1 Y24.9005
G1 Y25.5005 Z0.5
G1 Y28.5005
G1 Y29.1005 Z-0.5
G1 Y53.988
G3 X59.068 Y55.488 I-1.5 J0.0
G1 X34.1805
G1 X33.5805 Z0.5
G1 X30.5805
G1 X29.9805 Z-0.5
G1 X2.553
G3 X1.053 Y53.988 I0.0 J-1.5
G1 Y31.6405
G1 Y31.0405 Z0.5
G1 Y28.0405
G1 Y27.4405 Z-0.5
G1 Y2.553
G0 Z3.0
G0 X2.553 Y1.053
G0 Z0.5
G1 F50.0 Z-1.0
G1 F150.0 X27.4405
G1 X28.0405 Z0.5
G1 X31.0405
G1 X31.6405 Z-1.0
G1 X59.068
G3 X60.568 Y2.553 I0.0 J1.5
G1 Y24.9005
G1 Y25.5005 Z0.5
G1 Y28.5005
G1 Y29.1005 Z-1.0
G1 Y53.988
G3 X59.068 Y55.488 I-1.5 J0.0
G1 X34.1805
G1 X33.5805 Z0.5
G1 X30.5805
G1 X29.9805 Z-1.0
G1 X2.553
G3 X1.053 Y53.988 I0.0 J-1.5
G1 Y31.6405
G1 Y31.0405 Z0.5
G1 Y28.0405
G1 Y27.4405 Z-1.0
G1 Y2.553
G0 Z3.0
G0 X2.553 Y1.053
G0 Z0.0
G1 F50.0 Z-1.5
G1 F150.0 X27.4405
G1 X28.0405 Z0.5
G1 X31.0405
G1 X31.6405 Z-1.5
G1 X59.068
G3 X60.568 Y2.553 I0.0 J1.5
G1 Y24.9005
G1 Y25.5005 Z0.5
G1 Y28.5005
G1 Y29.1005 Z-1.5
G1 Y53.988
G3 X59.068 Y55.488 I-1.5 J0.0
G1 X34.1805
G1 X33.5805 Z0.5
G1 X30.5805
G1 X29.9805 Z-1.5
G1 X2.553
G3 X1.053 Y53.988 I0.0 J-1.5
G1 Y31.6405
G1 Y31.0405 Z0.5
G1 Y28.0405
G1 Y27.4405 Z-1.5
G1 Y2.553
G0 Z3.0
G0 X2.553 Y1.053
G0 Z-0.5
G1 F50.0 Z-2.0
G1 F150.0 X27.4405
G1 X28.0405 Z0.5
G1 X31.0405
G1 X31.6405 Z-2.0
G1 X59.068
G3 X60.568 Y2.553 I0.0 J1.5
G1 Y24.9005
G1 Y25.5005 Z0.5
G1 Y28.5005
G1 Y29.1005 Z-2.0
G1 Y53.988
G3 X59.068 Y55.488 I-1.5 J0.0
G1 X34.1805
G1 X33.5805 Z0.5
G1 X30.5805
G1 X29.9805 Z-2.0
G1 X2.553
G3 X1.053 Y53.988 I0.0 J-1.5
G1 Y31.6405
G1 Y31.0405 Z0.5
G1 Y28.0405
G1 Y27.4405 Z-2.0
G1 Y2.553
G0 Z3.0
M5
M30
